; generated by Slic3r Prusa Edition 1.41.0+win64 on 2018-12-24 at 15:29:37

; 

; external perimeters extrusion width = 0.45mm
; perimeters extrusion width = 0.45mm
; infill extrusion width = 0.45mm
; solid infill extrusion width = 0.45mm
; top infill extrusion width = 0.40mm
; first layer extrusion width = 0.42mm

M201 X1000 Y1000 Z1000 E5000 ; sets maximum accelerations, mm/sec^2
M203 X200 Y200 Z12 E120 ; sets maximum feedrates, mm/sec
M204 P1250 R1250 T1250 ; sets acceleration (P, T) and retract acceleration (R), mm/sec^2
M205 X8.00 Y8.00 Z0.40 E1.50 ; sets the jerk limits, mm/sec
M205 S0 T0 ; sets the minimum extruding and travel feed rate, mm/sec
M107
M115 U3.4.1 ; tell printer latest fw version
M83  ; extruder relative mode
M104 S215 ; set extruder temp
M140 S65 ; set bed temp
M190 S65 ; wait for bed temp
M109 S215 ; wait for extruder temp
G28 W ; home all without mesh bed level
G80 ; mesh bed leveling
G1 Y-3.0 F1000.0 ; go outside print area
G92 E0.0
G1 X60.0 E9.0  F1000.0 ; intro line
M73 Q0 S45
M73 P0 R45
G1 X100.0 E12.5  F1000.0 ; intro line
G92 E0.0
M221 S95
M900 K30; Filament gcode
G21 ; set units to millimeters
G90 ; use absolute coordinates
M83 ; use relative distances for extrusion
;BEFORE_LAYER_CHANGE
G92 E0.0
;0.2


G1 E-0.80000 F2100.00000
G1 Z0.600 F10800.000
;AFTER_LAYER_CHANGE
;0.2
G1 X87.047 Y72.933
G1 Z0.200
G1 E0.80000 F2100.00000
M204 S1000
G1 F1200
G1 X88.119 Y71.707 E0.05107
G1 X90.266 Y69.472 E0.09717
G1 X91.468 Y68.335 E0.05188
G1 X93.845 Y66.295 E0.09821
G1 X95.124 Y65.299 E0.05084
G1 X97.685 Y63.495 E0.09821
G1 X99.054 Y62.626 E0.05084
G1 X101.775 Y61.075 E0.09821
G1 X103.221 Y60.341 E0.05084
G1 X106.078 Y59.057 E0.09821
G1 X107.587 Y58.464 E0.05084
G1 X110.557 Y57.458 E0.09832
G1 X113.582 Y56.642 E0.09822
G1 X115.165 Y56.295 E0.05083
G1 X116.756 Y56.001 E0.05073
G1 X119.860 Y55.578 E0.09821
G1 X122.988 Y55.353 E0.09833
G1 X124.627 Y55.313 E0.05141
G1 X127.740 Y55.387 E0.09764
G1 X129.357 Y55.503 E0.05083
G1 X132.468 Y55.876 E0.09822
G1 X134.099 Y56.151 E0.05188
G1 X137.127 Y56.813 E0.09717
G1 X138.724 Y57.244 E0.05188
G1 X141.706 Y58.203 E0.09821
G1 X144.625 Y59.350 E0.09833
G1 X146.134 Y60.029 E0.05188
G1 X148.925 Y61.449 E0.09821
G1 X150.333 Y62.253 E0.05084
G1 X152.977 Y63.934 E0.09821
G1 X154.302 Y64.869 E0.05084
G1 X156.775 Y66.796 E0.09832
G1 X158.979 Y68.746 E0.09228
G1 X160.277 Y70.004 E0.05665
G1 X161.400 Y71.174 E0.05084
G1 X163.459 Y73.534 E0.09821
G1 X165.367 Y76.023 E0.09833
G1 X166.291 Y77.355 E0.05083
G1 X167.951 Y80.011 E0.09822
G1 X168.743 Y81.426 E0.05083
G1 X170.142 Y84.229 E0.09822
G1 X170.808 Y85.743 E0.05187
G1 X171.920 Y88.636 E0.09718
G1 X172.433 Y90.189 E0.05129
G1 X173.272 Y93.208 E0.09822
G1 X173.743 Y95.364 E0.06922
G1 X174.182 Y97.902 E0.08074
G1 X174.532 Y101.018 E0.09833
G1 X174.636 Y102.659 E0.05153
G1 X174.686 Y105.757 E0.09718
G1 X174.633 Y107.411 E0.05188
G1 X174.383 Y110.533 E0.09821
G1 X174.176 Y112.142 E0.05084
G1 X173.628 Y115.226 E0.09821
G1 X173.268 Y116.807 E0.05084
G1 X172.429 Y119.824 E0.09821
G1 X171.920 Y121.364 E0.05084
G1 X170.794 Y124.291 E0.09832
G1 X169.798 Y126.489 E0.07566
G1 X168.744 Y128.574 E0.07327
G1 X167.951 Y129.989 E0.05084
G1 X166.289 Y132.648 E0.09832
G1 X164.578 Y135.042 E0.09228
G1 X163.459 Y136.466 E0.05677
G1 X161.400 Y138.826 E0.09822
G1 X160.253 Y140.019 E0.05187
G1 X158.002 Y142.149 E0.09718
G1 X156.772 Y143.206 E0.05083
G1 X154.301 Y145.131 E0.09822
G1 X152.949 Y146.085 E0.05188
G1 X150.308 Y147.762 E0.09809
G1 X147.791 Y149.151 E0.09013
G1 X146.077 Y149.998 E0.05995
G1 X143.224 Y151.227 E0.09741
G1 X141.675 Y151.808 E0.05187
G1 X138.693 Y152.766 E0.09821
G1 X137.127 Y153.187 E0.05084
G1 X134.067 Y153.855 E0.09821
G1 X132.468 Y154.124 E0.05084
G1 X129.358 Y154.497 E0.09821
G1 X127.740 Y154.613 E0.05084
G1 X124.624 Y154.687 E0.09775
G1 X122.988 Y154.647 E0.05130
G1 X119.864 Y154.422 E0.09821
G1 X118.254 Y154.228 E0.05084
G1 X115.166 Y153.705 E0.09821
G1 X112.811 Y153.163 E0.07577
G1 X110.554 Y152.541 E0.07339
G1 X107.587 Y151.536 E0.09822
G1 X106.078 Y150.943 E0.05083
G1 X104.593 Y150.303 E0.05073
G1 X101.779 Y148.927 E0.09821
G1 X99.869 Y147.856 E0.06865
G1 X97.685 Y146.505 E0.08051
G1 X95.124 Y144.701 E0.09822
G1 X93.845 Y143.705 E0.05083
G1 X91.468 Y141.665 E0.09822
G1 X90.266 Y140.528 E0.05187
G1 X88.119 Y138.293 E0.09717
G1 X87.043 Y137.061 E0.05129
G1 X85.098 Y134.606 E0.09822
G1 X83.827 Y132.801 E0.06922
G1 X82.435 Y130.630 E0.08086
G1 X80.905 Y127.896 E0.09822
G1 X80.172 Y126.425 E0.05153
G1 X78.923 Y123.589 E0.09718
G1 X78.330 Y122.044 E0.05188
G1 X77.348 Y119.070 E0.09821
G1 X76.915 Y117.507 E0.05084
G1 X76.222 Y114.453 E0.09821
G1 X75.940 Y112.856 E0.05084
G1 X75.542 Y109.749 E0.09821
G1 X75.414 Y108.133 E0.05084
G1 X75.315 Y105.002 E0.09821
G1 X75.341 Y103.381 E0.05084
G1 X75.542 Y100.255 E0.09821
G1 X75.723 Y98.643 E0.05084
G1 X76.222 Y95.548 E0.09832
G1 X76.915 Y92.493 E0.09822
G1 X77.348 Y90.930 E0.05083
G1 X78.330 Y87.956 E0.09822
G1 X78.923 Y86.411 E0.05188
G1 X80.172 Y83.575 E0.09718
G1 X80.908 Y82.097 E0.05175
G1 X82.438 Y79.364 E0.09822
G1 X83.995 Y76.948 E0.09013
G1 X85.102 Y75.389 E0.05994
G1 X87.010 Y72.980 E0.09634
; PURGING FINISHED
G1 F8640
G1 X88.119 Y71.707 E-0.38996
G1 X89.229 Y70.551 E-0.37004
G1 E-0.04000 F2100.00000
G1 Z0.800 F10800.000
G1 X90.510 Y75.972
G1 Z0.200
G1 E0.80000 F2100.00000
G1 F1200
G1 X91.217 Y75.144 E0.03414
G1 X92.217 Y74.049 E0.04650
G1 X93.253 Y72.988 E0.04650
G1 X94.323 Y71.961 E0.04650
G1 X95.426 Y70.970 E0.04650
G1 X96.562 Y70.015 E0.04650
G1 X97.728 Y69.099 E0.04650
G1 X98.923 Y68.221 E0.04650
G1 X100.147 Y67.383 E0.04650
G1 X101.398 Y66.586 E0.04650
G1 X102.674 Y65.830 E0.04650
G1 X103.974 Y65.117 E0.04650
G1 X105.298 Y64.447 E0.04650
G1 X106.642 Y63.821 E0.04650
G1 X108.006 Y63.239 E0.04650
G1 X109.389 Y62.703 E0.04650
G1 X110.650 Y62.261 E0.04189
G1 X112.203 Y61.768 E0.05109
G1 X113.633 Y61.370 E0.04653
G1 X114.931 Y61.055 E0.04189
G1 X116.525 Y60.717 E0.05109
G1 X117.987 Y60.462 E0.04653
G1 X119.455 Y60.255 E0.04650
G1 X120.930 Y60.097 E0.04650
G1 X122.409 Y59.988 E0.04650
G1 X123.891 Y59.927 E0.04650
G1 X125.227 Y59.916 E0.04189
G1 X126.856 Y59.951 E0.05109
G1 X128.337 Y60.036 E0.04653
G1 X129.814 Y60.170 E0.04650
G1 X131.286 Y60.353 E0.04650
G1 X132.751 Y60.584 E0.04650
G1 X134.208 Y60.862 E0.04650
G1 X135.511 Y61.157 E0.04189
G1 X137.089 Y61.563 E0.05109
G1 X138.512 Y61.984 E0.04653
G1 X139.780 Y62.405 E0.04189
G1 X141.310 Y62.965 E0.05109
G1 X142.685 Y63.524 E0.04653
G1 X144.039 Y64.128 E0.04650
G1 X145.373 Y64.777 E0.04650
G1 X146.685 Y65.468 E0.04650
G1 X147.974 Y66.203 E0.04650
G1 X149.237 Y66.979 E0.04650
G1 X150.475 Y67.797 E0.04650
G1 X151.684 Y68.655 E0.04650
G1 X152.865 Y69.552 E0.04650
G1 X154.016 Y70.488 E0.04650
G1 X155.136 Y71.461 E0.04650
G1 X156.222 Y72.470 E0.04650
G1 X157.276 Y73.514 E0.04650
G1 X158.294 Y74.593 E0.04650
G1 X159.276 Y75.704 E0.04650
G1 X160.221 Y76.847 E0.04650
G1 X161.128 Y78.021 E0.04650
G1 X161.995 Y79.224 E0.04650
G1 X162.823 Y80.454 E0.04650
G1 X163.610 Y81.711 E0.04650
G1 X164.355 Y82.994 E0.04650
G1 X165.058 Y84.300 E0.04650
G1 X165.717 Y85.629 E0.04650
G1 X166.332 Y86.978 E0.04650
G1 X166.902 Y88.347 E0.04650
G1 X167.427 Y89.734 E0.04650
G1 X167.907 Y91.138 E0.04650
G1 X168.339 Y92.556 E0.04650
G1 X168.725 Y93.989 E0.04650
G1 X169.064 Y95.433 E0.04650
G1 X169.354 Y96.887 E0.04650
G1 X169.597 Y98.350 E0.04650
G1 X169.792 Y99.820 E0.04650
G1 X169.938 Y101.296 E0.04650
G1 X170.035 Y102.776 E0.04650
G1 X170.084 Y104.258 E0.04650
G1 X170.084 Y105.742 E0.04650
G1 X170.035 Y107.224 E0.04650
G1 X169.938 Y108.704 E0.04650
G1 X169.792 Y110.180 E0.04650
G1 X169.597 Y111.650 E0.04650
G1 X169.354 Y113.113 E0.04650
G1 X169.064 Y114.567 E0.04650
G1 X168.725 Y116.011 E0.04650
G1 X168.339 Y117.444 E0.04650
G1 X167.907 Y118.862 E0.04650
G1 X167.427 Y120.266 E0.04650
G1 X166.902 Y121.653 E0.04650
G1 X166.332 Y123.022 E0.04650
G1 X165.717 Y124.371 E0.04650
G1 X165.058 Y125.700 E0.04650
G1 X164.355 Y127.006 E0.04650
G1 X163.610 Y128.289 E0.04650
G1 X162.823 Y129.546 E0.04650
G1 X161.995 Y130.776 E0.04650
G1 X161.128 Y131.979 E0.04650
G1 X160.221 Y133.153 E0.04650
G1 X159.276 Y134.296 E0.04650
G1 X158.294 Y135.407 E0.04650
G1 X157.276 Y136.486 E0.04650
G1 X156.222 Y137.530 E0.04650
G1 X155.136 Y138.539 E0.04650
G1 X154.016 Y139.512 E0.04650
G1 X152.865 Y140.448 E0.04650
G1 X151.684 Y141.345 E0.04650
G1 X150.475 Y142.203 E0.04650
G1 X149.237 Y143.021 E0.04650
G1 X147.974 Y143.797 E0.04650
G1 X146.685 Y144.532 E0.04650
G1 X145.373 Y145.223 E0.04650
G1 X144.172 Y145.807 E0.04189
G1 X142.685 Y146.475 E0.05109
G1 X141.311 Y147.035 E0.04653
G1 X139.920 Y147.548 E0.04650
G1 X138.512 Y148.016 E0.04650
G1 X137.090 Y148.437 E0.04650
G1 X135.655 Y148.811 E0.04650
G1 X134.208 Y149.138 E0.04650
G1 X132.751 Y149.416 E0.04650
G1 X131.286 Y149.647 E0.04650
G1 X129.814 Y149.830 E0.04650
G1 X128.337 Y149.964 E0.04650
G1 X126.857 Y150.049 E0.04650
G1 X125.374 Y150.086 E0.04650
G1 X123.891 Y150.073 E0.04650
G1 X122.409 Y150.012 E0.04650
G1 X120.930 Y149.903 E0.04650
G1 X119.455 Y149.745 E0.04650
G1 X117.987 Y149.538 E0.04650
G1 X116.526 Y149.283 E0.04650
G1 X115.074 Y148.980 E0.04650
G1 X113.776 Y148.665 E0.04189
G1 X112.205 Y148.232 E0.05109
G1 X110.789 Y147.788 E0.04653
G1 X109.528 Y147.346 E0.04189
G1 X108.007 Y146.761 E0.05109
G1 X106.642 Y146.179 E0.04653
G1 X105.298 Y145.553 E0.04650
G1 X103.974 Y144.883 E0.04650
G1 X102.674 Y144.170 E0.04650
G1 X101.398 Y143.414 E0.04650
G1 X100.147 Y142.617 E0.04650
G1 X98.923 Y141.779 E0.04650
G1 X97.728 Y140.901 E0.04650
G1 X96.562 Y139.985 E0.04650
G1 X95.426 Y139.030 E0.04650
G1 X94.433 Y138.138 E0.04189
G1 X93.254 Y137.013 E0.05109
G1 X92.217 Y135.951 E0.04653
G1 X91.217 Y134.856 E0.04650
G1 X90.254 Y133.728 E0.04650
G1 X89.327 Y132.570 E0.04650
G1 X88.440 Y131.381 E0.04650
G1 X87.592 Y130.165 E0.04650
G1 X86.785 Y128.920 E0.04650
G1 X86.019 Y127.651 E0.04650
G1 X85.295 Y126.356 E0.04650
G1 X84.614 Y125.038 E0.04650
G1 X84.040 Y123.832 E0.04189
G1 X83.384 Y122.341 E0.05109
G1 X82.836 Y120.961 E0.04653
G1 X82.334 Y119.566 E0.04650
G1 X81.878 Y118.155 E0.04650
G1 X81.468 Y116.729 E0.04650
G1 X81.106 Y115.291 E0.04650
G1 X80.791 Y113.842 E0.04650
G1 X80.525 Y112.383 E0.04650
G1 X80.306 Y110.916 E0.04650
G1 X80.135 Y109.442 E0.04650
G1 X80.014 Y107.964 E0.04650
G1 X79.940 Y106.483 E0.04650
G1 X79.916 Y105.000 E0.04650
G1 X79.940 Y103.517 E0.04650
G1 X80.014 Y102.036 E0.04650
G1 X80.135 Y100.558 E0.04650
G1 X80.306 Y99.084 E0.04650
G1 X80.525 Y97.617 E0.04650
G1 X80.791 Y96.158 E0.04650
G1 X81.106 Y94.709 E0.04650
G1 X81.468 Y93.271 E0.04650
G1 X81.878 Y91.845 E0.04650
G1 X82.334 Y90.434 E0.04650
G1 X82.836 Y89.039 E0.04650
G1 X83.384 Y87.660 E0.04650
G1 X83.977 Y86.301 E0.04650
G1 X84.614 Y84.962 E0.04650
G1 X85.295 Y83.644 E0.04650
G1 X86.019 Y82.349 E0.04650
G1 X86.709 Y81.206 E0.04189
G1 X87.592 Y79.836 E0.05109
G1 X88.440 Y78.619 E0.04653
G1 X89.327 Y77.430 E0.04650
G1 X90.471 Y76.018 E0.05698
G1 X90.757 Y76.263 F10800.000
G1 F1200
G1 X91.500 Y75.394 E0.03583
G1 X92.492 Y74.308 E0.04611
G1 X93.519 Y73.256 E0.04611
G1 X94.580 Y72.237 E0.04611
G1 X95.674 Y71.254 E0.04611
G1 X96.800 Y70.308 E0.04611
G1 X97.956 Y69.399 E0.04611
G1 X99.142 Y68.529 E0.04611
G1 X100.355 Y67.698 E0.04611
G1 X101.595 Y66.907 E0.04611
G1 X102.861 Y66.158 E0.04611
G1 X104.150 Y65.451 E0.04611
G1 X105.462 Y64.786 E0.04611
G1 X106.796 Y64.165 E0.04611
G1 X108.149 Y63.589 E0.04611
G1 X109.520 Y63.057 E0.04611
G1 X110.769 Y62.619 E0.04151
G1 X112.310 Y62.129 E0.05070
G1 X113.728 Y61.735 E0.04612
G1 X115.014 Y61.422 E0.04151
G1 X116.596 Y61.087 E0.05070
G1 X118.045 Y60.835 E0.04612
G1 X119.502 Y60.630 E0.04611
G1 X120.964 Y60.473 E0.04611
G1 X122.431 Y60.364 E0.04611
G1 X123.900 Y60.304 E0.04611
G1 X125.224 Y60.293 E0.04151
G1 X126.841 Y60.328 E0.05070
G1 X128.309 Y60.412 E0.04612
G1 X129.774 Y60.545 E0.04611
G1 X131.234 Y60.726 E0.04611
G1 X132.687 Y60.955 E0.04611
G1 X134.131 Y61.232 E0.04611
G1 X135.423 Y61.523 E0.04151
G1 X136.989 Y61.926 E0.05070
G1 X138.399 Y62.344 E0.04612
G1 X139.656 Y62.761 E0.04151
G1 X141.174 Y63.317 E0.05070
G1 X142.537 Y63.871 E0.04612
G1 X143.880 Y64.470 E0.04611
G1 X145.203 Y65.113 E0.04611
G1 X146.504 Y65.799 E0.04611
G1 X147.781 Y66.527 E0.04611
G1 X149.034 Y67.297 E0.04611
G1 X150.262 Y68.108 E0.04611
G1 X151.461 Y68.959 E0.04611
G1 X152.632 Y69.849 E0.04611
G1 X153.774 Y70.776 E0.04611
G1 X154.884 Y71.741 E0.04611
G1 X155.961 Y72.742 E0.04611
G1 X157.006 Y73.778 E0.04611
G1 X158.015 Y74.847 E0.04611
G1 X158.989 Y75.949 E0.04611
G1 X159.926 Y77.083 E0.04611
G1 X160.825 Y78.246 E0.04611
G1 X161.686 Y79.439 E0.04611
G1 X162.507 Y80.659 E0.04611
G1 X163.287 Y81.906 E0.04611
G1 X164.026 Y83.178 E0.04611
G1 X164.723 Y84.473 E0.04611
G1 X165.376 Y85.791 E0.04611
G1 X165.986 Y87.129 E0.04611
G1 X166.552 Y88.486 E0.04611
G1 X167.073 Y89.862 E0.04611
G1 X167.548 Y91.254 E0.04611
G1 X167.977 Y92.661 E0.04611
G1 X168.359 Y94.081 E0.04611
G1 X168.695 Y95.513 E0.04611
G1 X168.983 Y96.955 E0.04611
G1 X169.224 Y98.406 E0.04611
G1 X169.417 Y99.864 E0.04611
G1 X169.562 Y101.327 E0.04611
G1 X169.659 Y102.795 E0.04611
G1 X169.707 Y104.265 E0.04611
G1 X169.707 Y105.735 E0.04611
G1 X169.659 Y107.205 E0.04611
G1 X169.562 Y108.673 E0.04611
G1 X169.417 Y110.136 E0.04611
G1 X169.224 Y111.594 E0.04611
G1 X168.983 Y113.045 E0.04611
G1 X168.695 Y114.487 E0.04611
G1 X168.359 Y115.919 E0.04611
G1 X167.977 Y117.339 E0.04611
G1 X167.548 Y118.746 E0.04611
G1 X167.073 Y120.138 E0.04611
G1 X166.552 Y121.514 E0.04611
G1 X165.986 Y122.871 E0.04611
G1 X165.376 Y124.209 E0.04611
G1 X164.723 Y125.527 E0.04611
G1 X164.026 Y126.822 E0.04611
G1 X163.287 Y128.094 E0.04611
G1 X162.507 Y129.341 E0.04611
G1 X161.686 Y130.561 E0.04611
G1 X160.825 Y131.754 E0.04611
G1 X159.926 Y132.917 E0.04611
G1 X158.989 Y134.051 E0.04611
G1 X158.015 Y135.153 E0.04611
G1 X157.006 Y136.222 E0.04611
G1 X155.961 Y137.258 E0.04611
G1 X154.884 Y138.259 E0.04611
G1 X153.774 Y139.224 E0.04611
G1 X152.632 Y140.151 E0.04611
G1 X151.461 Y141.041 E0.04611
G1 X150.262 Y141.892 E0.04611
G1 X149.034 Y142.703 E0.04611
G1 X147.781 Y143.473 E0.04611
G1 X146.504 Y144.201 E0.04611
G1 X145.203 Y144.887 E0.04611
G1 X144.012 Y145.466 E0.04151
G1 X142.537 Y146.128 E0.05070
G1 X141.174 Y146.683 E0.04612
G1 X139.795 Y147.192 E0.04611
G1 X138.399 Y147.656 E0.04611
G1 X136.989 Y148.074 E0.04611
G1 X135.566 Y148.444 E0.04611
G1 X134.131 Y148.768 E0.04611
G1 X132.687 Y149.045 E0.04611
G1 X131.234 Y149.274 E0.04611
G1 X129.774 Y149.455 E0.04611
G1 X128.309 Y149.588 E0.04611
G1 X126.841 Y149.672 E0.04611
G1 X125.371 Y149.709 E0.04611
G1 X123.900 Y149.696 E0.04611
G1 X122.431 Y149.636 E0.04611
G1 X120.964 Y149.527 E0.04611
G1 X119.502 Y149.370 E0.04611
G1 X118.045 Y149.165 E0.04611
G1 X116.596 Y148.913 E0.04611
G1 X115.157 Y148.612 E0.04611
G1 X113.870 Y148.300 E0.04151
G1 X112.311 Y147.871 E0.05070
G1 X110.908 Y147.430 E0.04612
G1 X109.658 Y146.992 E0.04151
G1 X108.149 Y146.412 E0.05070
G1 X106.796 Y145.835 E0.04612
G1 X105.462 Y145.214 E0.04611
G1 X104.150 Y144.549 E0.04611
G1 X102.861 Y143.842 E0.04611
G1 X101.595 Y143.093 E0.04611
G1 X100.355 Y142.302 E0.04611
G1 X99.142 Y141.471 E0.04611
G1 X97.956 Y140.601 E0.04611
G1 X96.800 Y139.692 E0.04611
G1 X95.674 Y138.746 E0.04611
G1 X94.689 Y137.861 E0.04151
G1 X93.519 Y136.745 E0.05070
G1 X92.492 Y135.692 E0.04612
G1 X91.500 Y134.606 E0.04611
G1 X90.544 Y133.488 E0.04611
G1 X89.626 Y132.339 E0.04611
G1 X88.746 Y131.161 E0.04611
G1 X87.905 Y129.954 E0.04611
G1 X87.104 Y128.720 E0.04611
G1 X86.345 Y127.461 E0.04611
G1 X85.627 Y126.177 E0.04611
G1 X84.952 Y124.871 E0.04611
G1 X84.383 Y123.675 E0.04151
G1 X83.732 Y122.195 E0.05070
G1 X83.189 Y120.828 E0.04612
G1 X82.691 Y119.444 E0.04611
G1 X82.238 Y118.045 E0.04611
G1 X81.833 Y116.631 E0.04611
G1 X81.473 Y115.205 E0.04611
G1 X81.161 Y113.768 E0.04611
G1 X80.897 Y112.321 E0.04611
G1 X80.680 Y110.866 E0.04611
G1 X80.511 Y109.405 E0.04611
G1 X80.390 Y107.939 E0.04611
G1 X80.317 Y106.471 E0.04611
G1 X80.293 Y105.000 E0.04611
G1 X80.317 Y103.529 E0.04611
G1 X80.390 Y102.061 E0.04611
