; generated by Slic3r Prusa Edition 1.41.0+win64 on 2018-12-24 at 14:08:30

; 

; external perimeters extrusion width = 0.45mm
; perimeters extrusion width = 0.45mm
; infill extrusion width = 0.45mm
; solid infill extrusion width = 0.45mm
; top infill extrusion width = 0.40mm
; first layer extrusion width = 0.42mm

M201 X1000 Y1000 Z1000 E5000 ; sets maximum accelerations, mm/sec^2
M203 X200 Y200 Z12 E120 ; sets maximum feedrates, mm/sec
M204 P1250 R1250 T1250 ; sets acceleration (P, T) and retract acceleration (R), mm/sec^2
M205 X8.00 Y8.00 Z0.40 E1.50 ; sets the jerk limits, mm/sec
M205 S0 T0 ; sets the minimum extruding and travel feed rate, mm/sec
M107
M115 U3.4.1 ; tell printer latest fw version
M83  ; extruder relative mode
M104 S215 ; set extruder temp
M140 S65 ; set bed temp
M190 S65 ; wait for bed temp
M109 S215 ; wait for extruder temp
G28 W ; home all without mesh bed level
G80 ; mesh bed leveling
G1 Y-3.0 F1000.0 ; go outside print area
G92 E0.0
G1 X60.0 E9.0  F1000.0 ; intro line
M73 Q0 S34
M73 P0 R33
G1 X100.0 E12.5  F1000.0 ; intro line
G92 E0.0
M221 S95
M900 K30; Filament gcode
G21 ; set units to millimeters
G90 ; use absolute coordinates
M83 ; use relative distances for extrusion
;BEFORE_LAYER_CHANGE
G92 E0.0
;0.2


G1 E-0.80000 F2100.00000
G1 Z0.600 F10800.000
;AFTER_LAYER_CHANGE
;0.2
G1 X94.691 Y88.408
G1 Z0.200
G1 E0.80000 F2100.00000
M204 S1000
G1 F1200
G1 X96.111 Y87.189 E0.05867
G1 X97.384 Y86.417 E0.04669
G1 X98.855 Y85.809 E0.04990
G1 X100.399 Y85.438 E0.04979
G1 X101.920 Y85.313 E0.04784
G1 X148.004 Y85.311 E1.44494
G1 X149.612 Y85.440 E0.05058
G1 X151.293 Y85.863 E0.05434
G1 X152.772 Y86.504 E0.05056
G1 X153.989 Y87.257 E0.04486
G1 X155.078 Y88.179 E0.04475
G1 X156.230 Y89.494 E0.05479
G1 X157.070 Y90.858 E0.05024
G1 X157.689 Y92.348 E0.05058
G1 X158.064 Y93.910 E0.05036
G1 X158.189 Y95.500 E0.05002
G1 X158.189 Y114.511 E0.59608
G1 X158.067 Y116.065 E0.04887
G1 X157.637 Y117.793 E0.05582
G1 X157.078 Y119.125 E0.04532
G1 X156.332 Y120.355 E0.04509
G1 X155.210 Y121.699 E0.05491
G1 X153.889 Y122.811 E0.05412
G1 X152.616 Y123.583 E0.04669
G1 X151.145 Y124.191 E0.04990
G1 X149.601 Y124.562 E0.04979
G1 X148.080 Y124.687 E0.04784
G1 X101.912 Y124.687 E1.44757
G1 X100.413 Y124.564 E0.04715
G1 X99.006 Y124.234 E0.04532
G1 X97.355 Y123.568 E0.05582
G1 X96.020 Y122.749 E0.04910
G1 X94.911 Y121.811 E0.04555
G1 X93.689 Y120.389 E0.05878
G1 X92.917 Y119.116 E0.04670
G1 X92.311 Y117.652 E0.04967
G1 X91.939 Y116.108 E0.04979
G1 X91.818 Y114.664 E0.04544
G1 X91.817 Y95.343 E0.60581
G1 X91.937 Y93.906 E0.04520
G1 X92.268 Y92.499 E0.04532
G1 X92.935 Y90.849 E0.05582
G1 X93.751 Y89.520 E0.04887
G1 X94.652 Y88.454 E0.04378
; PURGING FINISHED
G1 F8640
G1 X96.111 Y87.189 E-0.44574
G1 X97.274 Y86.484 E-0.31426
G1 E-0.04000 F2100.00000
G1 Z0.800 F10800.000
G1 X97.027 Y90.527
G1 Z0.200
G1 E0.80000 F2100.00000
G1 F1200
G1 X97.866 Y89.810 E0.03460
G1 X98.807 Y89.234 E0.03460
G1 X99.827 Y88.811 E0.03460
G1 X100.854 Y88.565 E0.03312
G1 X102.041 Y88.464 E0.03735
G1 X147.962 Y88.464 E1.43983
G1 X149.053 Y88.550 E0.03431
G1 X150.176 Y88.812 E0.03616
G1 X151.193 Y89.234 E0.03451
G1 X152.134 Y89.810 E0.03460
G1 X152.973 Y90.527 E0.03460
G1 X153.690 Y91.366 E0.03460
G1 X154.266 Y92.307 E0.03460
G1 X154.689 Y93.327 E0.03460
G1 X154.946 Y94.400 E0.03460
G1 X155.036 Y95.538 E0.03579
G1 X155.036 Y114.462 E0.59336
G1 X154.946 Y115.600 E0.03579
G1 X154.689 Y116.673 E0.03460
G1 X154.266 Y117.693 E0.03460
G1 X153.690 Y118.634 E0.03460
G1 X152.973 Y119.473 E0.03460
G1 X152.170 Y120.159 E0.03312
G1 X151.190 Y120.767 E0.03616
G1 X150.173 Y121.189 E0.03451
G1 X149.100 Y121.446 E0.03460
G1 X147.962 Y121.536 E0.03579
G1 X102.038 Y121.536 E1.43992
G1 X100.900 Y121.446 E0.03579
G1 X99.827 Y121.189 E0.03460
G1 X98.807 Y120.766 E0.03460
G1 X97.907 Y120.214 E0.03312
G1 X97.025 Y119.471 E0.03616
G1 X96.310 Y118.634 E0.03451
G1 X95.734 Y117.693 E0.03460
G1 X95.311 Y116.673 E0.03460
G1 X95.054 Y115.600 E0.03460
G1 X94.964 Y114.462 E0.03579
G1 X94.964 Y95.538 E0.59336
G1 X95.054 Y94.400 E0.03579
G1 X95.311 Y93.327 E0.03460
G1 X95.734 Y92.307 E0.03460
G1 X96.310 Y91.366 E0.03460
G1 X96.988 Y90.573 E0.03272
G1 X96.701 Y90.328 F10800.000
G1 F1200
G1 X96.760 Y90.260 E0.00281
G1 X97.644 Y89.504 E0.03646
G1 X98.635 Y88.897 E0.03646
G1 X99.710 Y88.452 E0.03646
G1 X100.794 Y88.191 E0.03494
G1 X102.025 Y88.087 E0.03874
G1 X147.977 Y88.087 E1.44080
G1 X149.111 Y88.176 E0.03567
G1 X150.292 Y88.452 E0.03802
G1 X151.365 Y88.897 E0.03641
G1 X152.356 Y89.504 E0.03646
G1 X153.240 Y90.260 E0.03646
G1 X153.996 Y91.144 E0.03646
G1 X154.603 Y92.135 E0.03646
G1 X155.048 Y93.210 E0.03646
G1 X155.320 Y94.341 E0.03646
G1 X155.413 Y95.523 E0.03719
G1 X155.413 Y114.477 E0.59429
G1 X155.320 Y115.659 E0.03719
G1 X155.048 Y116.790 E0.03646
G1 X154.603 Y117.865 E0.03646
G1 X153.996 Y118.856 E0.03646
G1 X153.240 Y119.740 E0.03646
G1 X152.393 Y120.464 E0.03494
G1 X151.363 Y121.104 E0.03802
G1 X150.290 Y121.548 E0.03641
G1 X149.159 Y121.820 E0.03646
G1 X147.977 Y121.913 E0.03719
G1 X102.023 Y121.913 E1.44085
G1 X100.841 Y121.820 E0.03719
G1 X99.710 Y121.548 E0.03646
G1 X98.635 Y121.103 E0.03646
G1 X97.685 Y120.521 E0.03494
G1 X96.758 Y119.739 E0.03802
G1 X96.004 Y118.856 E0.03641
G1 X95.397 Y117.865 E0.03646
G1 X94.952 Y116.790 E0.03646
G1 X94.680 Y115.659 E0.03646
G1 X94.587 Y114.477 E0.03719
G1 X94.587 Y95.523 E0.59429
G1 X94.680 Y94.341 E0.03719
G1 X94.952 Y93.210 E0.03646
G1 X95.397 Y92.135 E0.03646
G1 X96.004 Y91.144 E0.03646
G1 X96.662 Y90.373 E0.03177
G1 X96.376 Y90.128 F10800.000
G1 F1200
G1 X96.492 Y89.992 E0.00562
G1 X97.422 Y89.198 E0.03832
G1 X98.464 Y88.560 E0.03832
G1 X99.593 Y88.092 E0.03832
G1 X100.733 Y87.818 E0.03677
G1 X102.009 Y87.710 E0.04014
G1 X147.992 Y87.710 E1.44176
G1 X149.169 Y87.803 E0.03703
G1 X150.408 Y88.092 E0.03988
G1 X151.536 Y88.560 E0.03830
G1 X152.578 Y89.198 E0.03832
G1 X153.508 Y89.992 E0.03832
G1 X154.302 Y90.922 E0.03832
G1 X154.940 Y91.964 E0.03832
G1 X155.408 Y93.093 E0.03832
G1 X155.693 Y94.281 E0.03832
G1 X155.790 Y95.508 E0.03858
G1 X155.790 Y114.492 E0.59521
G1 X155.693 Y115.719 E0.03858
G1 X155.408 Y116.907 E0.03832
G1 X154.940 Y118.036 E0.03832
G1 X154.302 Y119.078 E0.03832
G1 X153.508 Y120.008 E0.03832
G1 X152.616 Y120.770 E0.03677
G1 X151.536 Y121.441 E0.03988
G1 X150.407 Y121.908 E0.03830
G1 X149.219 Y122.193 E0.03832
G1 X147.992 Y122.290 E0.03858
G1 X102.008 Y122.290 E1.44178
G1 X100.781 Y122.193 E0.03858
G1 X99.593 Y121.908 E0.03832
G1 X98.464 Y121.440 E0.03832
G1 X97.464 Y120.828 E0.03677
G1 X96.492 Y120.007 E0.03988
G1 X95.698 Y119.078 E0.03830
G1 X95.060 Y118.036 E0.03832
G1 X94.592 Y116.907 E0.03832
G1 X94.307 Y115.719 E0.03832
G1 X94.210 Y114.492 E0.03858
G1 X94.210 Y95.508 E0.59521
G1 X94.307 Y94.281 E0.03858
G1 X94.592 Y93.093 E0.03832
G1 X95.060 Y91.964 E0.03832
G1 X95.698 Y90.922 E0.03832
G1 X96.337 Y90.174 E0.03082
G1 X96.553 Y90.156 F10800.000
G1 F8640
G1 X96.492 Y89.992 E-0.05527
G1 X97.422 Y89.198 E-0.28223
G1 X98.464 Y88.560 E-0.28223
G1 X99.025 Y88.327 E-0.14027
G1 E-0.04000 F2100.00000
G1 Z0.800 F10800.000
G1 X96.211 Y118.255
G1 Z0.200
G1 E0.80000 F2100.00000
G1 F1200
G1 X98.245 Y120.289 E0.09062
G1 F8640
G1 X96.211 Y118.255 E-0.66445
G1 E-0.13555 F2100.00000
G1 Z0.800 F10800.000
G1 X99.368 Y120.876
G1 Z0.200
G1 E0.80000 F2100.00000
G1 F1200
G1 X95.937 Y117.446 E0.15276
G1 X95.571 Y116.544 E0.03066
G1 X99.956 Y120.929 E0.19528
G1 X100.661 Y121.098 E0.02283
G1 X95.402 Y115.839 E0.23420
G1 X95.334 Y115.556 E0.00918
G1 X95.307 Y115.208 E0.01098
G1 X101.292 Y121.193 E0.26655
G1 X101.873 Y121.239 E0.01836
G1 X95.261 Y114.627 E0.29448
G1 X95.247 Y114.077 E0.01731
G1 X102.423 Y121.253 E0.31957
G1 X102.958 Y121.253 E0.01687
G1 X95.247 Y113.542 E0.34342
G1 X95.247 Y113.006 E0.01687
G1 X103.494 Y121.253 E0.36727
G1 X104.029 Y121.253 E0.01687
G1 X95.247 Y112.471 E0.39112
G1 X95.247 Y111.935 E0.01687
G1 X104.565 Y121.253 E0.41498
G1 X105.101 Y121.253 E0.01687
G1 X95.247 Y111.399 E0.43883
G1 X95.247 Y110.864 E0.01687
G1 X105.636 Y121.253 E0.46268
G1 X106.172 Y121.253 E0.01687
G1 X95.247 Y110.328 E0.48653
G1 X95.247 Y109.793 E0.01687
G1 X106.707 Y121.253 E0.51039
G1 X107.243 Y121.253 E0.01687
G1 X95.247 Y109.257 E0.53424
G1 X95.247 Y108.721 E0.01687
G1 X107.779 Y121.253 E0.55809
G1 X108.314 Y121.253 E0.01687
G1 X95.247 Y108.186 E0.58195
G1 X95.247 Y107.650 E0.01687
G1 X108.850 Y121.253 E0.60580
G1 X109.385 Y121.253 E0.01687
G1 X95.247 Y107.115 E0.62965
G1 X95.247 Y106.579 E0.01687
G1 X109.921 Y121.253 E0.65350
G1 X110.457 Y121.253 E0.01687
G1 X95.247 Y106.043 E0.67736
G1 X95.247 Y105.508 E0.01687
G1 X110.992 Y121.253 E0.70121
G1 X111.528 Y121.253 E0.01687
G1 X95.247 Y104.972 E0.72506
G1 X95.247 Y104.437 E0.01687
G1 X112.063 Y121.253 E0.74891
M73 Q3 S33
M73 P3 R32
G1 X112.599 Y121.253 E0.01687
G1 X95.247 Y103.901 E0.77277
G1 X95.247 Y103.366 E0.01687
G1 X113.134 Y121.253 E0.79662
G1 X113.670 Y121.253 E0.01687
G1 X95.247 Y102.830 E0.82047
G1 X95.247 Y102.294 E0.01687
G1 X114.206 Y121.253 E0.84433
G1 X114.741 Y121.253 E0.01687
G1 X95.247 Y101.759 E0.86818
G1 X95.247 Y101.223 E0.01687
G1 X115.277 Y121.253 E0.89203
G1 X115.812 Y121.253 E0.01687
G1 X95.247 Y100.688 E0.91588
G1 X95.247 Y100.152 E0.01687
G1 X116.348 Y121.253 E0.93974
G1 X116.884 Y121.253 E0.01687
G1 X95.247 Y99.616 E0.96359
G1 X95.247 Y99.081 E0.01687
G1 X117.419 Y121.253 E0.98744
G1 X117.955 Y121.253 E0.01687
G1 X95.247 Y98.545 E1.01129
G1 X95.247 Y98.010 E0.01687
G1 X118.490 Y121.253 E1.03515
G1 X119.026 Y121.253 E0.01687
G1 X95.247 Y97.474 E1.05900
G1 X95.247 Y96.938 E0.01687
G1 X119.562 Y121.253 E1.08285
G1 X120.097 Y121.253 E0.01687
G1 X95.247 Y96.403 E1.10670
G1 X95.247 Y95.867 E0.01687
G1 X120.633 Y121.253 E1.13056
G1 X121.168 Y121.253 E0.01687
G1 X95.263 Y95.347 E1.15370
G1 X95.302 Y94.851 E0.01568
G1 X121.704 Y121.253 E1.17582
G1 X122.240 Y121.253 E0.01687
G1 X95.353 Y94.366 E1.19741
G1 X95.456 Y93.934 E0.01399
G1 X122.775 Y121.253 E1.21664
G1 X123.311 Y121.253 E0.01687
G1 X95.560 Y93.502 E1.23588
G1 X95.706 Y93.113 E0.01310
G1 X123.846 Y121.253 E1.25323
G1 X124.382 Y121.253 E0.01687
G1 X95.863 Y92.734 E1.27009
G1 X96.030 Y92.365 E0.01275
G1 X124.918 Y121.253 E1.28652
G1 X125.453 Y121.253 E0.01687
G1 X96.233 Y92.033 E1.30131
G1 X96.437 Y91.701 E0.01227
G1 X125.989 Y121.253 E1.31610
G1 X126.524 Y121.253 E0.01687
G1 X96.662 Y91.390 E1.32994
G1 X96.908 Y91.101 E0.01196
G1 X127.060 Y121.253 E1.34280
G1 X127.596 Y121.253 E0.01687
G1 X97.155 Y90.813 E1.35567
G1 X97.432 Y90.553 E0.01193
G1 X128.131 Y121.253 E1.36721
G1 X128.667 Y121.253 E0.01687
G1 X97.720 Y90.307 E1.37819
G1 X98.009 Y90.060 E0.01196
G1 X129.202 Y121.253 E1.38918
G1 X129.738 Y121.253 E0.01687
G1 X98.338 Y89.853 E1.39840
M73 Q6 S32
M73 P6 R31
G1 X98.670 Y89.649 E0.01227
G1 X130.274 Y121.253 E1.40746
G1 X130.809 Y121.253 E0.01687
G1 X99.011 Y89.455 E1.41611
G1 X99.390 Y89.298 E0.01291
G1 X131.345 Y121.253 E1.42310
G1 X131.880 Y121.253 E0.01687
G1 X99.769 Y89.141 E1.43009
G1 X99.914 Y89.081 E0.00496
G1 X100.180 Y89.017 E0.00861
G1 X132.416 Y121.253 E1.43562
G1 X132.952 Y121.253 E0.01687
G1 X100.612 Y88.914 E1.44023
G1 X100.899 Y88.845 E0.00929
G1 X101.065 Y88.831 E0.00524
G1 X133.487 Y121.253 E1.44393
G1 X134.023 Y121.253 E0.01687
G1 X101.558 Y88.789 E1.44579
G1 X102.052 Y88.747 E0.01560
G1 X134.558 Y121.253 E1.44766
G1 X135.094 Y121.253 E0.01687
G1 X102.588 Y88.747 E1.44766
G1 X103.123 Y88.747 E0.01687
G1 X135.629 Y121.253 E1.44766
G1 X136.165 Y121.253 E0.01687
G1 X103.659 Y88.747 E1.44766
G1 X104.195 Y88.747 E0.01687
G1 X136.701 Y121.253 E1.44766
G1 X137.236 Y121.253 E0.01687
G1 X104.730 Y88.747 E1.44766
G1 X105.266 Y88.747 E0.01687
G1 X137.772 Y121.253 E1.44766
G1 X138.307 Y121.253 E0.01687
G1 X105.801 Y88.747 E1.44766
G1 X106.337 Y88.747 E0.01687
G1 X138.843 Y121.253 E1.44766
G1 X139.379 Y121.253 E0.01687
G1 X106.873 Y88.747 E1.44766
G1 X107.408 Y88.747 E0.01687
G1 X139.914 Y121.253 E1.44766
G1 X140.450 Y121.253 E0.01687
G1 X107.944 Y88.747 E1.44766
G1 X108.479 Y88.747 E0.01687
G1 X140.985 Y121.253 E1.44766
G1 X141.521 Y121.253 E0.01687
G1 X109.015 Y88.747 E1.44766
G1 X109.551 Y88.747 E0.01687
G1 X142.057 Y121.253 E1.44766
G1 X142.592 Y121.253 E0.01687
G1 X110.086 Y88.747 E1.44766
G1 X110.622 Y88.747 E0.01687
G1 X143.128 Y121.253 E1.44766
G1 X143.663 Y121.253 E0.01687
G1 X111.157 Y88.747 E1.44766
M73 Q9 S31
M73 P9 R30
G1 X111.693 Y88.747 E0.01687
G1 X144.199 Y121.253 E1.44766
G1 X144.735 Y121.253 E0.01687
G1 X112.228 Y88.747 E1.44766
G1 X112.764 Y88.747 E0.01687
G1 X145.270 Y121.253 E1.44766
G1 X145.806 Y121.253 E0.01687
G1 X113.300 Y88.747 E1.44766
G1 X113.835 Y88.747 E0.01687
G1 X146.341 Y121.253 E1.44766
G1 X146.877 Y121.253 E0.01687
G1 X114.371 Y88.747 E1.44766
G1 X114.906 Y88.747 E0.01687
G1 X147.413 Y121.253 E1.44766
G1 X147.948 Y121.253 E0.01687
G1 X115.442 Y88.747 E1.44766
G1 X115.978 Y88.747 E0.01687
G1 X148.445 Y121.214 E1.44593
G1 X148.941 Y121.175 E0.01568
G1 X116.513 Y88.747 E1.44419
G1 X117.049 Y88.747 E0.01687
G1 X149.388 Y121.086 E1.44023
G1 X149.820 Y120.983 E0.01399
G1 X117.584 Y88.747 E1.43561
G1 X118.120 Y88.747 E0.01687
G1 X150.232 Y120.858 E1.43008
G1 X150.610 Y120.702 E0.01291
G1 X118.656 Y88.747 E1.42310
G1 X119.191 Y88.747 E0.01687
G1 X150.989 Y120.545 E1.41611
G1 X151.328 Y120.349 E0.01235
G1 X119.727 Y88.747 E1.40738
G1 X120.262 Y88.747 E0.01687
G1 X151.659 Y120.143 E1.39824
G1 X151.989 Y119.938 E0.01225
G1 X120.798 Y88.747 E1.38910
G1 X121.334 Y88.747 E0.01687
G1 X152.280 Y119.693 E1.37819
G1 X152.569 Y119.446 E0.01196
G1 X121.869 Y88.747 E1.36720
G1 X122.405 Y88.747 E0.01687
G1 X152.845 Y119.187 E1.35566
G1 X153.092 Y118.898 E0.01196
G1 X122.940 Y88.747 E1.34279
G1 X123.476 Y88.747 E0.01687
G1 X153.339 Y118.610 E1.32993
G1 X153.460 Y118.467 E0.00590
G1 X153.563 Y118.299 E0.00622
G1 X124.012 Y88.747 E1.31609
G1 X124.547 Y88.747 E0.01687
G1 X153.767 Y117.967 E1.30130
G1 X153.970 Y117.635 E0.01227
G1 X125.083 Y88.747 E1.28651
G1 X125.618 Y88.747 E0.01687
G1 X154.137 Y117.266 E1.27008
M73 Q12 S29
M73 P12 R29
G1 X154.294 Y116.887 E0.01291
G1 X126.154 Y88.747 E1.25322
G1 X126.690 Y88.747 E0.01687
G1 X154.440 Y116.497 E1.23587
G1 X154.544 Y116.066 E0.01399
G1 X127.225 Y88.747 E1.21663
G1 X127.761 Y88.747 E0.01687
G1 X154.647 Y115.634 E1.19740
G1 X154.698 Y115.149 E0.01535
G1 X128.296 Y88.747 E1.17580
G1 X128.832 Y88.747 E0.01687
G1 X154.737 Y114.652 E1.15369
G1 X154.753 Y114.132 E0.01638
G1 X129.368 Y88.747 E1.13054
G1 X129.903 Y88.747 E0.01687
G1 X154.753 Y113.597 E1.10669
G1 X154.753 Y113.061 E0.01687
G1 X130.439 Y88.747 E1.08284
G1 X130.974 Y88.747 E0.01687
G1 X154.753 Y112.526 E1.05898
G1 X154.753 Y111.990 E0.01687
G1 X131.510 Y88.747 E1.03513
G1 X132.046 Y88.747 E0.01687
G1 X154.753 Y111.454 E1.01128
G1 X154.753 Y110.919 E0.01687
G1 X132.581 Y88.747 E0.98743
G1 X133.117 Y88.747 E0.01687
G1 X154.753 Y110.383 E0.96357
G1 X154.753 Y109.848 E0.01687
G1 X133.652 Y88.747 E0.93972
G1 X134.188 Y88.747 E0.01687
G1 X154.753 Y109.312 E0.91587
G1 X154.753 Y108.777 E0.01687
G1 X134.723 Y88.747 E0.89202
G1 X135.259 Y88.747 E0.01687
G1 X154.753 Y108.241 E0.86816
G1 X154.753 Y107.705 E0.01687
G1 X135.795 Y88.747 E0.84431
G1 X136.330 Y88.747 E0.01687
G1 X154.753 Y107.170 E0.82046
G1 X154.753 Y106.634 E0.01687
G1 X136.866 Y88.747 E0.79660
G1 X137.401 Y88.747 E0.01687
G1 X154.753 Y106.099 E0.77275
G1 X154.753 Y105.563 E0.01687
G1 X137.937 Y88.747 E0.74890
G1 X138.473 Y88.747 E0.01687
G1 X154.753 Y105.027 E0.72505
G1 X154.753 Y104.492 E0.01687
G1 X139.008 Y88.747 E0.70119
G1 X139.544 Y88.747 E0.01687
G1 X154.753 Y103.956 E0.67734
G1 X154.753 Y103.421 E0.01687
G1 X140.079 Y88.747 E0.65349
G1 X140.615 Y88.747 E0.01687
G1 X154.753 Y102.885 E0.62964
G1 X154.753 Y102.349 E0.01687
G1 X141.151 Y88.747 E0.60578
G1 X141.686 Y88.747 E0.01687
G1 X154.753 Y101.814 E0.58193
G1 X154.753 Y101.278 E0.01687
G1 X142.222 Y88.747 E0.55808
G1 X142.757 Y88.747 E0.01687
G1 X154.753 Y100.743 E0.53422
G1 X154.753 Y100.207 E0.01687
G1 X143.293 Y88.747 E0.51037
G1 X143.829 Y88.747 E0.01687
G1 X154.753 Y99.671 E0.48652
G1 X154.753 Y99.136 E0.01687
G1 X144.364 Y88.747 E0.46267
