; generated by Slic3r Prusa Edition 1.41.0+win64 on 2018-12-09 at 15:12:53

; 

; external perimeters extrusion width = 0.45mm
; perimeters extrusion width = 0.45mm
; infill extrusion width = 0.45mm
; solid infill extrusion width = 0.45mm
; top infill extrusion width = 0.40mm
; first layer extrusion width = 0.42mm

M201 X1000 Y1000 Z1000 E5000 ; sets maximum accelerations, mm/sec^2
M203 X200 Y200 Z12 E120 ; sets maximum feedrates, mm/sec
M204 P1250 R1250 T1250 ; sets acceleration (P, T) and retract acceleration (R), mm/sec^2
M205 X8.00 Y8.00 Z0.40 E1.50 ; sets the jerk limits, mm/sec
M205 S0 T0 ; sets the minimum extruding and travel feed rate, mm/sec
M107
M115 U3.4.1 ; tell printer latest fw version
M83  ; extruder relative mode
M104 S215 ; set extruder temp
M140 S65 ; set bed temp
M190 S65 ; wait for bed temp
M109 S215 ; wait for extruder temp
G28 W ; home all without mesh bed level
G80 ; mesh bed leveling
G1 Y-3.0 F1000.0 ; go outside print area
G92 E0.0
G1 X60.0 E9.0  F1000.0 ; intro line
M73 Q0 S33
M73 P0 R33
G1 X100.0 E12.5  F1000.0 ; intro line
G92 E0.0
M221 S95
M900 K30; Filament gcode
G21 ; set units to millimeters
G90 ; use absolute coordinates
M83 ; use relative distances for extrusion
;BEFORE_LAYER_CHANGE
G92 E0.0
;0.2


G1 E-0.80000 F2100.00000
G1 Z0.600 F10800.000
;AFTER_LAYER_CHANGE
;0.2
G1 X87.353 Y78.909
G1 Z0.200
G1 E0.80000 F2100.00000
M204 S1000
G1 F1200
G1 X87.990 Y78.811 E0.02021
G1 X162.004 Y78.811 E2.32063
G1 X162.827 Y78.974 E0.02631
G1 X163.529 Y79.434 E0.02631
G1 X164.006 Y80.124 E0.02631
G1 X164.188 Y80.947 E0.02642
G1 X164.188 Y129.044 E1.50805
G1 X164.116 Y129.560 E0.01635
G1 X163.923 Y130.045 E0.01635
G1 X163.621 Y130.470 E0.01635
G1 X163.228 Y130.812 E0.01635
G1 X162.647 Y131.091 E0.02021
G1 X162.010 Y131.189 E0.02021
G1 X87.985 Y131.188 E2.32097
G1 X87.461 Y131.121 E0.01658
G1 X86.968 Y130.930 E0.01658
G1 X86.535 Y130.626 E0.01658
G1 X86.188 Y130.228 E0.01658
G1 X85.910 Y129.650 E0.02010
G1 X85.812 Y129.017 E0.02010
G1 X85.812 Y80.974 E1.50634
G1 X85.881 Y80.454 E0.01646
G1 X86.073 Y79.962 E0.01658
G1 X86.376 Y79.533 E0.01646
G1 X86.772 Y79.188 E0.01646
G1 X87.299 Y78.935 E0.01833
; PURGING FINISHED
G1 F8640
G1 X87.990 Y78.811 E-0.16213
G1 X90.580 Y78.811 E-0.59787
G1 E-0.04000 F2100.00000
G1 Z0.800 F10800.000
G1 X89.913 Y82.913
G1 Z0.200
G1 E0.80000 F2100.00000
G1 F1200
G1 X160.087 Y82.913 E2.20026
G1 X160.087 Y127.087 E1.38505
G1 X89.913 Y127.087 E2.20026
G1 X89.913 Y82.973 E1.38317
G1 F8640
G1 X93.204 Y82.970 E-0.76000
G1 E-0.04000 F2100.00000
G1 Z0.800 F10800.000
G1 X90.290 Y125.340
G1 Z0.200
G1 E0.80000 F2100.00000
G1 F1200
G1 X159.710 Y125.340 E2.17662
G1 X159.710 Y126.710 E0.04296
G1 X90.290 Y126.710 E2.17662
G1 X90.290 Y125.400 E0.04107
G1 X90.092 Y124.992 F10800.000
G1 X90.290 Y125.160
G1 F1200
G1 X90.290 Y123.840 E0.04139
G1 X159.710 Y123.840 E2.17662
G1 X159.710 Y125.160 E0.04139
G1 X90.350 Y125.160 E2.17473
G1 X89.890 Y125.163 F10800.000
G1 F8640
G1 X90.290 Y123.840 E-0.30511
G1 X92.260 Y123.840 E-0.45489
G1 E-0.04000 F2100.00000
G1 Z0.800 F10800.000
G1 X90.350 Y123.660
G1 Z0.200
G1 E0.80000 F2100.00000
G1 F1200
G1 X90.290 Y123.660 E0.00188
G1 X90.290 Y122.340 E0.04139
G1 X159.710 Y122.340 E2.17662
G1 X159.710 Y123.660 E0.04139
G1 X90.410 Y123.660 E2.17285
G1 X90.320 Y123.712 F10800.000
G1 F8640
G1 X90.290 Y123.660 E-0.02771
G1 X90.290 Y122.340 E-0.30479
G1 X92.141 Y122.340 E-0.42750
G1 E-0.04000 F2100.00000
G1 Z0.800 F10800.000
G1 X90.410 Y122.160
G1 Z0.200
G1 E0.80000 F2100.00000
G1 F1200
G1 X90.290 Y122.160 E0.00376
G1 X90.290 Y120.840 E0.04139
G1 X159.710 Y120.840 E2.17662
G1 X159.710 Y122.160 E0.04139
G1 X90.470 Y122.160 E2.17097
G1 X90.351 Y122.264 F10800.000
G1 F8640
G1 X90.290 Y122.160 E-0.04156
G1 X90.290 Y120.840 E-0.30479
G1 X92.081 Y120.840 E-0.41365
G1 E-0.04000 F2100.00000
G1 Z0.800 F10800.000
G1 X90.470 Y120.660
G1 Z0.200
G1 E0.80000 F2100.00000
G1 F1200
G1 X90.290 Y120.660 E0.00564
G1 X90.290 Y119.340 E0.04139
G1 X159.710 Y119.340 E2.17662
M73 Q3 S32
M73 P3 R32
G1 X159.710 Y120.660 E0.04139
G1 X90.530 Y120.660 E2.16909
G1 X90.381 Y120.816 F10800.000
G1 F8640
G1 X90.290 Y120.660 E-0.05542
G1 X90.290 Y119.340 E-0.30479
G1 X92.021 Y119.340 E-0.39979
G1 E-0.04000 F2100.00000
G1 Z0.800 F10800.000
G1 X90.290 Y117.840
G1 Z0.200
G1 E0.80000 F2100.00000
G1 F1200
G1 X159.710 Y117.840 E2.17662
G1 X159.710 Y119.160 E0.04139
G1 X90.290 Y119.160 E2.17662
G1 X90.290 Y117.900 E0.03951
G1 X90.092 Y117.492 F10800.000
G1 X90.290 Y117.660
G1 F1200
G1 X90.290 Y116.340 E0.04139
G1 X159.710 Y116.340 E2.17662
G1 X159.710 Y117.660 E0.04139
G1 X90.350 Y117.660 E2.17473
G1 X89.890 Y117.663 F10800.000
G1 F8640
G1 X90.290 Y116.340 E-0.30510
G1 X92.260 Y116.340 E-0.45489
G1 E-0.04000 F2100.00000
G1 Z0.800 F10800.000
G1 X90.350 Y116.160
G1 Z0.200
G1 E0.80000 F2100.00000
G1 F1200
G1 X90.290 Y116.160 E0.00188
G1 X90.290 Y114.840 E0.04139
G1 X159.710 Y114.840 E2.17662
G1 X159.710 Y116.160 E0.04139
G1 X90.410 Y116.160 E2.17285
G1 X90.320 Y116.212 F10800.000
G1 F8640
G1 X90.290 Y116.160 E-0.02771
G1 X90.290 Y114.840 E-0.30479
G1 X92.141 Y114.840 E-0.42750
G1 E-0.04000 F2100.00000
G1 Z0.800 F10800.000
G1 X90.410 Y114.660
G1 Z0.200
G1 E0.80000 F2100.00000
G1 F1200
G1 X90.290 Y114.660 E0.00376
G1 X90.290 Y113.340 E0.04139
G1 X159.710 Y113.340 E2.17662
G1 X159.710 Y114.660 E0.04139
G1 X90.470 Y114.660 E2.17097
G1 X90.351 Y114.764 F10800.000
G1 F8640
G1 X90.290 Y114.660 E-0.04156
G1 X90.290 Y113.340 E-0.30479
G1 X92.081 Y113.340 E-0.41365
G1 E-0.04000 F2100.00000
G1 Z0.800 F10800.000
G1 X90.470 Y113.160
G1 Z0.200
G1 E0.80000 F2100.00000
G1 F1200
G1 X90.290 Y113.160 E0.00564
G1 X90.290 Y111.840 E0.04139
G1 X159.710 Y111.840 E2.17662
G1 X159.710 Y113.160 E0.04139
G1 X90.530 Y113.160 E2.16909
G1 X90.381 Y113.316 F10800.000
G1 F8640
G1 X90.290 Y113.160 E-0.05542
G1 X90.290 Y111.840 E-0.30479
G1 X92.021 Y111.840 E-0.39979
G1 E-0.04000 F2100.00000
G1 Z0.800 F10800.000
G1 X90.290 Y110.340
G1 Z0.200
G1 E0.80000 F2100.00000
G1 F1200
G1 X159.710 Y110.340 E2.17662
G1 X159.710 Y111.660 E0.04139
G1 X90.290 Y111.660 E2.17662
G1 X90.290 Y110.400 E0.03951
G1 X90.092 Y109.992 F10800.000
G1 X90.290 Y110.160
G1 F1200
G1 X90.290 Y108.840 E0.04139
G1 X159.710 Y108.840 E2.17662
G1 X159.710 Y110.160 E0.04139
G1 X90.350 Y110.160 E2.17473
G1 X89.890 Y110.163 F10800.000
G1 F8640
G1 X90.290 Y108.840 E-0.30511
G1 X92.260 Y108.840 E-0.45489
G1 E-0.04000 F2100.00000
G1 Z0.800 F10800.000
G1 X90.350 Y108.660
G1 Z0.200
G1 E0.80000 F2100.00000
G1 F1200
G1 X90.290 Y108.660 E0.00188
G1 X90.290 Y107.340 E0.04139
G1 X159.710 Y107.340 E2.17662
G1 X159.710 Y108.660 E0.04139
G1 X90.410 Y108.660 E2.17285
M73 Q6 S31
M73 P6 R31
G1 X90.320 Y108.712 F10800.000
G1 F8640
G1 X90.290 Y108.660 E-0.02771
G1 X90.290 Y107.340 E-0.30479
G1 X92.141 Y107.340 E-0.42750
G1 E-0.04000 F2100.00000
G1 Z0.800 F10800.000
G1 X90.410 Y107.160
G1 Z0.200
G1 E0.80000 F2100.00000
G1 F1200
G1 X90.290 Y107.160 E0.00376
G1 X90.290 Y105.840 E0.04139
G1 X159.710 Y105.840 E2.17662
G1 X159.710 Y107.160 E0.04139
G1 X90.470 Y107.160 E2.17097
G1 X90.351 Y107.264 F10800.000
G1 F8640
G1 X90.290 Y107.160 E-0.04156
G1 X90.290 Y105.840 E-0.30479
G1 X92.081 Y105.840 E-0.41365
G1 E-0.04000 F2100.00000
G1 Z0.800 F10800.000
G1 X90.470 Y105.660
G1 Z0.200
G1 E0.80000 F2100.00000
G1 F1200
G1 X90.290 Y105.660 E0.00564
G1 X90.290 Y104.340 E0.04139
G1 X159.710 Y104.340 E2.17662
G1 X159.710 Y105.660 E0.04139
G1 X90.530 Y105.660 E2.16909
G1 X90.381 Y105.816 F10800.000
G1 F8640
G1 X90.290 Y105.660 E-0.05542
G1 X90.290 Y104.340 E-0.30479
G1 X92.021 Y104.340 E-0.39979
G1 E-0.04000 F2100.00000
G1 Z0.800 F10800.000
G1 X90.290 Y102.840
G1 Z0.200
G1 E0.80000 F2100.00000
G1 F1200
G1 X159.710 Y102.840 E2.17662
G1 X159.710 Y104.160 E0.04139
G1 X90.290 Y104.160 E2.17662
G1 X90.290 Y102.900 E0.03951
G1 X90.092 Y102.492 F10800.000
G1 X90.290 Y102.660
G1 F1200
G1 X90.290 Y101.340 E0.04139
G1 X159.710 Y101.340 E2.17662
G1 X159.710 Y102.660 E0.04139
G1 X90.350 Y102.660 E2.17473
G1 X89.890 Y102.663 F10800.000
G1 F8640
G1 X90.290 Y101.340 E-0.30511
G1 X92.260 Y101.340 E-0.45489
G1 E-0.04000 F2100.00000
G1 Z0.800 F10800.000
G1 X90.350 Y101.160
G1 Z0.200
G1 E0.80000 F2100.00000
G1 F1200
G1 X90.290 Y101.160 E0.00188
G1 X90.290 Y99.840 E0.04139
G1 X159.710 Y99.840 E2.17662
G1 X159.710 Y101.160 E0.04139
G1 X90.410 Y101.160 E2.17285
G1 X90.320 Y101.212 F10800.000
G1 F8640
G1 X90.290 Y101.160 E-0.02771
G1 X90.290 Y99.840 E-0.30479
G1 X92.141 Y99.840 E-0.42750
G1 E-0.04000 F2100.00000
G1 Z0.800 F10800.000
G1 X90.410 Y99.660
G1 Z0.200
G1 E0.80000 F2100.00000
G1 F1200
G1 X90.290 Y99.660 E0.00376
G1 X90.290 Y98.340 E0.04139
G1 X159.710 Y98.340 E2.17662
G1 X159.710 Y99.660 E0.04139
G1 X90.470 Y99.660 E2.17097
G1 X90.351 Y99.764 F10800.000
G1 F8640
G1 X90.290 Y99.660 E-0.04156
G1 X90.290 Y98.340 E-0.30479
G1 X92.081 Y98.340 E-0.41365
G1 E-0.04000 F2100.00000
G1 Z0.800 F10800.000
G1 X90.470 Y98.160
G1 Z0.200
G1 E0.80000 F2100.00000
G1 F1200
G1 X90.290 Y98.160 E0.00564
G1 X90.290 Y96.840 E0.04139
G1 X159.710 Y96.840 E2.17662
G1 X159.710 Y98.160 E0.04139
G1 X90.530 Y98.160 E2.16909
G1 X90.381 Y98.316 F10800.000
G1 F8640
G1 X90.290 Y98.160 E-0.05542
G1 X90.290 Y96.840 E-0.30479
G1 X92.021 Y96.840 E-0.39979
G1 E-0.04000 F2100.00000
G1 Z0.800 F10800.000
G1 X90.290 Y95.340
G1 Z0.200
G1 E0.80000 F2100.00000
G1 F1200
G1 X159.710 Y95.340 E2.17662
G1 X159.710 Y96.660 E0.04139
G1 X90.290 Y96.660 E2.17662
G1 X90.290 Y95.400 E0.03951
G1 X90.092 Y94.992 F10800.000
G1 X90.290 Y95.160
G1 F1200
G1 X90.290 Y93.840 E0.04139
G1 X159.710 Y93.840 E2.17662
M73 Q9 S30
M73 P9 R30
G1 X159.710 Y95.160 E0.04139
G1 X90.350 Y95.160 E2.17473
G1 X89.890 Y95.163 F10800.000
G1 F8640
G1 X90.290 Y93.840 E-0.30511
G1 X92.260 Y93.840 E-0.45489
G1 E-0.04000 F2100.00000
G1 Z0.800 F10800.000
G1 X90.350 Y93.660
G1 Z0.200
G1 E0.80000 F2100.00000
G1 F1200
G1 X90.290 Y93.660 E0.00188
G1 X90.290 Y92.340 E0.04139
G1 X159.710 Y92.340 E2.17662
G1 X159.710 Y93.660 E0.04139
G1 X90.410 Y93.660 E2.17285
G1 X90.320 Y93.712 F10800.000
G1 F8640
G1 X90.290 Y93.660 E-0.02771
G1 X90.290 Y92.340 E-0.30479
G1 X92.141 Y92.340 E-0.42750
G1 E-0.04000 F2100.00000
G1 Z0.800 F10800.000
G1 X90.410 Y92.160
G1 Z0.200
G1 E0.80000 F2100.00000
G1 F1200
G1 X90.290 Y92.160 E0.00376
G1 X90.290 Y90.840 E0.04139
G1 X159.710 Y90.840 E2.17662
G1 X159.710 Y92.160 E0.04139
G1 X90.470 Y92.160 E2.17097
G1 X90.351 Y92.264 F10800.000
G1 F8640
G1 X90.290 Y92.160 E-0.04156
G1 X90.290 Y90.840 E-0.30479
G1 X92.081 Y90.840 E-0.41365
G1 E-0.04000 F2100.00000
G1 Z0.800 F10800.000
G1 X90.470 Y90.660
G1 Z0.200
G1 E0.80000 F2100.00000
G1 F1200
G1 X90.290 Y90.660 E0.00564
G1 X90.290 Y89.340 E0.04139
G1 X159.710 Y89.340 E2.17662
G1 X159.710 Y90.660 E0.04139
G1 X90.530 Y90.660 E2.16909
G1 X90.381 Y90.816 F10800.000
G1 F8640
G1 X90.290 Y90.660 E-0.05542
G1 X90.290 Y89.340 E-0.30479
G1 X92.021 Y89.340 E-0.39979
G1 E-0.04000 F2100.00000
G1 Z0.800 F10800.000
G1 X90.290 Y87.840
G1 Z0.200
G1 E0.80000 F2100.00000
G1 F1200
G1 X159.710 Y87.840 E2.17662
G1 X159.710 Y89.160 E0.04139
G1 X90.290 Y89.160 E2.17662
G1 X90.290 Y87.900 E0.03951
G1 X90.092 Y87.492 F10800.000
G1 X90.290 Y87.660
G1 F1200
G1 X90.290 Y86.340 E0.04139
G1 X159.710 Y86.340 E2.17662
G1 X159.710 Y87.660 E0.04139
G1 X90.350 Y87.660 E2.17473
G1 X89.890 Y87.663 F10800.000
G1 F8640
G1 X90.290 Y86.340 E-0.30511
G1 X92.260 Y86.340 E-0.45489
G1 E-0.04000 F2100.00000
G1 Z0.800 F10800.000
G1 X90.350 Y86.160
G1 Z0.200
G1 E0.80000 F2100.00000
G1 F1200
G1 X90.290 Y86.160 E0.00188
G1 X90.290 Y84.840 E0.04139
G1 X159.710 Y84.840 E2.17662
G1 X159.710 Y86.160 E0.04139
G1 X90.410 Y86.160 E2.17285
G1 X90.320 Y86.212 F10800.000
G1 F8640
G1 X90.290 Y86.160 E-0.02771
G1 X90.290 Y84.840 E-0.30479
G1 X92.141 Y84.840 E-0.42750
G1 E-0.04000 F2100.00000
G1 Z0.800 F10800.000
G1 X90.410 Y84.660
G1 Z0.200
G1 E0.80000 F2100.00000
G1 F1200
G1 X90.290 Y84.660 E0.00376
G1 X90.290 Y83.290 E0.04296
G1 X159.710 Y83.290 E2.17662
G1 X159.710 Y84.660 E0.04296
G1 X90.470 Y84.660 E2.17097
G1 X90.351 Y84.764 F10800.000
G1 F8640
G1 X90.290 Y84.660 E-0.04156
G1 X90.290 Y83.290 E-0.31634
G1 X92.031 Y83.290 E-0.40210
G1 E-0.04000 F2100.00000
G1 Z0.800 F10800.000
G1 X88.587 Y81.587
G1 Z0.200
G1 E0.80000 F2100.00000
G1 F1200
G1 X161.413 Y81.587 E2.28340
G1 X161.413 Y128.413 E1.46819
M73 Q12 S29
M73 P12 R29
G1 X88.587 Y128.413 E2.28340
G1 X88.587 Y81.647 E1.46631
G1 X88.210 Y81.210 F10800.000
G1 F1200
G1 X161.790 Y81.210 E2.30705
G1 X161.790 Y128.790 E1.49184
G1 X88.210 Y128.790 E2.30705
G1 X88.210 Y81.270 E1.48996
G1 X88.603 Y81.286 F10800.000
G1 F8640
G1 X91.501 Y81.267 E-0.76000
G1 E-0.04000 F2100.00000
G1 Z0.800 F10800.000
G1 X88.700 Y127.535
G1 Z0.200
G1 E0.80000 F2100.00000
G1 F1200
G1 X89.295 Y128.130 E0.02646
G1 X89.830 Y128.130 E0.01682
G1 X88.870 Y127.170 E0.04270
G1 X88.870 Y126.635 E0.01682
G1 X90.534 Y128.300 E0.07403
G1 F8640
G1 X88.870 Y126.635 E-0.54356
G1 X88.870 Y127.170 E-0.12350
G1 X89.154 Y127.455 E-0.09294
G1 E-0.04000 F2100.00000
G1 Z0.800 F10800.000
G1 X161.300 Y84.069
G1 Z0.200
G1 E0.80000 F2100.00000
G1 F1200
G1 X160.370 Y83.139 E0.04136
G1 X160.370 Y83.674 E0.01682
G1 X161.130 Y84.435 E0.03381
G1 X161.130 Y84.969 E0.01682
G1 X160.370 Y84.209 E0.03381
G1 X160.370 Y84.744 E0.01682
G1 X161.130 Y85.504 E0.03381
G1 X161.130 Y86.039 E0.01682
G1 X160.370 Y85.279 E0.03381
G1 X160.370 Y85.814 E0.01682
G1 X161.130 Y86.574 E0.03381
G1 X161.130 Y87.109 E0.01682
G1 X160.370 Y86.349 E0.03381
G1 X160.370 Y86.884 E0.01682
G1 X161.130 Y87.644 E0.03381
G1 X161.130 Y88.179 E0.01682
G1 X160.370 Y87.418 E0.03381
G1 X160.370 Y87.953 E0.01682
G1 X161.130 Y88.714 E0.03381
G1 X161.130 Y89.248 E0.01682
G1 X160.370 Y88.488 E0.03381
G1 X160.370 Y89.023 E0.01682
G1 X161.130 Y89.783 E0.03381
G1 X161.130 Y90.318 E0.01682
G1 X160.370 Y89.558 E0.03381
G1 X160.370 Y90.093 E0.01682
G1 X161.130 Y90.853 E0.03381
G1 X161.130 Y91.388 E0.01682
G1 X160.370 Y90.628 E0.03381
G1 X160.370 Y91.162 E0.01682
G1 X161.130 Y91.923 E0.03381
G1 X161.130 Y92.458 E0.01682
G1 X160.370 Y91.697 E0.03381
G1 X160.370 Y92.232 E0.01682
G1 X161.130 Y92.992 E0.03381
G1 X161.130 Y93.527 E0.01682
G1 X160.370 Y92.767 E0.03381
G1 X160.370 Y93.302 E0.01682
G1 X161.130 Y94.062 E0.03381
G1 X161.130 Y94.597 E0.01682
G1 X160.370 Y93.837 E0.03381
G1 X160.370 Y94.372 E0.01682
G1 X161.130 Y95.132 E0.03381
G1 X161.130 Y95.667 E0.01682
G1 X160.370 Y94.906 E0.03381
G1 X160.370 Y95.441 E0.01682
G1 X161.130 Y96.202 E0.03381
G1 X161.130 Y96.736 E0.01682
G1 X160.370 Y95.976 E0.03381
G1 X160.370 Y96.511 E0.01682
G1 X161.130 Y97.271 E0.03381
G1 X161.130 Y97.806 E0.01682
G1 X160.370 Y97.046 E0.03381
G1 X160.370 Y97.581 E0.01682
G1 X161.130 Y98.341 E0.03381
G1 X161.130 Y98.876 E0.01682
G1 X160.370 Y98.116 E0.03381
G1 X160.370 Y98.651 E0.01682
G1 X161.130 Y99.411 E0.03381
G1 X161.130 Y99.946 E0.01682
G1 X160.370 Y99.185 E0.03381
G1 X160.370 Y99.720 E0.01682
G1 X161.130 Y100.481 E0.03381
G1 X161.130 Y101.015 E0.01682
G1 X160.370 Y100.255 E0.03381
G1 X160.370 Y100.790 E0.01682
G1 X161.130 Y101.550 E0.03381
G1 X161.130 Y102.085 E0.01682
G1 X160.370 Y101.325 E0.03381
G1 X160.370 Y101.860 E0.01682
G1 X161.130 Y102.620 E0.03381
G1 X161.130 Y103.155 E0.01682
G1 X160.370 Y102.395 E0.03381
G1 X160.370 Y102.929 E0.01682
G1 X161.130 Y103.690 E0.03381
G1 X161.130 Y104.225 E0.01682
G1 X160.370 Y103.464 E0.03381
G1 X160.370 Y103.999 E0.01682
G1 X161.130 Y104.759 E0.03381
G1 X161.130 Y105.294 E0.01682
G1 X160.370 Y104.534 E0.03381
G1 X160.370 Y105.069 E0.01682
G1 X161.130 Y105.829 E0.03381
G1 X161.130 Y106.364 E0.01682
G1 X160.370 Y105.604 E0.03381
G1 X160.370 Y106.139 E0.01682
G1 X161.130 Y106.899 E0.03381
G1 X161.130 Y107.434 E0.01682
G1 X160.370 Y106.673 E0.03381
G1 X160.370 Y107.208 E0.01682
G1 X161.130 Y107.969 E0.03381
G1 X161.130 Y108.503 E0.01682
G1 X160.370 Y107.743 E0.03381
G1 X160.370 Y108.278 E0.01682
G1 X161.130 Y109.038 E0.03381
G1 X161.130 Y109.573 E0.01682
G1 X160.370 Y108.813 E0.03381
G1 X160.370 Y109.348 E0.01682
G1 X161.130 Y110.108 E0.03381
G1 X161.130 Y110.643 E0.01682
G1 X160.370 Y109.883 E0.03381
G1 X160.370 Y110.418 E0.01682
