; generated by Slic3r Prusa Edition 1.41.0+win64 on 2018-12-14 at 21:29:27

; 

; external perimeters extrusion width = 0.45mm
; perimeters extrusion width = 0.45mm
; infill extrusion width = 0.45mm
; solid infill extrusion width = 0.45mm
; top infill extrusion width = 0.40mm
; first layer extrusion width = 0.42mm

M201 X1000 Y1000 Z1000 E5000 ; sets maximum accelerations, mm/sec^2
M203 X200 Y200 Z12 E120 ; sets maximum feedrates, mm/sec
M204 P1250 R1250 T1250 ; sets acceleration (P, T) and retract acceleration (R), mm/sec^2
M205 X8.00 Y8.00 Z0.40 E1.50 ; sets the jerk limits, mm/sec
M205 S0 T0 ; sets the minimum extruding and travel feed rate, mm/sec
M107
M115 U3.4.1 ; tell printer latest fw version
M83  ; extruder relative mode
M104 S215 ; set extruder temp
M140 S65 ; set bed temp
M190 S65 ; wait for bed temp
M109 S215 ; wait for extruder temp
G28 W ; home all without mesh bed level
G80 ; mesh bed leveling
G1 Y-3.0 F1000.0 ; go outside print area
G92 E0.0
G1 X60.0 E9.0  F1000.0 ; intro line
M73 Q0 S12
M73 P0 R12
G1 X100.0 E12.5  F1000.0 ; intro line
G92 E0.0
M221 S95
M900 K30; Filament gcode
G21 ; set units to millimeters
G90 ; use absolute coordinates
M83 ; use relative distances for extrusion
;BEFORE_LAYER_CHANGE
G92 E0.0
;0.2


G1 E-0.80000 F2100.00000
G1 Z0.600 F10800.000
;AFTER_LAYER_CHANGE
;0.2
G1 X101.170 Y101.444
G1 Z0.200
G1 E0.80000 F2100.00000
M204 S1000
G1 F1200
G1 X101.589 Y100.555 E0.03083
G1 X102.152 Y99.886 E0.02740
G1 X102.956 Y99.323 E0.03077
G1 X103.893 Y99.001 E0.03107
G1 X104.559 Y98.935 E0.02099
G1 X145.429 Y98.934 E1.28144
G1 X146.044 Y98.990 E0.01936
G1 X146.696 Y99.171 E0.02121
G1 X147.390 Y99.526 E0.02447
G1 X147.910 Y99.943 E0.02088
G1 X148.326 Y100.427 E0.02002
G1 X148.658 Y100.999 E0.02075
G1 X148.904 Y101.731 E0.02421
G1 X148.987 Y102.355 E0.01973
G1 X148.990 Y107.571 E0.16355
G1 X148.810 Y108.621 E0.03340
G1 X148.386 Y109.485 E0.03019
G1 X147.830 Y110.130 E0.02669
G1 X147.041 Y110.677 E0.03010
G1 X146.107 Y110.999 E0.03098
G1 X145.429 Y111.066 E0.02137
G1 X104.417 Y111.061 E1.28590
G1 X103.301 Y110.828 E0.03575
G1 X102.663 Y110.507 E0.02238
G1 X102.204 Y110.160 E0.01803
G1 X101.767 Y109.696 E0.01999
G1 X101.459 Y109.230 E0.01751
G1 X101.077 Y108.187 E0.03482
G1 X101.011 Y107.543 E0.02032
G1 X101.010 Y102.465 E0.15921
G1 X101.160 Y101.503 E0.03053
G1 X101.522 Y101.581 F10800.000
G1 F1200
G1 X101.908 Y100.756 E0.02853
G1 X102.404 Y100.167 E0.02415
G1 X103.134 Y99.656 E0.02793
G1 X103.990 Y99.366 E0.02834
G1 X104.571 Y99.311 E0.01832
G1 X145.429 Y99.311 E1.28105
G1 X145.972 Y99.360 E0.01710
G1 X146.557 Y99.521 E0.01902
G1 X147.187 Y99.844 E0.02221
G1 X147.654 Y100.220 E0.01877
G1 X148.022 Y100.650 E0.01774
G1 X148.318 Y101.161 E0.01854
G1 X148.539 Y101.824 E0.02189
G1 X148.611 Y102.386 E0.01776
G1 X148.613 Y107.551 E0.16196
G1 X148.463 Y108.468 E0.02913
G1 X148.079 Y109.266 E0.02776
G1 X147.583 Y109.845 E0.02390
G1 X146.867 Y110.343 E0.02734
G1 X146.010 Y110.634 E0.02839
G1 X145.432 Y110.688 E0.01821
G1 X104.451 Y110.685 E1.28493
G1 X103.441 Y110.478 E0.03232
G1 X102.854 Y110.181 E0.02062
G1 X102.438 Y109.864 E0.01640
G1 X101.777 Y109.028 E0.03340
G1 X101.443 Y108.092 E0.03117
G1 X101.387 Y107.522 E0.01797
G1 X101.387 Y102.474 E0.15826
G1 X101.513 Y101.640 E0.02646
; PURGING FINISHED
G1 F8640
G1 X101.908 Y100.756 E-0.22345
G1 X102.404 Y100.167 E-0.17787
G1 X103.134 Y99.656 E-0.20572
G1 X103.761 Y99.444 E-0.15295
G1 E-0.04000 F2100.00000
G1 Z0.800 F10800.000
G1 X139.340 Y104.949
G1 Z0.200
G1 E0.80000 F2100.00000
G1 F1200
G1 X139.375 Y104.550 E0.01255
G1 X139.492 Y104.114 E0.01415
G1 X139.683 Y103.705 E0.01415
G1 X139.941 Y103.336 E0.01415
G1 X140.261 Y103.016 E0.01415
G1 X140.630 Y102.758 E0.01415
G1 X141.039 Y102.567 E0.01415
G1 X141.475 Y102.450 E0.01415
G1 X141.917 Y102.411 E0.01390
G1 X142.374 Y102.450 E0.01437
G1 X142.811 Y102.567 E0.01418
G1 X143.220 Y102.758 E0.01415
G1 X143.589 Y103.016 E0.01415
G1 X143.909 Y103.336 E0.01415
G1 X144.167 Y103.705 E0.01415
G1 X144.358 Y104.114 E0.01415
G1 X144.475 Y104.550 E0.01415
G1 X144.514 Y105.000 E0.01415
G1 X144.475 Y105.450 E0.01415
G1 X144.358 Y105.886 E0.01415
G1 X144.167 Y106.295 E0.01415
G1 X143.909 Y106.664 E0.01415
G1 X143.595 Y106.978 E0.01390
G1 X143.221 Y107.242 E0.01437
G1 X142.811 Y107.433 E0.01418
G1 X142.375 Y107.550 E0.01415
G1 X141.925 Y107.589 E0.01415
G1 X141.475 Y107.550 E0.01415
G1 X141.039 Y107.433 E0.01415
G1 X140.630 Y107.242 E0.01415
G1 X140.261 Y106.984 E0.01415
G1 X139.941 Y106.664 E0.01415
G1 X139.683 Y106.295 E0.01415
G1 X139.492 Y105.886 E0.01415
G1 X139.375 Y105.450 E0.01415
G1 X139.336 Y105.009 E0.01388
G1 X139.714 Y105.000 F10800.000
G1 F1200
G1 X139.748 Y104.616 E0.01208
G1 X139.848 Y104.244 E0.01208
G1 X140.010 Y103.895 E0.01208
G1 X140.231 Y103.579 E0.01208
G1 X140.504 Y103.306 E0.01208
G1 X140.820 Y103.085 E0.01208
G1 X141.169 Y102.923 E0.01208
G1 X141.541 Y102.823 E0.01208
G1 X141.918 Y102.790 E0.01185
G1 X142.309 Y102.823 E0.01230
G1 X142.681 Y102.923 E0.01209
G1 X143.030 Y103.085 E0.01208
G1 X143.346 Y103.306 E0.01208
G1 X143.619 Y103.579 E0.01208
G1 X143.840 Y103.895 E0.01208
G1 X144.002 Y104.244 E0.01208
G1 X144.102 Y104.616 E0.01208
G1 X144.136 Y105.000 E0.01208
G1 X144.102 Y105.384 E0.01208
G1 X144.002 Y105.756 E0.01208
G1 X143.840 Y106.105 E0.01208
G1 X143.619 Y106.421 E0.01208
G1 X143.351 Y106.688 E0.01185
G1 X143.031 Y106.914 E0.01230
G1 X142.681 Y107.077 E0.01209
G1 X142.309 Y107.177 E0.01208
G1 X141.925 Y107.211 E0.01208
G1 X141.541 Y107.177 E0.01208
G1 X141.169 Y107.077 E0.01208
G1 X140.820 Y106.915 E0.01208
G1 X140.504 Y106.694 E0.01208
G1 X140.231 Y106.421 E0.01208
G1 X140.010 Y106.105 E0.01208
G1 X139.848 Y105.756 E0.01208
G1 X139.748 Y105.384 E0.01208
G1 X139.719 Y105.060 E0.01020
G1 X139.380 Y104.807 F10800.000
G1 F8640
G1 X139.748 Y104.616 E-0.10265
G1 X139.848 Y104.244 E-0.08898
G1 X140.010 Y103.895 E-0.08898
G1 X140.231 Y103.579 E-0.08898
G1 X140.504 Y103.306 E-0.08898
G1 X140.820 Y103.085 E-0.08898
G1 X141.169 Y102.923 E-0.08898
G1 X141.541 Y102.823 E-0.08898
G1 X141.690 Y102.810 E-0.03447
G1 E-0.04000 F2100.00000
G1 Z0.800 F10800.000
G1 X110.664 Y105.000
G1 Z0.200
G1 E0.80000 F2100.00000
G1 F1200
G1 X110.625 Y105.450 E0.01415
G1 X110.508 Y105.886 E0.01415
G1 X110.317 Y106.295 E0.01415
G1 X110.059 Y106.664 E0.01415
G1 X109.739 Y106.984 E0.01415
G1 X109.370 Y107.242 E0.01415
G1 X108.966 Y107.431 E0.01396
G1 X108.525 Y107.550 E0.01432
G1 X108.075 Y107.589 E0.01418
G1 X107.625 Y107.550 E0.01415
G1 X107.189 Y107.433 E0.01415
G1 X106.780 Y107.242 E0.01415
G1 X106.411 Y106.984 E0.01415
G1 X106.091 Y106.664 E0.01415
G1 X105.833 Y106.295 E0.01415
G1 X105.642 Y105.886 E0.01415
G1 X105.525 Y105.450 E0.01415
G1 X105.486 Y105.000 E0.01415
G1 X105.525 Y104.550 E0.01415
G1 X105.642 Y104.114 E0.01415
G1 X105.833 Y103.705 E0.01415
G1 X106.091 Y103.336 E0.01415
G1 X106.411 Y103.016 E0.01415
G1 X106.780 Y102.758 E0.01415
G1 X107.189 Y102.567 E0.01415
G1 X107.625 Y102.450 E0.01415
G1 X108.069 Y102.411 E0.01396
G1 X108.524 Y102.450 E0.01432
G1 X108.961 Y102.567 E0.01418
G1 X109.370 Y102.758 E0.01415
G1 X109.739 Y103.016 E0.01415
G1 X110.059 Y103.336 E0.01415
G1 X110.317 Y103.705 E0.01415
G1 X110.508 Y104.114 E0.01415
G1 X110.625 Y104.550 E0.01415
G1 X110.659 Y104.940 E0.01227
G1 X110.283 Y104.973 F10800.000
G1 F1200
G1 X110.252 Y105.384 E0.01292
G1 X110.152 Y105.756 E0.01208
G1 X109.990 Y106.105 E0.01208
G1 X109.769 Y106.421 E0.01208
G1 X109.496 Y106.694 E0.01208
G1 X109.180 Y106.915 E0.01208
G1 X108.836 Y107.075 E0.01191
G1 X108.459 Y107.177 E0.01225
G1 X108.075 Y107.211 E0.01209
G1 X107.691 Y107.177 E0.01208
G1 X107.319 Y107.077 E0.01208
G1 X106.970 Y106.915 E0.01208
G1 X106.654 Y106.694 E0.01208
G1 X106.381 Y106.421 E0.01208
G1 X106.160 Y106.105 E0.01208
G1 X105.998 Y105.756 E0.01208
G1 X105.898 Y105.384 E0.01208
G1 X105.864 Y105.000 E0.01208
G1 X105.898 Y104.616 E0.01208
G1 X105.998 Y104.244 E0.01208
G1 X106.160 Y103.895 E0.01208
G1 X106.381 Y103.579 E0.01208
G1 X106.654 Y103.306 E0.01208
G1 X106.970 Y103.085 E0.01208
G1 X107.319 Y102.923 E0.01208
G1 X107.691 Y102.823 E0.01208
G1 X108.069 Y102.790 E0.01191
G1 X108.459 Y102.823 E0.01225
G1 X108.831 Y102.923 E0.01209
G1 X109.180 Y103.085 E0.01208
G1 X109.496 Y103.306 E0.01208
G1 X109.769 Y103.579 E0.01208
G1 X109.990 Y103.895 E0.01208
G1 X110.152 Y104.244 E0.01208
G1 X110.252 Y104.616 E0.01208
G1 X110.278 Y104.913 E0.00935
G1 X110.632 Y105.170 F10800.000
G1 F8640
G1 X110.252 Y105.384 E-0.10882
G1 X110.152 Y105.756 E-0.08898
G1 X109.990 Y106.105 E-0.08898
G1 X109.769 Y106.421 E-0.08898
G1 X109.496 Y106.694 E-0.08898
G1 X109.180 Y106.915 E-0.08898
G1 X108.836 Y107.075 E-0.08768
G1 X108.459 Y107.177 E-0.09020
G1 X108.337 Y107.188 E-0.02838
G1 E-0.04000 F2100.00000
G1 Z0.800 F10800.000
G1 X104.391 Y102.139
G1 Z0.200
G1 E0.80000 F2100.00000
G1 F1200
G1 X104.512 Y102.099 E0.00398
G1 X145.510 Y102.099 E1.28547
G1 X145.590 Y102.125 E0.00265
G1 X145.712 Y102.213 E0.00472
G1 X145.787 Y102.316 E0.00399
G1 X145.838 Y102.523 E0.00669
G1 X145.826 Y107.563 E0.15801
G1 X145.786 Y107.684 E0.00400
G1 X145.712 Y107.787 E0.00398
G1 X145.609 Y107.861 E0.00398
G1 X145.488 Y107.901 E0.00398
G1 X104.621 Y107.913 E1.28136
G1 X104.450 Y107.886 E0.00544
G1 X104.337 Y107.828 E0.00398
G1 X104.247 Y107.738 E0.00398
G1 X104.174 Y107.586 E0.00528
G1 X104.174 Y102.437 E0.16147
G1 X104.214 Y102.316 E0.00398
G1 X104.288 Y102.213 E0.00398
G1 X104.342 Y102.174 E0.00210
G1 X104.121 Y101.869 F10800.000
G1 F1200
G1 X104.218 Y101.798 E0.00375
G1 X104.452 Y101.722 E0.00772
G1 X145.554 Y101.722 E1.28872
G1 X145.776 Y101.793 E0.00731
G1 X145.982 Y101.943 E0.00799
G1 X146.127 Y102.143 E0.00773
G1 X146.205 Y102.382 E0.00790
G1 X146.203 Y107.623 E0.16432
G1 X146.127 Y107.857 E0.00773
G1 X145.982 Y108.057 E0.00772
G1 X145.782 Y108.202 E0.00772
G1 X145.548 Y108.278 E0.00773
G1 X104.591 Y108.290 E1.28417
G1 X104.332 Y108.249 E0.00825
G1 X104.112 Y108.137 E0.00772
G1 X103.938 Y107.963 E0.00773
G1 X103.823 Y107.738 E0.00792
G1 X103.797 Y107.631 E0.00343
G1 X103.797 Y102.377 E0.16475
G1 X103.873 Y102.143 E0.00772
G1 X104.018 Y101.943 E0.00772
G1 X104.072 Y101.904 E0.00209
G1 X104.233 Y101.910 F10800.000
G1 F8640
G1 X104.218 Y101.798 E-0.04150
G1 X104.452 Y101.722 E-0.05688
G1 X107.317 Y101.722 E-0.66162
G1 E-0.04000 F2100.00000
G1 Z0.800 F10800.000
G1 X106.418 Y102.873
G1 Z0.200
G1 E0.80000 F2100.00000
G1 F1200
G1 X105.927 Y102.383 E0.02253
G1 X105.375 Y102.382 E0.01794
G1 X106.010 Y103.017 E0.02915
G1 X105.874 Y103.153 E0.00624
G1 X105.759 Y103.318 E0.00654
G1 X104.823 Y102.382 E0.04297
G1 X104.556 Y102.382 E0.00865
G1 X104.469 Y102.446 E0.00352
G1 X104.457 Y102.569 E0.00402
G1 X105.544 Y103.656 E0.04990
G1 X105.370 Y104.035 E0.01353
G1 X104.457 Y103.121 E0.04194
G1 X104.457 Y103.674 E0.01793
G1 X105.254 Y104.470 E0.03658
G1 X105.204 Y104.973 E0.01640
G1 X104.457 Y104.226 E0.03430
G1 X104.457 Y104.778 E0.01793
G1 X105.270 Y105.591 E0.03733
G1 X105.375 Y105.983 E0.01317
G1 X105.587 Y106.437 E0.01626
G1 X105.641 Y106.514 E0.00308
G1 X104.457 Y105.330 E0.05437
G1 X104.457 Y105.883 E0.01793
G1 X106.204 Y107.630 E0.08023
G1 X105.652 Y107.630 E0.01793
G1 X104.457 Y106.435 E0.05487
G1 X104.457 Y106.987 E0.01793
G1 X105.100 Y107.630 E0.02952
G1 X104.643 Y107.630 E0.01483
G1 X104.538 Y107.613 E0.00346
G1 X104.287 Y107.370 E0.01135
G1 F8640
G1 X104.538 Y107.613 E-0.08073
G1 X104.643 Y107.630 E-0.02459
G1 X105.100 Y107.630 E-0.10546
G1 X104.457 Y106.987 E-0.20993
G1 X104.457 Y106.435 E-0.12752
G1 X105.106 Y107.083 E-0.21177
G1 E-0.04000 F2100.00000
G1 Z0.800 F10800.000
G1 X106.719 Y107.597
G1 Z0.200
G1 E0.80000 F2100.00000
G1 F1200
G1 X107.378 Y107.702 E0.00458
G1 F8640
G1 X106.719 Y107.597 E-0.15406
G1 E-0.64594 F2100.00000
G1 Z0.800 F10800.000
G1 X108.772 Y107.701
G1 Z0.200
G1 E0.80000 F2100.00000
G1 F1200
G1 X108.909 Y107.683 E0.00096
G1 X109.432 Y107.596 E0.00531
G1 X109.702 Y107.148 F10800.000
G1 F1200
G1 X110.183 Y107.628 E0.02143
G1 X110.719 Y107.628 E0.01690
G1 X110.107 Y107.016 E0.02729
G1 X110.276 Y106.847 E0.00755
G1 X110.357 Y106.731 E0.00447
G1 X111.255 Y107.628 E0.04002
G1 X111.791 Y107.628 E0.01690
G1 X110.575 Y106.412 E0.05423
G1 X110.745 Y106.046 E0.01272
G1 X112.327 Y107.628 E0.07053
G1 X112.863 Y107.628 E0.01690
G1 X110.869 Y105.633 E0.08894
G1 X110.905 Y105.499 E0.00438
G1 X110.934 Y105.162 E0.01066
G1 X113.399 Y107.627 E0.10993
G1 X113.935 Y107.627 E0.01690
G1 X110.914 Y104.606 E0.13475
G1 X110.905 Y104.501 E0.00331
G1 X110.775 Y104.017 E0.01579
G1 X110.699 Y103.855 E0.00566
G1 X114.641 Y107.797 E0.17579
G1 F8640
G1 X112.314 Y105.469 E-0.76000
G1 E-0.04000 F2100.00000
G1 Z0.800 F10800.000
G1 X109.448 Y102.412
G1 Z0.200
G1 E0.80000 F2100.00000
G1 F1200
G1 X108.927 Y102.325 E0.00466
G1 X108.815 Y102.310 E0.00072
G1 X109.598 Y102.217 F10800.000
G1 F1200
G1 X115.008 Y107.627 E0.24125
G1 X115.544 Y107.627 E0.01690
G1 X110.301 Y102.384 E0.23381
G1 X110.837 Y102.384 E0.01691
G1 X116.080 Y107.627 E0.23379
G1 X116.616 Y107.627 E0.01690
G1 X111.373 Y102.384 E0.23378
G1 X111.910 Y102.384 E0.01691
G1 X117.152 Y107.626 E0.23377
G1 X117.688 Y107.626 E0.01690
G1 X112.446 Y102.384 E0.23376
G1 X112.983 Y102.384 E0.01691
G1 X118.224 Y107.626 E0.23374
G1 X118.761 Y107.626 E0.01690
G1 X113.519 Y102.384 E0.23373
G1 X114.055 Y102.384 E0.01691
G1 X119.297 Y107.626 E0.23372
G1 X119.833 Y107.626 E0.01690
G1 X114.592 Y102.385 E0.23370
G1 X115.128 Y102.385 E0.01691
G1 X120.369 Y107.625 E0.23369
G1 X120.905 Y107.625 E0.01690
G1 X115.665 Y102.385 E0.23368
G1 X116.201 Y102.385 E0.01691
G1 X121.441 Y107.625 E0.23366
G1 X121.977 Y107.625 E0.01690
G1 X116.738 Y102.385 E0.23365
G1 X117.274 Y102.385 E0.01691
G1 X122.513 Y107.625 E0.23364
G1 X123.050 Y107.625 E0.01690
G1 X117.810 Y102.385 E0.23363
G1 X118.347 Y102.386 E0.01691
G1 X123.586 Y107.624 E0.23361
G1 X124.122 Y107.624 E0.01690
G1 X118.883 Y102.386 E0.23360
G1 X119.420 Y102.386 E0.01691
G1 X124.658 Y107.624 E0.23359
G1 X125.194 Y107.624 E0.01690
G1 X119.956 Y102.386 E0.23357
G1 X120.492 Y102.386 E0.01691
G1 X125.730 Y107.624 E0.23356
G1 X126.266 Y107.624 E0.01690
G1 X121.029 Y102.386 E0.23355
G1 X121.565 Y102.386 E0.01691
G1 X126.802 Y107.623 E0.23353
G1 X127.338 Y107.623 E0.01690
G1 X122.102 Y102.386 E0.23352
G1 X122.638 Y102.387 E0.01691
G1 X127.875 Y107.623 E0.23351
G1 X128.411 Y107.623 E0.01690
G1 X123.174 Y102.387 E0.23350
G1 X123.711 Y102.387 E0.01691
G1 X128.947 Y107.623 E0.23348
G1 X129.483 Y107.623 E0.01690
G1 X124.247 Y102.387 E0.23347
G1 X124.784 Y102.387 E0.01691
G1 X130.019 Y107.622 E0.23346
G1 X130.555 Y107.622 E0.01690
G1 X125.320 Y102.387 E0.23344
G1 X125.857 Y102.387 E0.01691
G1 X131.091 Y107.622 E0.23343
G1 X131.627 Y107.622 E0.01690
G1 X126.393 Y102.387 E0.23342
G1 X126.929 Y102.388 E0.01691
G1 X132.164 Y107.622 E0.23340
G1 X132.700 Y107.622 E0.01690
G1 X127.466 Y102.388 E0.23339
G1 X128.002 Y102.388 E0.01691
G1 X133.236 Y107.622 E0.23338
G1 X133.772 Y107.621 E0.01690
G1 X128.539 Y102.388 E0.23337
G1 X129.075 Y102.388 E0.01691
G1 X134.308 Y107.621 E0.23335
G1 X134.844 Y107.621 E0.01690
G1 X129.611 Y102.388 E0.23334
G1 X130.148 Y102.388 E0.01691
G1 X135.380 Y107.621 E0.23333
G1 X135.916 Y107.621 E0.01690
G1 X130.684 Y102.389 E0.23331
G1 X131.221 Y102.389 E0.01691
G1 X136.453 Y107.621 E0.23330
G1 X136.989 Y107.620 E0.01690
G1 X131.757 Y102.389 E0.23329
G1 X132.293 Y102.389 E0.01691
G1 X137.525 Y107.620 E0.23327
G1 X138.061 Y107.620 E0.01690
G1 X132.830 Y102.389 E0.23326
G1 X133.366 Y102.389 E0.01691
G1 X138.597 Y107.620 E0.23325
G1 X139.133 Y107.620 E0.01690
G1 X133.903 Y102.389 E0.23324
G1 X134.439 Y102.389 E0.01691
G1 X139.669 Y107.620 E0.23322
G1 X140.205 Y107.619 E0.01690
G1 X134.976 Y102.390 E0.23321
G1 X135.512 Y102.390 E0.01691
G1 X139.330 Y106.208 E0.17026
G1 X139.225 Y105.983 E0.00783
G1 X139.090 Y105.431 E0.01791
G1 X136.048 Y102.390 E0.13561
G1 X136.585 Y102.390 E0.01691
G1 X139.063 Y104.869 E0.11052
G1 X139.095 Y104.501 E0.01163
G1 X139.124 Y104.393 E0.00352
G1 X137.121 Y102.390 E0.08933
G1 X137.658 Y102.390 E0.01691
G1 X139.244 Y103.977 E0.07074
G1 X139.415 Y103.611 E0.01272
G1 X138.194 Y102.390 E0.05443
