; generated by Slic3r Prusa Edition 1.41.0+win64 on 2019-01-30 at 11:36:26

; 

; external perimeters extrusion width = 0.45mm
; perimeters extrusion width = 0.45mm
; infill extrusion width = 0.45mm
; solid infill extrusion width = 0.45mm
; top infill extrusion width = 0.40mm
; support material extrusion width = 0.35mm
; first layer extrusion width = 0.42mm

M201 X1000 Y1000 Z1000 E5000 ; sets maximum accelerations, mm/sec^2
M203 X200 Y200 Z12 E120 ; sets maximum feedrates, mm/sec
M204 P1250 R1250 T1250 ; sets acceleration (P, T) and retract acceleration (R), mm/sec^2
M205 X8.00 Y8.00 Z0.40 E1.50 ; sets the jerk limits, mm/sec
M205 S0 T0 ; sets the minimum extruding and travel feed rate, mm/sec
M107
M115 U3.4.1 ; tell printer latest fw version
M83  ; extruder relative mode
M104 S215 ; set extruder temp
M140 S65 ; set bed temp
M190 S65 ; wait for bed temp
M109 S215 ; wait for extruder temp
G28 W ; home all without mesh bed level
G80 ; mesh bed leveling
G1 Y-3.0 F1000.0 ; go outside print area
G92 E0.0
G1 X60.0 E9.0  F1000.0 ; intro line
M73 Q0 S100
M73 P0 R98
G1 X100.0 E12.5  F1000.0 ; intro line
G92 E0.0
M221 S95
M900 K30; Filament gcode
G21 ; set units to millimeters
G90 ; use absolute coordinates
M83 ; use relative distances for extrusion
;BEFORE_LAYER_CHANGE
G92 E0.0
;0.2


G1 E-0.80000 F2100.00000
G1 Z0.600 F10800.000
;AFTER_LAYER_CHANGE
;0.2
G1 X86.981 Y66.156
G1 Z0.200
G1 E0.80000 F2100.00000
M204 S1000
G1 F1200
G1 X87.302 Y65.619 E0.01964
G1 X87.763 Y65.194 E0.01964
G1 X88.326 Y64.918 E0.01964
G1 X88.943 Y64.812 E0.01964
G1 X139.004 Y64.811 E1.56962
G1 X161.267 Y65.828 E0.69877
G1 X161.967 Y66.037 E0.02293
G1 X162.563 Y66.468 E0.02304
G1 X162.980 Y67.068 E0.02293
G1 X163.177 Y67.772 E0.02293
G1 X163.188 Y75.026 E0.22742
G1 X163.084 Y75.669 E0.02044
G1 X145.156 Y123.842 E1.61163
G1 X144.688 Y124.542 E0.02642
G1 X124.678 Y144.553 E0.88729
G1 X124.165 Y144.931 E0.01998
G1 X123.672 Y145.122 E0.01658
G1 X123.147 Y145.189 E0.01658
G1 X106.313 Y145.188 E0.52782
G1 X105.492 Y145.019 E0.02631
G1 X104.895 Y144.648 E0.02202
G1 X104.448 Y144.107 E0.02202
G1 X87.768 Y115.583 E1.03605
G1 X87.250 Y114.473 E0.03838
G1 X86.946 Y113.371 E0.03586
G1 X86.811 Y112.008 E0.04293
G1 X86.811 Y67.000 E1.41120
G1 X86.969 Y66.215 E0.02510
; PURGING FINISHED
G1 F8640
G1 X87.302 Y65.619 E-0.15778
G1 X87.763 Y65.194 E-0.14465
G1 X88.326 Y64.918 E-0.14465
G1 X88.943 Y64.812 E-0.14465
G1 X89.672 Y64.812 E-0.16826
G1 E-0.04000 F2100.00000
G1 Z0.800 F10800.000
G1 X100.312 Y102.434
G1 Z0.200
G1 E0.80000 F2100.00000
G1 F1200
G1 X100.312 Y82.492 E0.62527
G1 X101.067 Y82.492 E0.02365
G1 X101.067 Y102.264 E0.61995
G1 X101.821 Y102.264 E0.02365
G1 X101.821 Y82.492 E0.61995
G1 X102.185 Y82.492 E0.01141
G1 X102.185 Y80.185 E0.07234
G1 X102.575 Y80.185 E0.01224
G1 X102.575 Y104.571 E0.76462
G1 X103.329 Y104.571 E0.02365
G1 X103.329 Y80.185 E0.76462
G1 X104.083 Y80.185 E0.02365
G1 X104.083 Y104.571 E0.76462
G1 X104.837 Y104.571 E0.02365
G1 X104.837 Y77.878 E0.83696
G1 X105.592 Y77.878 E0.02365
G1 X105.591 Y104.571 E0.83696
G1 X106.346 Y104.571 E0.02365
G1 X106.346 Y77.878 E0.83696
G1 X107.100 Y77.878 E0.02365
G1 X107.100 Y106.878 E0.90929
G1 X107.854 Y106.878 E0.02365
G1 X107.854 Y77.878 E0.90929
G1 X108.608 Y77.878 E0.02365
G1 X108.608 Y106.878 E0.90929
G1 X109.362 Y106.878 E0.02365
G1 X109.362 Y77.878 E0.90929
G1 X110.116 Y77.878 E0.02365
G1 X110.116 Y106.878 E0.90929
G1 X110.871 Y106.878 E0.02365
G1 X110.871 Y77.878 E0.90929
G1 X111.625 Y77.878 E0.02365
G1 X111.625 Y106.878 E0.90929
G1 X112.379 Y106.878 E0.02365
G1 X112.379 Y77.878 E0.90929
G1 X113.133 Y77.878 E0.02365
G1 X113.133 Y106.878 E0.90929
G1 X113.887 Y106.878 E0.02365
G1 X113.887 Y77.878 E0.90929
G1 X114.641 Y77.878 E0.02365
G1 X114.641 Y106.878 E0.90929
G1 X115.396 Y106.878 E0.02365
G1 X115.396 Y77.878 E0.90929
G1 X116.150 Y77.878 E0.02365
G1 X116.150 Y106.878 E0.90929
G1 X116.904 Y106.878 E0.02365
G1 X116.904 Y77.878 E0.90929
G1 X117.658 Y77.878 E0.02365
G1 X117.658 Y106.878 E0.90929
G1 X118.412 Y106.878 E0.02365
G1 X118.412 Y77.878 E0.90929
G1 X119.166 Y77.878 E0.02365
G1 X119.166 Y106.878 E0.90929
G1 X119.921 Y106.878 E0.02365
G1 X119.921 Y77.878 E0.90929
G1 X120.675 Y77.878 E0.02365
G1 X120.675 Y106.878 E0.90929
G1 X121.429 Y106.878 E0.02365
G1 X121.429 Y77.878 E0.90929
G1 X122.183 Y77.878 E0.02365
G1 X122.183 Y104.571 E0.83696
M73 Q1 S99
G1 X122.937 Y104.571 E0.02365
M73 P1 R97
G1 X122.937 Y77.878 E0.83696
G1 X123.691 Y77.878 E0.02365
G1 X123.691 Y104.571 E0.83696
G1 X124.264 Y104.571 E0.01796
G1 X124.264 Y102.264 E0.07234
G1 X124.445 Y102.264 E0.00569
G1 X124.445 Y80.185 E0.69228
G1 X125.200 Y80.185 E0.02365
G1 X125.200 Y102.264 E0.69228
G1 X125.954 Y102.264 E0.02365
G1 X125.954 Y80.185 E0.69228
G1 X126.571 Y80.185 E0.01936
G1 X126.571 Y84.799 E0.14467
G1 X126.708 Y84.799 E0.00429
G1 X126.708 Y99.957 E0.47527
G1 X127.462 Y99.957 E0.02365
G1 X127.462 Y84.799 E0.47527
G1 X128.216 Y84.799 E0.02365
G1 X128.216 Y100.127 E0.48059
G1 F8640
G1 X128.216 Y96.835 E-0.76000
G1 E-0.04000 F2100.00000
G1 Z0.800 F10800.000
G1 X129.950 Y101.447
G1 Z0.200
G1 E0.80000 F2100.00000
G1 F1200
G1 X128.549 Y103.489 E0.07765
G1 X126.888 Y105.326 E0.07765
G1 X124.997 Y106.925 E0.07765
G1 X122.909 Y108.257 E0.07765
G1 X120.663 Y109.300 E0.07765
G1 X118.298 Y110.033 E0.07765
G1 X115.856 Y110.445 E0.07765
G1 X113.381 Y110.528 E0.07765
G1 X110.917 Y110.280 E0.07765
G1 X108.508 Y109.706 E0.07765
G1 X106.197 Y108.816 E0.07765
G1 X104.025 Y107.626 E0.07765
G1 X102.031 Y106.157 E0.07765
G1 X100.251 Y104.435 E0.07765
G1 X98.716 Y102.492 E0.07765
G1 X97.454 Y100.361 E0.07765
G1 X96.487 Y98.081 E0.07765
G1 X95.836 Y95.702 E0.07735
G1 X95.504 Y93.248 E0.07763
G1 X95.463 Y92.000 E0.03916
G1 X95.504 Y90.752 E0.03915
G1 X95.833 Y88.307 E0.07734
G1 X96.487 Y85.919 E0.07765
G1 X97.454 Y83.639 E0.07765
G1 X98.716 Y81.508 E0.07765
G1 X100.251 Y79.565 E0.07765
G1 X102.031 Y77.843 E0.07765
G1 X104.017 Y76.380 E0.07735
G1 X106.196 Y75.184 E0.07794
G1 X108.508 Y74.294 E0.07765
G1 X110.917 Y73.720 E0.07765
G1 X113.371 Y73.473 E0.07735
G1 X115.855 Y73.555 E0.07794
G1 X118.298 Y73.967 E0.07765
G1 X120.663 Y74.700 E0.07765
G1 X122.909 Y75.743 E0.07765
G1 X124.997 Y77.075 E0.07765
G1 X126.888 Y78.674 E0.07765
G1 X128.549 Y80.511 E0.07765
G1 X129.950 Y82.553 E0.07765
G1 X131.067 Y84.763 E0.07765
G1 X131.880 Y87.102 E0.07765
G1 X132.373 Y89.529 E0.07765
G1 X132.538 Y92.000 E0.07765
G1 X132.373 Y94.471 E0.07765
G1 X131.880 Y96.898 E0.07765
G1 X131.067 Y99.237 E0.07765
G1 X129.978 Y101.394 E0.07577
G1 X129.641 Y101.224 F10800.000
G1 F1200
G1 X128.252 Y103.255 E0.07714
G1 X126.625 Y105.054 E0.07606
G1 X124.772 Y106.620 E0.07606
G1 X122.728 Y107.926 E0.07606
G1 X120.527 Y108.947 E0.07606
G1 X118.210 Y109.666 E0.07606
G1 X115.818 Y110.069 E0.07606
G1 X113.393 Y110.150 E0.07606
G1 X110.979 Y109.907 E0.07606
G1 X108.619 Y109.345 E0.07606
G1 X106.356 Y108.473 E0.07606
G1 X104.228 Y107.307 E0.07606
G1 X102.275 Y105.868 E0.07606
G1 X100.531 Y104.182 E0.07606
G1 X99.028 Y102.278 E0.07606
G1 X97.791 Y100.191 E0.07606
G1 X96.844 Y97.957 E0.07606
G1 X96.206 Y95.626 E0.07577
G1 X95.881 Y93.217 E0.07624
G1 X95.840 Y92.000 E0.03816
G1 X95.881 Y90.784 E0.03816
G1 X96.203 Y88.383 E0.07595
G1 X96.844 Y86.043 E0.07606
G1 X97.791 Y83.809 E0.07606
G1 X99.028 Y81.722 E0.07606
G1 X100.531 Y79.818 E0.07606
G1 X102.275 Y78.132 E0.07606
G1 X104.221 Y76.698 E0.07577
G1 X106.356 Y75.527 E0.07636
G1 X108.619 Y74.655 E0.07607
G1 X110.979 Y74.093 E0.07606
G1 X113.384 Y73.851 E0.07577
G1 X115.818 Y73.931 E0.07636
G1 X118.210 Y74.334 E0.07607
G1 X120.527 Y75.053 E0.07606
G1 X122.728 Y76.074 E0.07606
G1 X124.772 Y77.380 E0.07606
G1 X126.625 Y78.946 E0.07606
G1 X128.252 Y80.745 E0.07606
G1 X129.625 Y82.745 E0.07606
G1 X130.719 Y84.910 E0.07606
G1 X131.515 Y87.202 E0.07606
G1 X131.998 Y89.579 E0.07606
G1 X132.160 Y92.000 E0.07606
G1 X131.998 Y94.421 E0.07606
G1 X131.515 Y96.798 E0.07606
G1 X130.719 Y99.090 E0.07606
G1 X129.668 Y101.170 E0.07309
G1 X129.838 Y101.572 F10800.000
G1 F8640
G1 X128.252 Y103.255 E-0.58185
G1 X127.735 Y103.827 E-0.17815
G1 E-0.04000 F2100.00000
G1 Z0.800 F10800.000
G1 X138.413 Y68.587
G1 Z0.200
G1 E0.80000 F2100.00000
G1 F1200
G1 X160.413 Y68.587 E0.68979
G1 X160.413 Y74.413 E0.18267
G1 X138.413 Y74.413 E0.68979
G1 X138.413 Y116.413 E1.31688
G1 X94.026 Y116.413 E1.39173
G1 X93.234 Y116.344 E0.02491
G1 X92.491 Y116.145 E0.02411
G1 X91.795 Y115.820 E0.02411
G1 X91.181 Y115.390 E0.02348
G1 X90.621 Y114.834 E0.02476
G1 X90.180 Y114.205 E0.02407
G1 X89.855 Y113.509 E0.02411
G1 X89.656 Y112.766 E0.02411
G1 X89.587 Y111.974 E0.02491
G1 X89.587 Y67.587 E1.39173
G1 X138.413 Y67.587 E1.53090
G1 X138.413 Y68.527 E0.02947
G1 X138.790 Y68.210 F10800.000
G1 F1200
G1 X160.790 Y68.210 E0.68979
G1 X160.790 Y74.790 E0.20631
G1 X138.790 Y74.790 E0.68979
G1 X138.790 Y116.790 E1.31688
G1 X94.009 Y116.790 E1.40407
G1 X93.168 Y116.716 E0.02646
G1 X92.362 Y116.500 E0.02617
G1 X91.605 Y116.148 E0.02617
G1 X90.938 Y115.681 E0.02553
G1 X90.331 Y115.078 E0.02683
G1 X89.852 Y114.395 E0.02616
G1 X89.500 Y113.638 E0.02617
G1 X89.284 Y112.832 E0.02618
G1 X89.210 Y111.991 E0.02646
G1 X89.210 Y67.210 E1.40407
G1 X138.790 Y67.210 E1.55455
G1 X138.790 Y68.150 E0.02947
G1 X138.988 Y68.558 F10800.000
G1 X138.300 Y68.360
G1 F1200
G1 X137.810 Y67.870 E0.02182
G1 X137.274 Y67.870 E0.01687
G1 X143.535 Y74.130 E0.27887
G1 X144.070 Y74.130 E0.01687
G1 X138.810 Y68.870 E0.23432
G1 X139.346 Y68.870 E0.01687
G1 X144.606 Y74.130 E0.23432
G1 X145.142 Y74.130 E0.01687
G1 X139.882 Y68.870 E0.23432
G1 X140.417 Y68.870 E0.01687
G1 X145.678 Y74.130 E0.23432
G1 X146.213 Y74.130 E0.01687
G1 X140.953 Y68.870 E0.23432
G1 X141.489 Y68.870 E0.01687
G1 X146.749 Y74.130 E0.23432
G1 X147.285 Y74.130 E0.01687
G1 X142.024 Y68.870 E0.23432
G1 X142.560 Y68.870 E0.01687
G1 X147.820 Y74.130 E0.23432
G1 X148.356 Y74.130 E0.01687
G1 X143.096 Y68.870 E0.23432
G1 X143.632 Y68.870 E0.01687
G1 X148.892 Y74.130 E0.23432
G1 X149.428 Y74.130 E0.01687
G1 X144.167 Y68.870 E0.23432
G1 X144.703 Y68.870 E0.01687
G1 X149.963 Y74.130 E0.23432
G1 X150.499 Y74.130 E0.01687
G1 X145.239 Y68.870 E0.23432
G1 X145.775 Y68.870 E0.01687
G1 X151.035 Y74.130 E0.23432
G1 X151.571 Y74.130 E0.01687
G1 X146.310 Y68.870 E0.23432
G1 X146.846 Y68.870 E0.01687
G1 X152.106 Y74.130 E0.23432
G1 X152.642 Y74.130 E0.01687
G1 X147.382 Y68.870 E0.23432
G1 X147.917 Y68.870 E0.01687
G1 X153.178 Y74.130 E0.23432
G1 X153.713 Y74.130 E0.01687
G1 X148.453 Y68.870 E0.23432
G1 X148.989 Y68.870 E0.01687
G1 X154.249 Y74.130 E0.23432
G1 X154.785 Y74.130 E0.01687
G1 X149.525 Y68.870 E0.23432
G1 X150.060 Y68.870 E0.01687
G1 X155.321 Y74.130 E0.23432
G1 X155.856 Y74.130 E0.01687
G1 X150.596 Y68.870 E0.23432
G1 X151.132 Y68.870 E0.01687
G1 X156.392 Y74.130 E0.23432
G1 X156.928 Y74.130 E0.01687
G1 X151.668 Y68.870 E0.23432
G1 X152.203 Y68.870 E0.01687
G1 X157.464 Y74.130 E0.23432
G1 X157.999 Y74.130 E0.01687
G1 X152.739 Y68.870 E0.23432
G1 X153.275 Y68.870 E0.01687
G1 X158.535 Y74.130 E0.23432
G1 X159.071 Y74.130 E0.01687
G1 X153.811 Y68.870 E0.23432
G1 X154.346 Y68.870 E0.01687
G1 X159.607 Y74.130 E0.23432
G1 X160.130 Y74.118 E0.01650
G1 X154.882 Y68.870 E0.23378
G1 X155.418 Y68.870 E0.01687
G1 X160.130 Y73.582 E0.20992
G1 X160.130 Y73.047 E0.01687
G1 X155.953 Y68.870 E0.18606
G1 X156.489 Y68.870 E0.01687
G1 X160.130 Y72.511 E0.16219
M73 Q2 S98
G1 X160.130 Y71.975 E0.01687
G1 X157.025 Y68.870 E0.13833
M73 P2 R96
G1 X157.561 Y68.870 E0.01687
G1 X160.130 Y71.439 E0.11446
G1 X160.130 Y70.904 E0.01687
G1 X158.096 Y68.870 E0.09060
G1 X158.632 Y68.870 E0.01687
G1 X160.130 Y70.368 E0.06673
G1 X160.130 Y69.832 E0.01687
G1 X159.168 Y68.870 E0.04287
G1 X159.704 Y68.870 E0.01687
G1 X160.300 Y69.466 E0.02656
G1 F8640
G1 X159.704 Y68.870 E-0.19471
G1 X159.168 Y68.870 E-0.12370
G1 X160.130 Y69.832 E-0.31424
G1 X160.130 Y70.368 E-0.12370
G1 X160.119 Y70.357 E-0.00365
G1 E-0.04000 F2100.00000
G1 Z0.800 F10800.000
G1 X143.169 Y74.300
G1 Z0.200
G1 E0.80000 F2100.00000
G1 F1200
G1 X136.739 Y67.870 E0.28643
G1 X136.203 Y67.870 E0.01687
G1 X142.463 Y74.130 E0.27887
G1 X141.927 Y74.130 E0.01687
G1 X135.667 Y67.870 E0.27887
G1 X135.131 Y67.870 E0.01687
G1 X141.392 Y74.130 E0.27887
G1 X140.856 Y74.130 E0.01687
G1 X134.596 Y67.870 E0.27887
G1 X134.060 Y67.870 E0.01687
G1 X140.320 Y74.130 E0.27887
G1 X139.785 Y74.130 E0.01687
G1 X133.524 Y67.870 E0.27887
G1 X132.989 Y67.870 E0.01687
G1 X139.249 Y74.130 E0.27887
G1 X138.713 Y74.130 E0.01687
G1 X132.453 Y67.870 E0.27887
G1 X131.917 Y67.870 E0.01687
G1 X138.177 Y74.130 E0.27887
G1 X138.130 Y74.130 E0.00149
G1 X138.130 Y74.619 E0.01539
G1 X131.381 Y67.870 E0.30063
G1 X130.846 Y67.870 E0.01687
G1 X138.130 Y75.154 E0.32450
G1 X138.130 Y75.690 E0.01687
G1 X130.310 Y67.870 E0.34836
G1 X129.774 Y67.870 E0.01687
G1 X138.130 Y76.226 E0.37223
G1 X138.130 Y76.762 E0.01687
G1 X129.238 Y67.870 E0.39609
G1 X128.703 Y67.870 E0.01687
G1 X138.130 Y77.297 E0.41996
G1 X138.130 Y77.833 E0.01687
G1 X128.167 Y67.870 E0.44382
G1 X127.631 Y67.870 E0.01687
G1 X138.130 Y78.369 E0.46769
G1 X138.130 Y78.904 E0.01687
G1 X127.096 Y67.870 E0.49155
G1 X126.560 Y67.870 E0.01687
G1 X138.130 Y79.440 E0.51541
G1 X138.130 Y79.976 E0.01687
G1 X126.024 Y67.870 E0.53928
G1 X125.488 Y67.870 E0.01687
G1 X138.130 Y80.512 E0.56314
G1 X138.130 Y81.047 E0.01687
G1 X124.953 Y67.870 E0.58701
G1 X124.417 Y67.870 E0.01687
G1 X138.130 Y81.583 E0.61087
G1 X138.130 Y82.119 E0.01687
G1 X123.881 Y67.870 E0.63474
G1 X123.345 Y67.870 E0.01687
G1 X138.130 Y82.655 E0.65860
G1 X138.130 Y83.190 E0.01687
G1 X122.810 Y67.870 E0.68247
G1 X122.274 Y67.870 E0.01687
G1 X138.130 Y83.726 E0.70633
G1 X138.130 Y84.262 E0.01687
G1 X121.738 Y67.870 E0.73020
G1 X121.202 Y67.870 E0.01687
G1 X138.130 Y84.798 E0.75406
G1 X138.130 Y85.333 E0.01687
G1 X120.667 Y67.870 E0.77793
G1 X120.131 Y67.870 E0.01687
G1 X138.130 Y85.869 E0.80179
G1 X138.130 Y86.405 E0.01687
G1 X119.595 Y67.870 E0.82566
G1 X119.060 Y67.870 E0.01687
G1 X138.130 Y86.940 E0.84952
G1 X138.130 Y87.476 E0.01687
G1 X118.524 Y67.870 E0.87338
G1 X117.988 Y67.870 E0.01687
G1 X138.130 Y88.012 E0.89725
G1 X138.130 Y88.548 E0.01687
G1 X117.452 Y67.870 E0.92111
G1 X116.917 Y67.870 E0.01687
G1 X138.130 Y89.083 E0.94498
G1 X138.130 Y89.619 E0.01687
G1 X116.381 Y67.870 E0.96884
G1 X115.845 Y67.870 E0.01687
G1 X124.775 Y76.800 E0.39778
G1 F8640
G1 X122.448 Y74.472 E-0.76000
G1 E-0.04000 F2100.00000
G1 Z0.800 F10800.000
G1 X123.293 Y75.854
G1 Z0.200
G1 E0.80000 F2100.00000
G1 F1200
G1 X115.309 Y67.870 E0.35566
G1 X114.774 Y67.870 E0.01687
G1 X121.838 Y74.934 E0.31467
G1 X120.838 Y74.470 E0.03471
G1 X114.238 Y67.870 E0.29400
G1 X113.702 Y67.870 E0.01687
G1 X120.045 Y74.213 E0.28254
G1 X119.268 Y73.972 E0.02561
G1 X113.167 Y67.870 E0.27181
G1 X112.631 Y67.870 E0.01687
G1 X118.492 Y73.731 E0.26108
G1 X118.363 Y73.691 E0.00424
G1 X117.825 Y73.600 E0.01718
G1 X112.095 Y67.870 E0.25526
G1 X111.559 Y67.870 E0.01687
G1 X117.181 Y73.491 E0.25042
G1 X116.537 Y73.383 E0.02059
G1 X111.024 Y67.870 E0.24558
G1 X110.488 Y67.870 E0.01687
G1 X115.892 Y73.274 E0.24074
G1 X115.337 Y73.255 E0.01750
G1 X109.952 Y67.870 E0.23987
G1 X109.416 Y67.870 E0.01687
G1 X114.783 Y73.236 E0.23906
G1 X114.229 Y73.218 E0.01746
G1 X108.881 Y67.870 E0.23825
G1 X108.345 Y67.870 E0.01687
G1 X113.675 Y73.200 E0.23744
G1 X113.362 Y73.190 E0.00988
G1 X113.150 Y73.211 E0.00669
G1 X107.809 Y67.870 E0.23792
G1 X107.274 Y67.870 E0.01687
G1 X112.664 Y73.260 E0.24010
G1 X112.177 Y73.309 E0.01541
G1 X106.738 Y67.870 E0.24229
G1 X106.202 Y67.870 E0.01687
G1 X111.690 Y73.358 E0.24447
G1 X111.203 Y73.407 E0.01541
G1 X105.666 Y67.870 E0.24665
G1 X105.131 Y67.870 E0.01687
G1 X110.733 Y73.473 E0.24959
G1 X110.301 Y73.576 E0.01401
G1 X104.595 Y67.870 E0.25418
G1 X104.059 Y67.870 E0.01687
G1 X109.868 Y73.679 E0.25877
G1 X109.436 Y73.782 E0.01401
G1 X103.523 Y67.870 E0.26337
G1 X102.988 Y67.870 E0.01687
G1 X109.003 Y73.885 E0.26796
G1 X108.570 Y73.988 E0.01401
G1 X102.452 Y67.870 E0.27255
G1 X101.916 Y67.870 E0.01687
G1 X108.168 Y74.122 E0.27849
G1 X107.781 Y74.271 E0.01306
G1 X101.380 Y67.870 E0.28513
