; generated by Slic3r Prusa Edition 1.41.0+win64 on 2019-01-31 at 17:22:44

; 

; external perimeters extrusion width = 0.45mm
; perimeters extrusion width = 0.45mm
; infill extrusion width = 0.45mm
; solid infill extrusion width = 0.45mm
; top infill extrusion width = 0.40mm
; support material extrusion width = 0.35mm
; first layer extrusion width = 0.42mm

M201 X1000 Y1000 Z1000 E5000 ; sets maximum accelerations, mm/sec^2
M203 X200 Y200 Z12 E120 ; sets maximum feedrates, mm/sec
M204 P1250 R1250 T1250 ; sets acceleration (P, T) and retract acceleration (R), mm/sec^2
M205 X8.00 Y8.00 Z0.40 E1.50 ; sets the jerk limits, mm/sec
M205 S0 T0 ; sets the minimum extruding and travel feed rate, mm/sec
M107
M115 U3.4.1 ; tell printer latest fw version
M83  ; extruder relative mode
M104 S215 ; set extruder temp
M140 S65 ; set bed temp
M190 S65 ; wait for bed temp
M109 S215 ; wait for extruder temp
G28 W ; home all without mesh bed level
G80 ; mesh bed leveling
G1 Y-3.0 F1000.0 ; go outside print area
G92 E0.0
G1 X60.0 E9.0  F1000.0 ; intro line
M73 Q0 S140
M73 P0 R137
G1 X100.0 E12.5  F1000.0 ; intro line
G92 E0.0
M221 S95
M900 K30; Filament gcode
G21 ; set units to millimeters
G90 ; use absolute coordinates
M83 ; use relative distances for extrusion
;BEFORE_LAYER_CHANGE
G92 E0.0
;0.2


G1 E-0.80000 F2100.00000
G1 Z0.600 F10800.000
;AFTER_LAYER_CHANGE
;0.2
G1 X87.130 Y43.336
G1 Z0.200
G1 E0.80000 F2100.00000
M204 S1000
G1 F1200
G1 X87.600 Y42.790 E0.02259
G1 X88.222 Y42.427 E0.02259
G1 X88.928 Y42.285 E0.02259
G1 X139.004 Y42.284 E1.57008
G1 X161.249 Y43.298 E0.69820
G1 X161.911 Y43.483 E0.02157
G1 X162.484 Y43.864 E0.02157
G1 X162.910 Y44.404 E0.02157
G1 X163.147 Y45.050 E0.02157
G1 X163.189 Y164.528 E3.74615
G1 X163.125 Y165.156 E0.01979
G1 X162.763 Y166.116 E0.03216
G1 X162.473 Y166.537 E0.01603
G1 X162.004 Y167.006 E0.02081
G1 X161.075 Y167.529 E0.03341
G1 X160.106 Y167.714 E0.03093
G1 X111.996 Y167.716 E1.50844
G1 X111.372 Y167.652 E0.01968
G1 X110.645 Y167.413 E0.02401
G1 X110.067 Y167.063 E0.02116
G1 X109.494 Y166.497 E0.02526
G1 X109.124 Y165.903 E0.02196
G1 X87.854 Y116.900 E1.67495
G1 X86.812 Y94.502 E0.70302
G1 X86.811 Y44.469 E1.56877
G1 X86.863 Y44.001 E0.01475
G1 X87.107 Y43.391 E0.02059
; PURGING FINISHED
G1 F8640
G1 X87.600 Y42.790 E-0.17950
G1 X88.222 Y42.427 E-0.16633
G1 X88.928 Y42.285 E-0.16633
G1 X90.002 Y42.285 E-0.24783
G1 E-0.04000 F2100.00000
G1 Z0.800 F10800.000
G1 X120.675 Y59.142
G1 Z0.200
G1 E0.80000 F2100.00000
G1 F1200
G1 X120.675 Y52.886 E0.19617
G1 X121.429 Y52.886 E0.02365
G1 X121.429 Y58.973 E0.19085
G1 X122.183 Y58.973 E0.02365
G1 X122.183 Y52.886 E0.19085
G1 X122.937 Y52.886 E0.02365
G1 X122.937 Y82.043 E0.91421
G1 X123.691 Y82.043 E0.02365
G1 X123.691 Y52.886 E0.91421
G1 X124.445 Y52.886 E0.02365
G1 X124.445 Y79.736 E0.84188
G1 X125.200 Y79.736 E0.02365
G1 X125.200 Y52.886 E0.84188
G1 X125.954 Y52.886 E0.02365
G1 X125.954 Y79.736 E0.84188
G1 X126.571 Y79.736 E0.01936
G1 X126.571 Y77.429 E0.07234
G1 X126.708 Y77.429 E0.00429
G1 X126.708 Y52.886 E0.76954
G1 X127.462 Y52.886 E0.02365
G1 X127.462 Y77.429 E0.76954
G1 X128.216 Y77.429 E0.02365
G1 X128.216 Y52.886 E0.76954
G1 X128.970 Y52.886 E0.02365
G1 X128.970 Y65.894 E0.40786
G1 X129.725 Y65.894 E0.02365
G1 X129.725 Y52.886 E0.40786
G1 X130.479 Y52.886 E0.02365
G1 X130.479 Y65.894 E0.40786
G1 X131.233 Y65.894 E0.02365
G1 X131.233 Y52.886 E0.40786
G1 X131.987 Y52.886 E0.02365
G1 X131.987 Y65.894 E0.40786
G1 X132.741 Y65.894 E0.02365
G1 X132.741 Y52.886 E0.40786
G1 X133.495 Y52.886 E0.02365
G1 X133.495 Y65.894 E0.40786
G1 X134.250 Y65.894 E0.02365
G1 X134.250 Y52.886 E0.40786
G1 X135.004 Y52.886 E0.02365
G1 X135.004 Y65.894 E0.40786
G1 X135.758 Y65.894 E0.02365
G1 X135.758 Y52.886 E0.40786
G1 X136.512 Y52.886 E0.02365
G1 X136.512 Y65.894 E0.40786
G1 X137.266 Y65.894 E0.02365
G1 X137.266 Y52.886 E0.40786
G1 X138.020 Y52.886 E0.02365
G1 X138.020 Y65.894 E0.40786
G1 X138.774 Y65.894 E0.02365
G1 X138.774 Y52.886 E0.40786
G1 X139.529 Y52.886 E0.02365
G1 X139.529 Y65.894 E0.40786
G1 X140.283 Y65.894 E0.02365
G1 X140.283 Y52.886 E0.40786
G1 X141.037 Y52.886 E0.02365
G1 X141.037 Y65.894 E0.40786
G1 X141.791 Y65.894 E0.02365
G1 X141.791 Y52.886 E0.40786
G1 X142.545 Y52.886 E0.02365
G1 X142.545 Y66.064 E0.41318
G1 F8640
G1 X142.545 Y62.772 E-0.76000
G1 E-0.04000 F2100.00000
G1 Z0.800 F10800.000
G1 X122.183 Y82.213
G1 Z0.200
G1 E0.80000 F2100.00000
G1 F1200
G1 X122.183 Y62.271 E0.62527
G1 X121.429 Y62.271 E0.02365
G1 X121.429 Y84.351 E0.69228
G1 X120.675 Y84.351 E0.02365
G1 X120.675 Y62.271 E0.69228
G1 X119.921 Y62.271 E0.02365
G1 X119.921 Y84.351 E0.69228
G1 X119.166 Y84.351 E0.02365
G1 X119.166 Y59.964 E0.76462
G1 X118.412 Y59.964 E0.02365
G1 X118.412 Y84.351 E0.76462
G1 X117.658 Y84.351 E0.02365
G1 X117.658 Y59.964 E0.76462
G1 X116.904 Y59.964 E0.02365
G1 X116.904 Y84.351 E0.76462
G1 X116.150 Y84.351 E0.02365
G1 X116.150 Y59.964 E0.76462
G1 X115.396 Y59.964 E0.02365
M73 Q0 S139
G1 X115.396 Y84.351 E0.76462
M73 P0 R136
G1 X114.641 Y84.351 E0.02365
G1 X114.641 Y59.964 E0.76462
G1 X113.887 Y59.964 E0.02365
G1 X113.887 Y84.351 E0.76462
G1 X113.133 Y84.351 E0.02365
G1 X113.133 Y59.964 E0.76462
G1 X112.729 Y59.964 E0.01268
G1 X112.729 Y57.657 E0.07234
G1 X112.379 Y57.657 E0.01096
G1 X112.379 Y84.351 E0.83696
G1 X111.625 Y84.351 E0.02365
G1 X111.625 Y57.657 E0.83696
G1 X110.871 Y57.657 E0.02365
G1 X110.871 Y84.351 E0.83696
G1 X110.116 Y84.351 E0.02365
G1 X110.116 Y57.657 E0.83696
G1 X109.362 Y57.657 E0.02365
G1 X109.362 Y84.351 E0.83696
G1 X108.608 Y84.351 E0.02365
G1 X108.608 Y57.657 E0.83696
G1 X107.854 Y57.657 E0.02365
G1 X107.854 Y84.351 E0.83696
G1 X107.100 Y84.351 E0.02365
G1 X107.100 Y57.657 E0.83696
G1 X106.346 Y57.657 E0.02365
G1 X106.346 Y82.043 E0.76462
G1 X105.591 Y82.043 E0.02365
G1 X105.592 Y57.657 E0.76462
G1 X104.837 Y57.657 E0.02365
G1 X104.837 Y82.043 E0.76462
G1 X104.083 Y82.043 E0.02365
G1 X104.083 Y57.657 E0.76462
G1 X103.329 Y57.657 E0.02365
G1 X103.329 Y82.043 E0.76462
G1 X102.575 Y82.043 E0.02365
G1 X102.575 Y57.657 E0.76462
G1 X102.185 Y57.657 E0.01224
G1 X102.185 Y59.964 E0.07234
G1 X101.821 Y59.964 E0.01141
G1 X101.821 Y79.736 E0.61995
G1 X101.067 Y79.736 E0.02365
G1 X101.067 Y59.964 E0.61995
G1 X100.312 Y59.964 E0.02365
G1 X100.312 Y79.906 E0.62527
G1 F8640
G1 X100.312 Y76.615 E-0.76000
G1 E-0.04000 F2100.00000
G1 Z0.800 F10800.000
G1 X138.413 Y46.059
G1 Z0.200
G1 E0.80000 F2100.00000
G1 F1200
G1 X160.413 Y46.059 E0.68979
G1 X160.413 Y51.885 E0.18267
G1 X119.837 Y51.885 E1.27224
G1 X118.050 Y51.382 E0.05819
G1 X115.396 Y50.986 E0.08416
G1 X112.709 Y50.979 E0.08423
G1 X110.046 Y51.360 E0.08435
G1 X107.476 Y52.120 E0.08404
G1 X105.041 Y53.243 E0.08405
G1 X102.779 Y54.716 E0.08466
G1 X100.756 Y56.500 E0.08458
G1 X99.017 Y58.555 E0.08440
G1 X97.594 Y60.840 E0.08440
G1 X96.517 Y63.307 E0.08440
G1 X95.808 Y65.903 E0.08440
G1 X95.483 Y68.575 E0.08440
G1 X95.548 Y71.266 E0.08440
G1 X96.003 Y73.919 E0.08440
G1 X96.836 Y76.479 E0.08440
G1 X98.032 Y78.890 E0.08440
G1 X99.564 Y81.103 E0.08440
G1 X101.400 Y83.071 E0.08440
G1 X103.502 Y84.752 E0.08440
G1 X105.826 Y86.112 E0.08440
G1 X108.331 Y87.122 E0.08471
G1 X110.937 Y87.756 E0.08407
G1 X113.617 Y88.007 E0.08440
G1 X116.305 Y87.867 E0.08440
G1 X118.944 Y87.340 E0.08440
G1 X121.479 Y86.435 E0.08440
G1 X123.857 Y85.173 E0.08440
G1 X126.027 Y83.580 E0.08440
G1 X127.943 Y81.690 E0.08440
G1 X129.570 Y79.533 E0.08471
G1 X130.859 Y77.182 E0.08407
G1 X131.798 Y74.660 E0.08440
G1 X132.362 Y72.027 E0.08440
G1 X132.538 Y69.352 E0.08408
G1 X132.507 Y68.680 E0.02108
G1 X138.413 Y69.647 E0.18764
G1 X138.413 Y93.885 E0.75998
G1 X96.413 Y93.885 E1.31688
G1 X96.413 Y115.885 E0.68979
G1 X90.587 Y115.885 E0.18267
G1 X90.587 Y93.885 E0.68979
G1 X89.587 Y93.885 E0.03135
G1 X89.587 Y45.059 E1.53090
G1 X138.413 Y45.059 E1.53090
G1 X138.413 Y45.999 E0.02947
G1 X138.790 Y45.682 F10800.000
G1 F1200
G1 X160.790 Y45.682 E0.68979
G1 X160.790 Y52.262 E0.20631
G1 X119.785 Y52.262 E1.28570
G1 X117.971 Y51.752 E0.05907
G1 X115.367 Y51.363 E0.08255
G1 X112.735 Y51.356 E0.08252
G1 X110.127 Y51.730 E0.08263
G1 X107.609 Y52.474 E0.08232
G1 X105.224 Y53.574 E0.08234
G1 X103.007 Y55.017 E0.08293
G1 X101.026 Y56.765 E0.08285
G1 X99.322 Y58.778 E0.08268
G1 X97.928 Y61.016 E0.08267
G1 X96.873 Y63.432 E0.08267
G1 X96.179 Y65.976 E0.08267
G1 X95.861 Y68.594 E0.08267
G1 X95.925 Y71.230 E0.08267
G1 X96.370 Y73.829 E0.08267
G1 X97.186 Y76.336 E0.08267
G1 X98.357 Y78.698 E0.08267
G1 X99.858 Y80.866 E0.08267
G1 X101.657 Y82.794 E0.08267
G1 X103.716 Y84.441 E0.08267
G1 X105.992 Y85.772 E0.08268
G1 X108.447 Y86.762 E0.08299
G1 X110.999 Y87.383 E0.08235
G1 X113.625 Y87.629 E0.08267
G1 X116.258 Y87.492 E0.08267
G1 X118.843 Y86.975 E0.08267
G1 X121.327 Y86.089 E0.08267
G1 X123.656 Y84.853 E0.08267
G1 X125.781 Y83.293 E0.08267
G1 X127.659 Y81.441 E0.08268
G1 X129.253 Y79.328 E0.08299
G1 X130.516 Y77.025 E0.08235
G1 X131.435 Y74.554 E0.08267
G1 X131.987 Y71.975 E0.08267
G1 X132.160 Y69.348 E0.08256
G1 X132.109 Y68.233 E0.03500
G1 X138.790 Y69.327 E0.21225
G1 X138.790 Y94.262 E0.78185
G1 X96.790 Y94.262 E1.31688
G1 X96.790 Y116.262 E0.68979
M73 Q1 S138
G1 X90.210 Y116.262 E0.20631
G1 X90.210 Y94.262 E0.68979
M73 P1 R135
G1 X89.210 Y94.262 E0.03135
G1 X89.210 Y44.682 E1.55455
G1 X138.790 Y44.682 E1.55455
G1 X138.790 Y45.622 E0.02947
G1 X138.988 Y46.030 F10800.000
G1 X138.300 Y45.746
G1 F1200
G1 X137.896 Y45.342 E0.01794
G1 X137.362 Y45.342 E0.01674
G1 X143.622 Y51.603 E0.27777
G1 X144.156 Y51.603 E0.01674
G1 X138.896 Y46.342 E0.23340
G1 X139.429 Y46.342 E0.01674
G1 X144.689 Y51.603 E0.23340
G1 X145.223 Y51.603 E0.01674
G1 X139.963 Y46.342 E0.23340
G1 X140.496 Y46.342 E0.01674
G1 X145.757 Y51.603 E0.23340
G1 X146.290 Y51.603 E0.01674
G1 X141.030 Y46.342 E0.23340
G1 X141.564 Y46.342 E0.01674
G1 X146.824 Y51.603 E0.23340
G1 X147.358 Y51.603 E0.01674
G1 X142.097 Y46.342 E0.23340
G1 X142.631 Y46.342 E0.01674
G1 X147.891 Y51.603 E0.23340
G1 X148.425 Y51.603 E0.01674
G1 X143.165 Y46.342 E0.23340
G1 X143.698 Y46.342 E0.01674
G1 X148.958 Y51.603 E0.23340
G1 X149.492 Y51.603 E0.01674
G1 X144.232 Y46.342 E0.23340
G1 X144.765 Y46.342 E0.01674
G1 X150.026 Y51.603 E0.23340
G1 X150.559 Y51.603 E0.01674
G1 X145.299 Y46.342 E0.23340
G1 X145.833 Y46.342 E0.01674
G1 X151.093 Y51.603 E0.23340
G1 X151.627 Y51.603 E0.01674
G1 X146.366 Y46.342 E0.23340
G1 X146.900 Y46.342 E0.01674
G1 X152.160 Y51.603 E0.23340
G1 X152.694 Y51.603 E0.01674
G1 X147.433 Y46.342 E0.23340
G1 X147.967 Y46.342 E0.01674
G1 X153.227 Y51.603 E0.23340
G1 X153.761 Y51.603 E0.01674
G1 X148.501 Y46.342 E0.23340
G1 X149.034 Y46.342 E0.01674
G1 X154.295 Y51.603 E0.23340
G1 X154.828 Y51.603 E0.01674
G1 X149.568 Y46.342 E0.23340
G1 X150.102 Y46.342 E0.01674
G1 X155.362 Y51.603 E0.23340
G1 X155.895 Y51.603 E0.01674
G1 X150.635 Y46.342 E0.23340
G1 X151.169 Y46.342 E0.01674
G1 X156.429 Y51.603 E0.23340
G1 X156.963 Y51.603 E0.01674
G1 X151.702 Y46.342 E0.23340
G1 X152.236 Y46.342 E0.01674
G1 X157.496 Y51.603 E0.23340
G1 X158.030 Y51.603 E0.01674
G1 X152.770 Y46.342 E0.23340
G1 X153.303 Y46.342 E0.01674
G1 X158.564 Y51.603 E0.23340
G1 X159.097 Y51.603 E0.01674
G1 X153.837 Y46.342 E0.23340
G1 X154.371 Y46.342 E0.01674
G1 X159.631 Y51.603 E0.23340
G1 X160.130 Y51.603 E0.01567
G1 X160.130 Y51.568 E0.00108
G1 X154.904 Y46.342 E0.23188
G1 X155.438 Y46.342 E0.01674
G1 X160.130 Y51.035 E0.20820
G1 X160.130 Y50.501 E0.01674
G1 X155.971 Y46.342 E0.18453
G1 X156.505 Y46.342 E0.01674
G1 X160.130 Y49.967 E0.16085
G1 X160.130 Y49.434 E0.01674
G1 X157.039 Y46.342 E0.13717
G1 X157.572 Y46.342 E0.01674
G1 X160.130 Y48.900 E0.11350
G1 X160.130 Y48.367 E0.01674
G1 X158.106 Y46.342 E0.08982
G1 X158.639 Y46.342 E0.01674
G1 X160.130 Y47.833 E0.06614
G1 X160.130 Y47.299 E0.01674
G1 X159.173 Y46.342 E0.04246
G1 X159.707 Y46.342 E0.01674
G1 X160.300 Y46.935 E0.02632
G1 F8640
G1 X159.707 Y46.342 E-0.19368
G1 X159.173 Y46.342 E-0.12321
G1 X160.130 Y47.299 E-0.31252
G1 X160.130 Y47.833 E-0.12321
G1 X160.108 Y47.810 E-0.00738
G1 E-0.04000 F2100.00000
G1 Z0.800 F10800.000
G1 X143.258 Y51.772
G1 Z0.200
G1 E0.80000 F2100.00000
G1 F1200
G1 X136.828 Y45.342 E0.28530
G1 X136.295 Y45.342 E0.01674
G1 X142.555 Y51.603 E0.27777
G1 X142.021 Y51.603 E0.01674
G1 X135.761 Y45.342 E0.27777
G1 X135.228 Y45.342 E0.01674
G1 X141.488 Y51.603 E0.27777
G1 X140.954 Y51.603 E0.01674
G1 X134.694 Y45.342 E0.27777
G1 X134.160 Y45.342 E0.01674
G1 X140.421 Y51.603 E0.27777
G1 X139.887 Y51.603 E0.01674
G1 X133.627 Y45.342 E0.27777
G1 X133.093 Y45.342 E0.01674
G1 X139.353 Y51.603 E0.27777
G1 X138.820 Y51.603 E0.01674
G1 X132.559 Y45.342 E0.27777
G1 X132.026 Y45.342 E0.01674
G1 X138.286 Y51.603 E0.27777
G1 X137.752 Y51.603 E0.01674
G1 X131.492 Y45.342 E0.27777
G1 X130.959 Y45.342 E0.01674
G1 X137.219 Y51.603 E0.27777
G1 X136.685 Y51.603 E0.01674
G1 X130.425 Y45.342 E0.27777
G1 X129.891 Y45.342 E0.01674
G1 X136.152 Y51.603 E0.27777
G1 X135.618 Y51.603 E0.01674
G1 X129.358 Y45.342 E0.27777
G1 X128.824 Y45.342 E0.01674
G1 X135.084 Y51.603 E0.27777
G1 X134.551 Y51.603 E0.01674
G1 X128.290 Y45.342 E0.27777
G1 X127.757 Y45.342 E0.01674
G1 X134.017 Y51.603 E0.27777
G1 X133.484 Y51.603 E0.01674
G1 X127.223 Y45.342 E0.27777
G1 X126.690 Y45.342 E0.01674
G1 X132.950 Y51.603 E0.27777
G1 X132.416 Y51.603 E0.01674
G1 X126.156 Y45.342 E0.27777
G1 X125.622 Y45.342 E0.01674
G1 X131.883 Y51.603 E0.27777
G1 X131.349 Y51.603 E0.01674
G1 X125.089 Y45.342 E0.27777
G1 X124.555 Y45.342 E0.01674
G1 X130.815 Y51.603 E0.27777
G1 X130.282 Y51.603 E0.01674
G1 X124.022 Y45.342 E0.27777
G1 X123.488 Y45.342 E0.01674
G1 X129.748 Y51.603 E0.27777
G1 X129.215 Y51.603 E0.01674
G1 X122.954 Y45.342 E0.27777
G1 X122.421 Y45.342 E0.01674
G1 X128.681 Y51.603 E0.27777
G1 X128.147 Y51.603 E0.01674
G1 X121.887 Y45.342 E0.27777
G1 X121.353 Y45.342 E0.01674
G1 X127.614 Y51.603 E0.27777
G1 X127.080 Y51.603 E0.01674
G1 X120.820 Y45.342 E0.27777
G1 X120.286 Y45.342 E0.01674
G1 X126.546 Y51.603 E0.27777
G1 X126.013 Y51.603 E0.01674
G1 X119.753 Y45.342 E0.27777
G1 X119.219 Y45.342 E0.01674
G1 X125.479 Y51.603 E0.27777
G1 X124.946 Y51.603 E0.01674
G1 X118.685 Y45.342 E0.27777
G1 X118.152 Y45.342 E0.01674
G1 X124.412 Y51.603 E0.27777
G1 X123.878 Y51.603 E0.01674
G1 X117.618 Y45.342 E0.27777
G1 X117.084 Y45.342 E0.01674
G1 X123.345 Y51.603 E0.27777
G1 X122.811 Y51.603 E0.01674
G1 X116.551 Y45.342 E0.27777
G1 X116.017 Y45.342 E0.01674
G1 X122.278 Y51.603 E0.27777
G1 X121.744 Y51.603 E0.01674
G1 X115.484 Y45.342 E0.27777
G1 X114.950 Y45.342 E0.01674
G1 X121.210 Y51.603 E0.27777
G1 X120.677 Y51.603 E0.01674
G1 X114.416 Y45.342 E0.27777
G1 X113.883 Y45.342 E0.01674
G1 X120.143 Y51.603 E0.27777
G1 X119.876 Y51.603 E0.00839
G1 X119.505 Y51.498 E0.01209
G1 X113.349 Y45.342 E0.27314
G1 X112.816 Y45.342 E0.01674
G1 X118.762 Y51.289 E0.26385
G1 X118.033 Y51.094 E0.02367
G1 X112.282 Y45.342 E0.25519
G1 X111.748 Y45.342 E0.01674
G1 X117.406 Y51.000 E0.25105
G1 X116.779 Y50.907 E0.01989
G1 X111.215 Y45.342 E0.24690
G1 X110.681 Y45.342 E0.01674
G1 X116.152 Y50.813 E0.24275
G1 X115.525 Y50.720 E0.01989
G1 X110.147 Y45.342 E0.23861
G1 X109.614 Y45.342 E0.01674
G1 X114.974 Y50.702 E0.23784
G1 X114.439 Y50.701 E0.01679
G1 X109.080 Y45.342 E0.23777
G1 X108.547 Y45.342 E0.01674
G1 X113.904 Y50.699 E0.23770
G1 X113.369 Y50.698 E0.01679
G1 X108.013 Y45.342 E0.23763
G1 X107.479 Y45.342 E0.01674
G1 X112.833 Y50.696 E0.23757
G1 X112.689 Y50.696 E0.00452
G1 X112.348 Y50.745 E0.01081
G1 X106.946 Y45.342 E0.23972
G1 X106.412 Y45.342 E0.01674
G1 X111.882 Y50.812 E0.24268
G1 X111.415 Y50.879 E0.01479
G1 X105.879 Y45.342 E0.24565
G1 X105.345 Y45.342 E0.01674
G1 X110.948 Y50.945 E0.24862
G1 X110.481 Y51.012 E0.01479
G1 X104.811 Y45.342 E0.25159
G1 X104.278 Y45.342 E0.01674
G1 X110.015 Y51.079 E0.25455
G1 X109.599 Y51.198 E0.01355
G1 X103.744 Y45.342 E0.25980
G1 X103.210 Y45.342 E0.01674
G1 X109.187 Y51.319 E0.26520
G1 X108.775 Y51.441 E0.01348
G1 X102.677 Y45.342 E0.27060
G1 X102.143 Y45.342 E0.01674
G1 X108.364 Y51.563 E0.27600
G1 X107.952 Y51.684 E0.01348
G1 X101.610 Y45.342 E0.28140
G1 X101.076 Y45.342 E0.01674
