; generated by Slic3r Prusa Edition 1.41.0+win64 on 2019-02-01 at 20:40:00

; 

; external perimeters extrusion width = 0.45mm
; perimeters extrusion width = 0.45mm
; infill extrusion width = 0.45mm
; solid infill extrusion width = 0.45mm
; top infill extrusion width = 0.40mm
; support material extrusion width = 0.35mm
; first layer extrusion width = 0.42mm

M201 X1000 Y1000 Z1000 E5000 ; sets maximum accelerations, mm/sec^2
M203 X200 Y200 Z12 E120 ; sets maximum feedrates, mm/sec
M204 P1250 R1250 T1250 ; sets acceleration (P, T) and retract acceleration (R), mm/sec^2
M205 X8.00 Y8.00 Z0.40 E1.50 ; sets the jerk limits, mm/sec
M205 S0 T0 ; sets the minimum extruding and travel feed rate, mm/sec
M107
M115 U3.4.1 ; tell printer latest fw version
M83  ; extruder relative mode
M104 S215 ; set extruder temp
M140 S65 ; set bed temp
M190 S65 ; wait for bed temp
M109 S215 ; wait for extruder temp
G28 W ; home all without mesh bed level
G80 ; mesh bed leveling
G1 Y-3.0 F1000.0 ; go outside print area
G92 E0.0
G1 X60.0 E9.0  F1000.0 ; intro line
M73 Q0 S160
M73 P0 R156
G1 X100.0 E12.5  F1000.0 ; intro line
G92 E0.0
M221 S95
M900 K30; Filament gcode
G21 ; set units to millimeters
G90 ; use absolute coordinates
M83 ; use relative distances for extrusion
;BEFORE_LAYER_CHANGE
G92 E0.0
;0.2


G1 E-0.80000 F2100.00000
G1 Z0.600 F10800.000
;AFTER_LAYER_CHANGE
;0.2
G1 X62.961 Y82.022
G1 Z0.200
G1 E0.80000 F2100.00000
M204 S1000
G1 F1200
G1 X114.697 Y35.743 E2.17644
G1 X115.365 Y35.326 E0.02470
G1 X116.009 Y35.055 E0.02190
G1 X117.300 Y34.816 E0.04117
G1 X134.999 Y34.812 E0.55494
G1 X135.467 Y34.863 E0.01475
G1 X135.910 Y35.011 E0.01464
G1 X136.311 Y35.249 E0.01464
G1 X136.656 Y35.570 E0.01475
G1 X208.876 Y120.221 E3.48887
G1 X209.267 Y120.852 E0.02327
G1 X209.552 Y121.530 E0.02308
G1 X209.726 Y122.241 E0.02293
G1 X209.787 Y122.933 E0.02180
G1 X209.787 Y133.091 E0.31849
G1 X209.601 Y134.301 E0.03838
G1 X209.282 Y135.118 E0.02750
G1 X208.899 Y135.747 E0.02310
G1 X208.436 Y136.294 E0.02248
G1 X207.882 Y136.774 E0.02296
G1 X207.334 Y137.120 E0.02033
G1 X141.566 Y174.630 E2.37394
G1 X140.705 Y174.986 E0.02922
G1 X140.073 Y175.132 E0.02033
G1 X139.357 Y175.189 E0.02252
G1 X66.093 Y175.189 E2.29715
G1 X64.824 Y175.008 E0.04018
G1 X63.975 Y174.679 E0.02855
G1 X63.237 Y174.210 E0.02740
G1 X62.416 Y173.394 E0.03631
G1 X41.304 Y148.509 E1.02322
G1 X40.841 Y147.846 E0.02535
G1 X40.488 Y147.085 E0.02631
G1 X40.285 Y146.323 E0.02470
G1 X40.212 Y145.525 E0.02515
G1 X40.212 Y110.482 E1.09874
G1 X40.318 Y109.522 E0.03026
G1 X40.495 Y108.895 E0.02043
G1 X40.783 Y108.259 E0.02189
G1 X41.312 Y107.481 E0.02950
G1 X62.922 Y82.068 E1.04596
; PURGING FINISHED
G1 F8640
G1 X65.375 Y79.873 E-0.76000
G1 E-0.04000 F2100.00000
G1 Z0.800 F10800.000
G1 X132.750 Y163.593
G1 Z0.200
G1 E0.80000 F2100.00000
G1 F1200
G1 X133.105 Y163.344 E0.01361
G1 X133.499 Y163.161 E0.01360
G1 X133.918 Y163.048 E0.01361
G1 X134.312 Y163.014 E0.01242
G1 X134.778 Y163.047 E0.01463
G1 X135.201 Y163.161 E0.01375
G1 X135.595 Y163.344 E0.01361
G1 X135.950 Y163.593 E0.01361
G1 X136.257 Y163.900 E0.01361
G1 X136.484 Y164.224 E0.01242
G1 X136.688 Y164.644 E0.01463
G1 X136.801 Y165.068 E0.01375
G1 X136.839 Y165.500 E0.01361
G1 X136.801 Y165.932 E0.01361
G1 X136.689 Y166.351 E0.01361
G1 X136.506 Y166.745 E0.01361
G1 X136.257 Y167.100 E0.01361
G1 X135.950 Y167.407 E0.01361
G1 X135.595 Y167.656 E0.01361
G1 X135.201 Y167.839 E0.01361
G1 X134.782 Y167.952 E0.01361
G1 X134.350 Y167.989 E0.01360
G1 X133.918 Y167.952 E0.01361
G1 X133.499 Y167.839 E0.01361
G1 X133.140 Y167.672 E0.01242
G1 X132.753 Y167.410 E0.01463
G1 X132.443 Y167.100 E0.01375
G1 X132.194 Y166.745 E0.01361
G1 X132.011 Y166.351 E0.01360
G1 X131.898 Y165.932 E0.01361
G1 X131.861 Y165.500 E0.01361
G1 X131.898 Y165.068 E0.01361
G1 X132.011 Y164.649 E0.01360
G1 X132.194 Y164.255 E0.01360
G1 X132.443 Y163.900 E0.01361
G1 X132.707 Y163.635 E0.01172
G1 X132.974 Y163.902 F10800.000
G1 F1200
G1 X133.295 Y163.672 E0.01237
G1 X133.628 Y163.516 E0.01154
G1 X133.983 Y163.421 E0.01154
G1 X134.315 Y163.392 E0.01045
G1 X134.715 Y163.421 E0.01256
G1 X135.072 Y163.516 E0.01159
G1 X135.405 Y163.672 E0.01154
G1 X135.707 Y163.883 E0.01154
G1 X135.967 Y164.143 E0.01154
G1 X136.158 Y164.416 E0.01045
G1 X136.333 Y164.776 E0.01256
G1 X136.429 Y165.133 E0.01159
G1 X136.461 Y165.500 E0.01154
G1 X136.429 Y165.867 E0.01154
G1 X136.334 Y166.222 E0.01154
G1 X136.178 Y166.555 E0.01154
G1 X135.967 Y166.857 E0.01154
G1 X135.707 Y167.117 E0.01154
G1 X135.405 Y167.328 E0.01154
G1 X135.072 Y167.484 E0.01154
G1 X134.717 Y167.579 E0.01154
G1 X134.350 Y167.611 E0.01154
G1 X133.983 Y167.579 E0.01154
G1 X133.628 Y167.484 E0.01154
G1 X133.326 Y167.343 E0.01045
G1 X132.994 Y167.118 E0.01256
G1 X132.733 Y166.857 E0.01159
G1 X132.522 Y166.555 E0.01154
G1 X132.367 Y166.222 E0.01154
G1 X132.271 Y165.867 E0.01154
G1 X132.239 Y165.500 E0.01154
G1 X132.271 Y165.133 E0.01154
G1 X132.367 Y164.778 E0.01154
G1 X132.522 Y164.445 E0.01154
G1 X132.733 Y164.143 E0.01154
G1 X132.932 Y163.945 E0.00881
G1 X132.902 Y163.514 F10800.000
G1 F8640
G1 X133.295 Y163.672 E-0.10480
G1 X133.628 Y163.516 E-0.08496
G1 X133.983 Y163.421 E-0.08496
G1 X134.315 Y163.392 E-0.07693
G1 X134.715 Y163.421 E-0.09250
G1 X135.072 Y163.516 E-0.08535
G1 X135.405 Y163.672 E-0.08496
G1 X135.707 Y163.883 E-0.08496
G1 X135.892 Y164.069 E-0.06060
G1 E-0.04000 F2100.00000
G1 Z0.800 F10800.000
G1 X73.589 Y165.500
G1 Z0.200
G1 E0.80000 F2100.00000
G1 F1200
G1 X73.552 Y165.932 E0.01361
G1 X73.439 Y166.351 E0.01361
G1 X73.256 Y166.745 E0.01361
G1 X73.007 Y167.100 E0.01361
G1 X72.700 Y167.407 E0.01360
G1 X72.345 Y167.656 E0.01361
G1 X71.951 Y167.839 E0.01361
G1 X71.532 Y167.952 E0.01361
G1 X71.100 Y167.989 E0.01360
G1 X70.668 Y167.952 E0.01360
G1 X70.249 Y167.839 E0.01361
G1 X69.890 Y167.672 E0.01242
G1 X69.503 Y167.410 E0.01463
G1 X69.193 Y167.100 E0.01375
G1 X68.944 Y166.745 E0.01361
G1 X68.761 Y166.351 E0.01361
G1 X68.649 Y165.932 E0.01361
G1 X68.611 Y165.500 E0.01360
G1 X68.649 Y165.068 E0.01361
G1 X68.761 Y164.649 E0.01361
G1 X68.944 Y164.255 E0.01361
G1 X69.193 Y163.900 E0.01361
G1 X69.500 Y163.593 E0.01361
G1 X69.855 Y163.344 E0.01361
G1 X70.249 Y163.161 E0.01361
G1 X70.668 Y163.048 E0.01361
G1 X71.062 Y163.014 E0.01242
G1 X71.528 Y163.047 E0.01463
G1 X71.951 Y163.161 E0.01375
G1 X72.345 Y163.344 E0.01361
G1 X72.700 Y163.593 E0.01361
G1 X73.007 Y163.900 E0.01361
G1 X73.256 Y164.255 E0.01361
G1 X73.439 Y164.649 E0.01361
G1 X73.552 Y165.068 E0.01361
G1 X73.584 Y165.440 E0.01172
G1 X73.208 Y165.473 F10800.000
G1 F1200
G1 X73.179 Y165.867 E0.01237
G1 X73.084 Y166.222 E0.01154
G1 X72.928 Y166.555 E0.01154
G1 X72.717 Y166.857 E0.01154
G1 X72.457 Y167.117 E0.01154
G1 X72.155 Y167.328 E0.01154
G1 X71.822 Y167.484 E0.01154
G1 X71.467 Y167.579 E0.01154
G1 X71.100 Y167.611 E0.01154
G1 X70.733 Y167.579 E0.01154
G1 X70.378 Y167.484 E0.01154
G1 X70.076 Y167.343 E0.01045
G1 X69.744 Y167.118 E0.01256
G1 X69.483 Y166.857 E0.01159
G1 X69.272 Y166.555 E0.01154
G1 X69.116 Y166.222 E0.01154
G1 X69.021 Y165.867 E0.01154
G1 X68.989 Y165.500 E0.01154
G1 X69.021 Y165.133 E0.01154
G1 X69.117 Y164.778 E0.01154
G1 X69.272 Y164.445 E0.01154
G1 X69.483 Y164.143 E0.01154
G1 X69.743 Y163.883 E0.01154
G1 X70.045 Y163.672 E0.01154
G1 X70.378 Y163.516 E0.01154
G1 X70.733 Y163.421 E0.01154
G1 X71.065 Y163.392 E0.01045
G1 X71.465 Y163.421 E0.01256
G1 X71.822 Y163.516 E0.01159
G1 X72.155 Y163.672 E0.01154
G1 X72.457 Y163.883 E0.01154
G1 X72.717 Y164.143 E0.01154
G1 X72.928 Y164.445 E0.01154
G1 X73.084 Y164.778 E0.01154
G1 X73.179 Y165.133 E0.01154
G1 X73.203 Y165.413 E0.00881
G1 X73.552 Y165.667 F10800.000
G1 F8640
G1 X73.179 Y165.867 E-0.10480
G1 X73.084 Y166.222 E-0.08496
G1 X72.928 Y166.555 E-0.08496
G1 X72.717 Y166.857 E-0.08496
G1 X72.457 Y167.117 E-0.08496
G1 X72.155 Y167.328 E-0.08496
G1 X71.822 Y167.484 E-0.08496
G1 X71.467 Y167.579 E-0.08496
G1 X71.206 Y167.602 E-0.06049
G1 E-0.04000 F2100.00000
G1 Z0.800 F10800.000
G1 X54.000 Y143.907
G1 Z0.200
G1 E0.80000 F2100.00000
G1 F1200
G1 X53.645 Y144.156 E0.01361
G1 X53.251 Y144.339 E0.01361
G1 X52.832 Y144.451 E0.01360
G1 X52.400 Y144.489 E0.01361
G1 X51.968 Y144.452 E0.01360
G1 X51.556 Y144.341 E0.01337
G1 X51.156 Y144.156 E0.01381
G1 X50.800 Y143.907 E0.01364
G1 X50.493 Y143.600 E0.01361
G1 X50.244 Y143.245 E0.01361
G1 X50.061 Y142.851 E0.01361
G1 X49.949 Y142.432 E0.01360
G1 X49.911 Y142.000 E0.01361
G1 X49.949 Y141.568 E0.01361
G1 X50.061 Y141.149 E0.01361
G1 X50.244 Y140.755 E0.01361
G1 X50.493 Y140.400 E0.01361
G1 X50.800 Y140.093 E0.01361
G1 X51.155 Y139.844 E0.01360
G1 X51.549 Y139.661 E0.01361
G1 X51.968 Y139.548 E0.01361
G1 X52.392 Y139.511 E0.01337
G1 X52.831 Y139.548 E0.01381
G1 X53.251 Y139.661 E0.01364
G1 X53.645 Y139.844 E0.01361
G1 X54.000 Y140.093 E0.01361
G1 X54.307 Y140.400 E0.01361
G1 X54.556 Y140.755 E0.01361
G1 X54.739 Y141.149 E0.01361
G1 X54.852 Y141.568 E0.01361
G1 X54.889 Y142.000 E0.01361
G1 X54.852 Y142.432 E0.01361
G1 X54.739 Y142.851 E0.01360
G1 X54.556 Y143.245 E0.01360
G1 X54.307 Y143.600 E0.01361
G1 X54.043 Y143.865 E0.01172
G1 X53.776 Y143.598 F10800.000
G1 F1200
G1 X53.455 Y143.828 E0.01237
G1 X53.122 Y143.984 E0.01154
G1 X52.767 Y144.079 E0.01154
G1 X52.400 Y144.111 E0.01154
G1 X52.033 Y144.079 E0.01154
G1 X51.685 Y143.985 E0.01132
G1 X51.345 Y143.828 E0.01174
G1 X51.043 Y143.617 E0.01155
G1 X50.783 Y143.357 E0.01154
G1 X50.572 Y143.055 E0.01154
G1 X50.417 Y142.722 E0.01154
G1 X50.321 Y142.367 E0.01154
G1 X50.289 Y142.000 E0.01154
G1 X50.321 Y141.633 E0.01154
G1 X50.417 Y141.278 E0.01154
G1 X50.572 Y140.945 E0.01154
G1 X50.783 Y140.643 E0.01154
G1 X51.043 Y140.383 E0.01154
G1 X51.345 Y140.172 E0.01154
G1 X51.678 Y140.016 E0.01154
G1 X52.033 Y139.921 E0.01154
G1 X52.393 Y139.890 E0.01132
G1 X52.766 Y139.921 E0.01174
G1 X53.122 Y140.016 E0.01155
G1 X53.455 Y140.172 E0.01154
G1 X53.757 Y140.383 E0.01154
G1 X54.017 Y140.643 E0.01154
G1 X54.228 Y140.945 E0.01154
G1 X54.384 Y141.278 E0.01154
G1 X54.479 Y141.633 E0.01154
G1 X54.511 Y142.000 E0.01154
G1 X54.479 Y142.367 E0.01154
G1 X54.384 Y142.722 E0.01154
G1 X54.228 Y143.055 E0.01154
G1 X54.017 Y143.357 E0.01154
G1 X53.818 Y143.555 E0.00881
G1 X53.848 Y143.986 F10800.000
G1 F8640
G1 X53.455 Y143.828 E-0.10480
G1 X53.122 Y143.984 E-0.08496
G1 X52.767 Y144.079 E-0.08496
G1 X52.400 Y144.111 E-0.08496
G1 X52.033 Y144.079 E-0.08496
G1 X51.685 Y143.985 E-0.08335
G1 X51.345 Y143.828 E-0.08647
G1 X51.043 Y143.617 E-0.08504
G1 X50.858 Y143.432 E-0.06052
G1 E-0.04000 F2100.00000
G1 Z0.800 F10800.000
G1 X52.400 Y116.489
G1 Z0.200
G1 E0.80000 F2100.00000
G1 F1200
G1 X51.968 Y116.452 E0.01360
G1 X51.549 Y116.339 E0.01361
G1 X51.155 Y116.156 E0.01361
G1 X50.800 Y115.907 E0.01360
G1 X50.493 Y115.600 E0.01361
G1 X50.244 Y115.245 E0.01361
G1 X50.061 Y114.851 E0.01361
G1 X49.949 Y114.432 E0.01360
G1 X49.911 Y114.000 E0.01361
G1 X49.949 Y113.568 E0.01361
G1 X50.061 Y113.149 E0.01361
G1 X50.244 Y112.755 E0.01360
G1 X50.493 Y112.400 E0.01361
G1 X50.800 Y112.093 E0.01361
G1 X51.155 Y111.844 E0.01360
G1 X51.549 Y111.661 E0.01361
G1 X51.968 Y111.548 E0.01361
G1 X52.392 Y111.511 E0.01337
G1 X52.831 Y111.548 E0.01381
G1 X53.251 Y111.661 E0.01364
G1 X53.645 Y111.844 E0.01361
G1 X54.000 Y112.093 E0.01361
G1 X54.307 Y112.400 E0.01361
G1 X54.556 Y112.755 E0.01361
G1 X54.739 Y113.149 E0.01360
G1 X54.852 Y113.568 E0.01361
G1 X54.889 Y114.000 E0.01361
G1 X54.852 Y114.432 E0.01361
G1 X54.739 Y114.851 E0.01361
G1 X54.556 Y115.245 E0.01361
G1 X54.307 Y115.600 E0.01361
G1 X54.000 Y115.907 E0.01361
G1 X53.645 Y116.156 E0.01361
G1 X53.251 Y116.339 E0.01361
G1 X52.832 Y116.451 E0.01360
G1 X52.460 Y116.484 E0.01172
G1 X52.427 Y116.108 F10800.000
G1 F1200
G1 X52.033 Y116.079 E0.01237
G1 X51.678 Y115.984 E0.01154
G1 X51.345 Y115.828 E0.01154
G1 X51.043 Y115.617 E0.01154
G1 X50.783 Y115.357 E0.01154
G1 X50.572 Y115.055 E0.01154
G1 X50.417 Y114.722 E0.01154
G1 X50.321 Y114.367 E0.01154
G1 X50.289 Y114.000 E0.01154
G1 X50.321 Y113.633 E0.01154
G1 X50.417 Y113.278 E0.01154
G1 X50.572 Y112.945 E0.01154
G1 X50.783 Y112.643 E0.01154
G1 X51.043 Y112.383 E0.01154
G1 X51.345 Y112.172 E0.01154
G1 X51.678 Y112.016 E0.01154
G1 X52.033 Y111.921 E0.01154
G1 X52.393 Y111.890 E0.01132
G1 X52.766 Y111.921 E0.01174
G1 X53.122 Y112.016 E0.01155
G1 X53.455 Y112.172 E0.01154
G1 X53.757 Y112.383 E0.01154
G1 X54.017 Y112.643 E0.01154
G1 X54.228 Y112.945 E0.01154
G1 X54.384 Y113.278 E0.01154
G1 X54.479 Y113.633 E0.01154
G1 X54.511 Y114.000 E0.01154
G1 X54.479 Y114.367 E0.01154
G1 X54.384 Y114.722 E0.01154
G1 X54.228 Y115.055 E0.01154
G1 X54.017 Y115.357 E0.01154
G1 X53.757 Y115.617 E0.01154
G1 X53.455 Y115.828 E0.01154
G1 X53.122 Y115.983 E0.01154
G1 X52.767 Y116.079 E0.01154
G1 X52.487 Y116.103 E0.00881
G1 X52.233 Y116.452 F10800.000
G1 F8640
G1 X52.033 Y116.079 E-0.10480
G1 X51.678 Y115.984 E-0.08496
G1 X51.345 Y115.828 E-0.08496
G1 X51.043 Y115.617 E-0.08496
G1 X50.783 Y115.357 E-0.08496
G1 X50.572 Y115.055 E-0.08496
G1 X50.417 Y114.722 E-0.08496
G1 X50.321 Y114.367 E-0.08496
G1 X50.298 Y114.106 E-0.06050
G1 E-0.04000 F2100.00000
G1 Z0.800 F10800.000
G1 X69.500 Y92.407
G1 Z0.200
G1 E0.80000 F2100.00000
G1 F1200
G1 X69.193 Y92.100 E0.01361
G1 X68.944 Y91.745 E0.01361
G1 X68.761 Y91.351 E0.01361
G1 X68.649 Y90.932 E0.01360
G1 X68.611 Y90.500 E0.01361
G1 X68.649 Y90.068 E0.01361
G1 X68.761 Y89.649 E0.01360
G1 X68.944 Y89.255 E0.01361
G1 X69.193 Y88.900 E0.01361
G1 X69.500 Y88.593 E0.01361
G1 X69.855 Y88.344 E0.01360
G1 X70.249 Y88.161 E0.01361
G1 X70.668 Y88.049 E0.01361
G1 X71.062 Y88.014 E0.01242
G1 X71.528 Y88.047 E0.01463
G1 X71.951 Y88.161 E0.01375
G1 X72.345 Y88.344 E0.01361
G1 X72.700 Y88.593 E0.01360
G1 X73.007 Y88.900 E0.01361
G1 X73.256 Y89.255 E0.01361
G1 X73.439 Y89.649 E0.01361
G1 X73.552 Y90.068 E0.01360
G1 X73.589 Y90.500 E0.01361
G1 X73.552 Y90.932 E0.01361
G1 X73.439 Y91.351 E0.01360
G1 X73.256 Y91.745 E0.01361
G1 X73.007 Y92.100 E0.01361
G1 X72.700 Y92.407 E0.01361
G1 X72.345 Y92.656 E0.01361
G1 X71.951 Y92.839 E0.01361
G1 X71.532 Y92.951 E0.01360
G1 X71.100 Y92.989 E0.01361
G1 X70.668 Y92.951 E0.01361
G1 X70.249 Y92.839 E0.01360
G1 X69.855 Y92.656 E0.01361
G1 X69.549 Y92.441 E0.01172
G1 X69.765 Y92.132 F10800.000
G1 F1200
G1 X69.483 Y91.857 E0.01237
G1 X69.272 Y91.555 E0.01154
G1 X69.117 Y91.222 E0.01154
G1 X69.021 Y90.867 E0.01154
G1 X68.989 Y90.500 E0.01154
G1 X69.021 Y90.133 E0.01154
G1 X69.117 Y89.778 E0.01154
G1 X69.272 Y89.445 E0.01154
G1 X69.483 Y89.143 E0.01154
G1 X69.743 Y88.883 E0.01154
G1 X70.045 Y88.672 E0.01154
G1 X70.378 Y88.516 E0.01154
G1 X70.733 Y88.421 E0.01154
G1 X71.065 Y88.392 E0.01045
G1 X71.465 Y88.421 E0.01256
G1 X71.822 Y88.516 E0.01159
G1 X72.155 Y88.672 E0.01154
G1 X72.457 Y88.883 E0.01154
G1 X72.717 Y89.143 E0.01154
G1 X72.928 Y89.445 E0.01154
G1 X73.084 Y89.778 E0.01154
G1 X73.179 Y90.133 E0.01154
G1 X73.211 Y90.500 E0.01154
G1 X73.179 Y90.867 E0.01154
G1 X73.084 Y91.222 E0.01154
G1 X72.928 Y91.555 E0.01154
G1 X72.717 Y91.857 E0.01154
G1 X72.457 Y92.117 E0.01154
G1 X72.155 Y92.328 E0.01154
G1 X71.822 Y92.484 E0.01154
G1 X71.467 Y92.579 E0.01154
G1 X71.100 Y92.611 E0.01154
G1 X70.733 Y92.579 E0.01154
G1 X70.378 Y92.484 E0.01154
G1 X70.045 Y92.328 E0.01154
G1 X69.814 Y92.167 E0.00881
G1 X69.396 Y92.271 F10800.000
G1 F8640
G1 X69.483 Y91.857 E-0.10480
G1 X69.272 Y91.555 E-0.08496
G1 X69.117 Y91.222 E-0.08496
G1 X69.021 Y90.867 E-0.08496
G1 X68.989 Y90.500 E-0.08496
G1 X69.021 Y90.133 E-0.08496
G1 X69.117 Y89.778 E-0.08495
G1 X69.272 Y89.445 E-0.08496
G1 X69.422 Y89.230 E-0.06049
G1 E-0.04000 F2100.00000
G1 Z0.800 F10800.000
G1 X131.861 Y90.500
G1 Z0.200
G1 E0.80000 F2100.00000
G1 F1200
G1 X131.898 Y90.068 E0.01361
G1 X132.011 Y89.649 E0.01360
G1 X132.194 Y89.255 E0.01360
G1 X132.443 Y88.900 E0.01361
G1 X132.750 Y88.593 E0.01361
G1 X133.105 Y88.344 E0.01361
G1 X133.499 Y88.161 E0.01361
G1 X133.918 Y88.049 E0.01361
G1 X134.312 Y88.014 E0.01242
G1 X134.778 Y88.047 E0.01463
G1 X135.201 Y88.161 E0.01375
G1 X135.595 Y88.344 E0.01361
G1 X135.950 Y88.593 E0.01360
G1 X136.257 Y88.900 E0.01361
G1 X136.506 Y89.255 E0.01361
