; generated by Slic3r Prusa Edition 1.41.0+win64 on 2019-02-09 at 20:44:39

; 

; external perimeters extrusion width = 0.45mm
; perimeters extrusion width = 0.45mm
; infill extrusion width = 0.45mm
; solid infill extrusion width = 0.45mm
; top infill extrusion width = 0.40mm
; support material extrusion width = 0.35mm
; first layer extrusion width = 0.42mm

M201 X1000 Y1000 Z1000 E5000 ; sets maximum accelerations, mm/sec^2
M203 X200 Y200 Z12 E120 ; sets maximum feedrates, mm/sec
M204 P1250 R1250 T1250 ; sets acceleration (P, T) and retract acceleration (R), mm/sec^2
M205 X8.00 Y8.00 Z0.40 E1.50 ; sets the jerk limits, mm/sec
M205 S0 T0 ; sets the minimum extruding and travel feed rate, mm/sec
M107
M115 U3.4.1 ; tell printer latest fw version
M83  ; extruder relative mode
M104 S215 ; set extruder temp
M140 S60 ; set bed temp
M190 S60 ; wait for bed temp
M109 S215 ; wait for extruder temp
G28 W ; home all without mesh bed level
G80 ; mesh bed leveling
G1 Y-3.0 F1000.0 ; go outside print area
G92 E0.0
G1 X60.0 E9.0  F1000.0 ; intro line
M73 Q0 S27
M73 P0 R27
G1 X100.0 E12.5  F1000.0 ; intro line
G92 E0.0
M221 S95
M900 K30; Filament gcode
G21 ; set units to millimeters
G90 ; use absolute coordinates
M83 ; use relative distances for extrusion
;BEFORE_LAYER_CHANGE
G92 E0.0
;0.2


G1 E-0.80000 F2100.00000
G1 Z0.600 F10800.000
;AFTER_LAYER_CHANGE
;0.2
G1 X110.571 Y89.551
G1 Z0.200
G1 E0.80000 F2100.00000
M204 S1000
G1 F1200
G1 X111.914 Y88.151 E0.06080
G1 X119.451 Y81.820 E0.30863
G1 X120.023 Y81.463 E0.02116
G1 X120.506 Y81.300 E0.01598
G1 X121.016 Y81.235 E0.01610
G1 X128.921 Y81.234 E0.24787
G1 X129.775 Y81.382 E0.02717
G1 X130.534 Y81.808 E0.02729
G1 X138.124 Y88.185 E0.31083
G1 X139.236 Y89.299 E0.04934
G1 X139.640 Y89.930 E0.02349
G1 X139.812 Y90.459 E0.01746
G1 X140.904 Y95.988 E0.17669
G1 X140.905 Y105.585 E0.30092
G1 X140.780 Y106.280 E0.02214
G1 X140.470 Y106.915 E0.02214
G1 X140.067 Y107.381 E0.01931
G1 X139.565 Y107.737 E0.01931
G1 X138.997 Y107.963 E0.01919
G1 X138.387 Y108.048 E0.01931
G1 X120.186 Y108.047 E0.57066
G1 X112.528 Y107.873 E0.24019
G1 X111.870 Y107.740 E0.02103
G1 X111.266 Y107.440 E0.02116
G1 X110.811 Y107.049 E0.01882
G1 X110.459 Y106.562 E0.01882
G1 X110.230 Y106.008 E0.01882
G1 X110.136 Y105.411 E0.01894
G1 X110.135 Y90.912 E0.45462
G1 X110.257 Y90.200 E0.02263
G1 X110.545 Y89.605 E0.02075
G1 X110.883 Y89.770 F10800.000
G1 F1200
G1 X112.161 Y88.436 E0.05794
G1 X119.689 Y82.113 E0.30825
G1 X120.181 Y81.806 E0.01817
G1 X121.034 Y81.612 E0.02743
G1 X128.921 Y81.611 E0.24729
G1 X129.652 Y81.738 E0.02326
G1 X130.301 Y82.105 E0.02338
G1 X137.869 Y88.462 E0.30990
G1 X138.945 Y89.539 E0.04773
G1 X139.297 Y90.088 E0.02044
G1 X139.442 Y90.535 E0.01475
G1 X140.527 Y96.001 E0.17470
G1 X140.529 Y105.559 E0.29970
G1 X140.421 Y106.165 E0.01930
G1 X140.148 Y106.717 E0.01930
G1 X139.805 Y107.110 E0.01635
G1 X139.378 Y107.410 E0.01635
G1 X138.893 Y107.600 E0.01635
G1 X138.373 Y107.671 E0.01646
G1 X120.198 Y107.671 E0.56987
G1 X112.563 Y107.497 E0.23944
G1 X111.988 Y107.382 E0.01839
G1 X111.464 Y107.119 E0.01839
G1 X111.079 Y106.783 E0.01601
G1 X110.782 Y106.368 E0.01601
G1 X110.590 Y105.895 E0.01601
G1 X110.513 Y105.386 E0.01612
G1 X110.512 Y90.932 E0.45322
G1 X110.616 Y90.314 E0.01964
G1 X110.856 Y89.824 E0.01712
; PURGING FINISHED
G1 F8640
G1 X112.161 Y88.436 E-0.43988
G1 X113.223 Y87.544 E-0.32012
G1 E-0.04000 F2100.00000
G1 Z0.800 F10800.000
G1 X112.700 Y98.162
G1 Z0.200
G1 E0.80000 F2100.00000
G1 F1200
G1 X112.700 Y105.313 E0.22421
G1 X113.454 Y105.313 E0.02365
G1 X113.454 Y99.094 E0.19497
G1 X113.501 Y99.114 E0.00158
G1 X114.208 Y99.114 E0.02219
G1 X114.208 Y105.313 E0.19437
G1 X114.962 Y105.313 E0.02365
G1 X114.962 Y99.114 E0.19437
G1 X115.717 Y99.114 E0.02365
G1 X115.717 Y105.313 E0.19437
G1 X116.471 Y105.313 E0.02365
G1 X116.471 Y99.114 E0.19437
G1 X117.225 Y99.114 E0.02365
G1 X117.225 Y105.313 E0.19437
G1 X117.979 Y105.313 E0.02365
G1 X117.979 Y99.114 E0.19437
G1 X118.733 Y99.114 E0.02365
G1 X118.733 Y105.313 E0.19437
G1 X119.487 Y105.313 E0.02365
G1 X119.487 Y99.689 E0.17632
G1 X119.786 Y99.988 E0.01326
G1 X119.786 Y104.199 E0.13203
G1 X119.849 Y104.351 E0.00516
G1 X120.242 Y104.744 E0.01739
G1 X120.242 Y105.482 E0.02317
G1 F8640
G1 X120.242 Y104.744 E-0.17060
G1 X119.849 Y104.351 E-0.12806
G1 X119.786 Y104.199 E-0.03799
G1 X119.786 Y102.366 E-0.42335
G1 E-0.04000 F2100.00000
G1 Z0.800 F10800.000
G1 X125.521 Y101.337
G1 Z0.200
G1 E0.80000 F2100.00000
G1 F1200
G1 X125.521 Y99.250 E0.06542
G1 X125.371 Y99.181 E0.00518
G1 X125.188 Y99.132 E0.00593
G1 X125.000 Y99.115 E0.00593
G1 X124.767 Y99.144 E0.00737
G1 X124.767 Y101.256 E0.06624
G1 X124.629 Y101.219 E0.00447
G1 X124.458 Y101.140 E0.00593
G1 X124.303 Y101.031 E0.00593
G1 X124.169 Y100.897 E0.00593
G1 X124.012 Y100.639 E0.00946
G1 X124.012 Y99.430 E0.03791
G1 F8640
G1 X124.012 Y100.639 E-0.27915
G1 X124.169 Y100.897 E-0.06968
G1 X124.303 Y101.031 E-0.04367
G1 X124.458 Y101.140 E-0.04366
G1 X124.629 Y101.219 E-0.04366
G1 X124.767 Y101.256 E-0.03289
G1 X124.767 Y100.185 E-0.24728
G1 E-0.04000 F2100.00000
G1 Z0.800 F10800.000
G1 X129.291 Y104.971
G1 Z0.200
G1 E0.80000 F2100.00000
G1 F1200
G1 X129.291 Y105.313 E0.01073
G1 X130.046 Y105.313 E0.02365
G1 X130.046 Y104.456 E0.02685
G1 X130.151 Y104.351 E0.00465
G1 X130.214 Y104.199 E0.00516
G1 X130.214 Y99.988 E0.13203
G1 X130.800 Y99.402 E0.02600
G1 X130.800 Y105.313 E0.18532
G1 X131.554 Y105.313 E0.02365
G1 X131.554 Y99.114 E0.19437
G1 X132.308 Y99.114 E0.02365
G1 X132.308 Y105.313 E0.19437
G1 X133.062 Y105.313 E0.02365
G1 X133.062 Y99.114 E0.19437
G1 X133.816 Y99.114 E0.02365
G1 X133.816 Y105.313 E0.19437
G1 X134.571 Y105.313 E0.02365
G1 X134.571 Y99.114 E0.19437
G1 X135.325 Y99.114 E0.02365
G1 X135.325 Y105.313 E0.19437
G1 X136.079 Y105.313 E0.02365
G1 X136.079 Y99.114 E0.19437
G1 X136.499 Y99.114 E0.01318
G1 X136.651 Y99.051 E0.00516
G1 X136.833 Y98.869 E0.00806
G1 X136.833 Y105.313 E0.20204
G1 X137.587 Y105.313 E0.02365
G1 X137.587 Y98.115 E0.22569
G1 X137.651 Y98.051 E0.00281
G1 X137.714 Y97.899 E0.00516
G1 X137.714 Y96.114 E0.05599
G1 X138.341 Y96.114 E0.01969
G1 X138.341 Y105.482 E0.29375
G1 F8640
G1 X138.341 Y102.191 E-0.76000
G1 E-0.04000 F2100.00000
G1 Z0.800 F10800.000
G1 X127.319 Y101.044
G1 Z0.200
G1 E0.80000 F2100.00000
G1 F1200
G1 X127.137 Y101.434 E0.01349
G1 X126.890 Y101.786 E0.01349
G1 X126.586 Y102.090 E0.01349
G1 X126.234 Y102.337 E0.01349
G1 X125.844 Y102.519 E0.01349
G1 X125.429 Y102.630 E0.01349
G1 X125.000 Y102.668 E0.01349
G1 X124.571 Y102.630 E0.01349
G1 X124.156 Y102.519 E0.01349
G1 X123.766 Y102.337 E0.01349
G1 X123.414 Y102.090 E0.01349
G1 X123.110 Y101.786 E0.01349
G1 X122.863 Y101.434 E0.01349
G1 X122.681 Y101.044 E0.01349
G1 X122.570 Y100.629 E0.01349
G1 X122.532 Y100.200 E0.01349
G1 X122.570 Y99.771 E0.01349
G1 X122.681 Y99.356 E0.01349
G1 X122.863 Y98.966 E0.01349
G1 X123.110 Y98.614 E0.01349
G1 X123.414 Y98.310 E0.01349
G1 X123.766 Y98.063 E0.01349
G1 X124.156 Y97.881 E0.01349
G1 X124.571 Y97.770 E0.01349
G1 X124.966 Y97.735 E0.01243
G1 X125.421 Y97.768 E0.01430
G1 X125.844 Y97.881 E0.01373
G1 X126.234 Y98.063 E0.01349
G1 X126.586 Y98.310 E0.01349
G1 X126.890 Y98.614 E0.01349
G1 X127.137 Y98.966 E0.01349
G1 X127.319 Y99.356 E0.01349
G1 X127.430 Y99.771 E0.01349
G1 X127.468 Y100.200 E0.01349
G1 X127.430 Y100.629 E0.01349
G1 X127.335 Y100.986 E0.01161
G1 X126.970 Y100.888 F10800.000
G1 F1200
G1 X126.809 Y101.245 E0.01225
G1 X126.601 Y101.543 E0.01142
G1 X126.343 Y101.801 E0.01142
G1 X126.045 Y102.009 E0.01142
G1 X125.715 Y102.163 E0.01142
G1 X125.363 Y102.258 E0.01142
G1 X125.000 Y102.289 E0.01142
G1 X124.637 Y102.258 E0.01142
G1 X124.285 Y102.163 E0.01142
G1 X123.955 Y102.009 E0.01142
G1 X123.657 Y101.801 E0.01142
G1 X123.399 Y101.543 E0.01142
G1 X123.191 Y101.245 E0.01142
G1 X123.037 Y100.915 E0.01142
G1 X122.942 Y100.563 E0.01142
G1 X122.911 Y100.200 E0.01142
G1 X122.942 Y99.837 E0.01142
G1 X123.037 Y99.485 E0.01142
G1 X123.191 Y99.155 E0.01142
G1 X123.399 Y98.857 E0.01142
G1 X123.657 Y98.599 E0.01142
G1 X123.955 Y98.391 E0.01142
G1 X124.285 Y98.237 E0.01142
G1 X124.637 Y98.142 E0.01142
G1 X124.969 Y98.113 E0.01045
G1 X125.358 Y98.141 E0.01223
G1 X125.715 Y98.237 E0.01157
G1 X126.045 Y98.391 E0.01142
G1 X126.343 Y98.599 E0.01142
G1 X126.601 Y98.857 E0.01142
G1 X126.809 Y99.155 E0.01142
G1 X126.963 Y99.485 E0.01142
G1 X127.058 Y99.837 E0.01142
G1 X127.089 Y100.200 E0.01142
G1 X127.058 Y100.563 E0.01142
G1 X126.986 Y100.831 E0.00869
G1 X126.608 Y100.785 F10800.000
G1 F1200
G1 X126.482 Y101.055 E0.00935
G1 X126.311 Y101.300 E0.00935
G1 X126.100 Y101.511 E0.00935
G1 X125.855 Y101.682 E0.00935
G1 X125.585 Y101.808 E0.00935
G1 X125.297 Y101.885 E0.00935
G1 X125.000 Y101.911 E0.00935
G1 X124.703 Y101.885 E0.00935
G1 X124.415 Y101.808 E0.00935
G1 X124.145 Y101.682 E0.00935
G1 X123.900 Y101.511 E0.00935
G1 X123.689 Y101.300 E0.00935
G1 X123.518 Y101.055 E0.00935
G1 X123.392 Y100.785 E0.00935
G1 X123.315 Y100.497 E0.00935
G1 X123.289 Y100.200 E0.00935
G1 X123.315 Y99.903 E0.00935
G1 X123.392 Y99.615 E0.00935
G1 X123.518 Y99.345 E0.00935
G1 X123.689 Y99.100 E0.00935
G1 X123.900 Y98.889 E0.00935
G1 X124.145 Y98.718 E0.00935
G1 X124.415 Y98.592 E0.00935
G1 X124.703 Y98.515 E0.00935
G1 X124.972 Y98.492 E0.00848
G1 X125.295 Y98.515 E0.01016
G1 X125.585 Y98.592 E0.00940
G1 X125.855 Y98.718 E0.00935
G1 X126.100 Y98.889 E0.00935
G1 X126.311 Y99.100 E0.00935
G1 X126.482 Y99.345 E0.00935
G1 X126.608 Y99.615 E0.00935
G1 X126.685 Y99.903 E0.00935
G1 X126.711 Y100.200 E0.00935
G1 X126.685 Y100.497 E0.00935
G1 X126.623 Y100.727 E0.00747
G1 X126.799 Y101.014 F10800.000
G1 F8640
G1 X126.482 Y101.055 E-0.08254
G1 X126.311 Y101.300 E-0.06886
G1 X126.100 Y101.511 E-0.06886
G1 X125.855 Y101.682 E-0.06886
G1 X125.585 Y101.808 E-0.06886
G1 X125.297 Y101.885 E-0.06886
G1 X125.000 Y101.911 E-0.06886
G1 X124.703 Y101.885 E-0.06886
G1 X124.415 Y101.808 E-0.06886
G1 X124.145 Y101.682 E-0.06886
G1 X123.940 Y101.538 E-0.05774
G1 E-0.04000 F2100.00000
G1 Z0.800 F10800.000
G1 X115.536 Y92.936
G1 Z0.200
G1 E0.80000 F2100.00000
G1 F1200
G1 X134.464 Y92.936 E0.59348
G1 X134.464 Y95.864 E0.09182
G1 X115.536 Y95.864 E0.59348
G1 X115.536 Y92.996 E0.08993
G1 X115.913 Y93.313 F10800.000
G1 F1200
G1 X134.087 Y93.313 E0.56984
G1 X134.087 Y95.487 E0.06817
G1 X115.913 Y95.487 E0.56984
G1 X115.913 Y93.373 E0.06629
G1 X116.290 Y93.690 F10800.000
G1 F1200
G1 X133.710 Y93.690 E0.54619
G1 X133.710 Y95.110 E0.04452
G1 X116.290 Y95.110 E0.54619
G1 X116.290 Y93.750 E0.04264
G1 X116.099 Y93.338 F10800.000
G1 F8640
G1 X119.581 Y93.739 E-0.76000
G1 E-0.04000 F2100.00000
G1 Z0.800 F10800.000
G1 X122.863 Y89.834
G1 Z0.200
G1 E0.80000 F2100.00000
G1 F1200
G1 X122.681 Y89.444 E0.01349
G1 X122.570 Y89.029 E0.01349
G1 X122.532 Y88.600 E0.01349
G1 X122.570 Y88.171 E0.01349
G1 X122.681 Y87.756 E0.01349
G1 X122.863 Y87.366 E0.01349
G1 X123.110 Y87.014 E0.01349
G1 X123.414 Y86.710 E0.01349
G1 X123.766 Y86.463 E0.01349
G1 X124.156 Y86.281 E0.01349
G1 X124.571 Y86.170 E0.01349
G1 X124.966 Y86.135 E0.01243
G1 X125.421 Y86.168 E0.01430
G1 X125.844 Y86.281 E0.01373
G1 X126.234 Y86.463 E0.01349
G1 X126.586 Y86.710 E0.01349
G1 X126.890 Y87.014 E0.01349
G1 X127.137 Y87.366 E0.01349
G1 X127.319 Y87.756 E0.01349
G1 X127.430 Y88.171 E0.01349
G1 X127.468 Y88.600 E0.01349
G1 X127.430 Y89.029 E0.01349
G1 X127.319 Y89.444 E0.01349
G1 X127.137 Y89.834 E0.01349
G1 X126.890 Y90.186 E0.01349
G1 X126.586 Y90.490 E0.01349
G1 X126.234 Y90.737 E0.01349
G1 X125.844 Y90.919 E0.01349
G1 X125.429 Y91.030 E0.01349
G1 X125.000 Y91.068 E0.01349
G1 X124.571 Y91.030 E0.01349
G1 X124.156 Y90.919 E0.01349
G1 X123.766 Y90.737 E0.01349
G1 X123.414 Y90.490 E0.01349
G1 X123.110 Y90.186 E0.01349
G1 X122.897 Y89.883 E0.01161
G1 X123.206 Y89.667 F10800.000
G1 F1200
G1 X123.037 Y89.315 E0.01225
G1 X122.942 Y88.963 E0.01142
G1 X122.911 Y88.600 E0.01142
G1 X122.942 Y88.237 E0.01142
G1 X123.037 Y87.885 E0.01142
G1 X123.191 Y87.555 E0.01142
G1 X123.399 Y87.257 E0.01142
G1 X123.657 Y86.999 E0.01142
G1 X123.955 Y86.791 E0.01142
G1 X124.285 Y86.637 E0.01142
G1 X124.637 Y86.542 E0.01142
G1 X124.969 Y86.513 E0.01045
G1 X125.358 Y86.541 E0.01223
G1 X125.715 Y86.637 E0.01157
G1 X126.045 Y86.791 E0.01142
G1 X126.343 Y86.999 E0.01142
G1 X126.601 Y87.257 E0.01142
G1 X126.809 Y87.555 E0.01142
G1 X126.963 Y87.885 E0.01142
G1 X127.058 Y88.237 E0.01142
G1 X127.089 Y88.600 E0.01142
G1 X127.058 Y88.963 E0.01142
G1 X126.963 Y89.315 E0.01142
G1 X126.809 Y89.645 E0.01142
G1 X126.601 Y89.943 E0.01142
G1 X126.343 Y90.201 E0.01142
G1 X126.045 Y90.409 E0.01142
G1 X125.715 Y90.563 E0.01142
G1 X125.363 Y90.658 E0.01142
G1 X125.000 Y90.689 E0.01142
G1 X124.637 Y90.658 E0.01142
G1 X124.285 Y90.563 E0.01142
G1 X123.955 Y90.409 E0.01142
G1 X123.657 Y90.201 E0.01142
G1 X123.399 Y89.943 E0.01142
G1 X123.241 Y89.716 E0.00869
G1 X123.518 Y89.455 F10800.000
G1 F1200
G1 X123.392 Y89.185 E0.00935
G1 X123.315 Y88.897 E0.00935
G1 X123.289 Y88.600 E0.00935
G1 X123.315 Y88.303 E0.00935
G1 X123.392 Y88.015 E0.00935
G1 X123.518 Y87.745 E0.00935
G1 X123.689 Y87.500 E0.00935
G1 X123.900 Y87.289 E0.00935
G1 X124.145 Y87.118 E0.00935
G1 X124.415 Y86.992 E0.00935
G1 X124.703 Y86.915 E0.00935
G1 X124.972 Y86.892 E0.00848
G1 X125.295 Y86.915 E0.01016
G1 X125.585 Y86.992 E0.00940
G1 X125.855 Y87.118 E0.00935
G1 X126.100 Y87.289 E0.00935
G1 X126.311 Y87.500 E0.00935
G1 X126.482 Y87.745 E0.00935
G1 X126.608 Y88.015 E0.00935
G1 X126.685 Y88.303 E0.00935
G1 X126.711 Y88.600 E0.00935
G1 X126.685 Y88.897 E0.00935
G1 X126.608 Y89.185 E0.00935
G1 X126.482 Y89.455 E0.00935
G1 X126.311 Y89.700 E0.00935
G1 X126.100 Y89.911 E0.00935
G1 X125.855 Y90.082 E0.00935
G1 X125.585 Y90.208 E0.00935
G1 X125.297 Y90.285 E0.00935
G1 X125.000 Y90.311 E0.00935
G1 X124.703 Y90.285 E0.00935
G1 X124.415 Y90.208 E0.00935
G1 X124.145 Y90.082 E0.00935
G1 X123.900 Y89.911 E0.00935
G1 X123.689 Y89.700 E0.00935
G1 X123.553 Y89.505 E0.00747
G1 X123.220 Y89.455 F10800.000
G1 F8640
G1 X123.392 Y89.185 E-0.08254
G1 X123.315 Y88.897 E-0.06886
G1 X123.289 Y88.600 E-0.06886
G1 X123.315 Y88.303 E-0.06886
G1 X123.392 Y88.015 E-0.06886
G1 X123.518 Y87.745 E-0.06886
G1 X123.689 Y87.500 E-0.06886
G1 X123.900 Y87.289 E-0.06886
G1 X124.145 Y87.118 E-0.06886
G1 X124.415 Y86.992 E-0.06886
G1 X124.656 Y86.928 E-0.05774
G1 E-0.04000 F2100.00000
G1 Z0.800 F10800.000
G1 X121.164 Y89.382
G1 Z0.200
G1 E0.80000 F2100.00000
G1 F1200
G1 X121.164 Y85.082 E0.13482
G1 X121.482 Y84.764 E0.01410
G1 X128.518 Y84.764 E0.22060
G1 X128.836 Y85.082 E0.01410
G1 X128.836 Y89.382 E0.13482
G1 X130.518 Y91.064 E0.07458
G1 X136.018 Y91.064 E0.17245
G1 X136.336 Y91.382 E0.01410
G1 X136.336 Y97.418 E0.18924
G1 X136.018 Y97.736 E0.01410
G1 X130.518 Y97.736 E0.17245
G1 X128.836 Y99.418 E0.07458
G1 X128.836 Y103.718 E0.13482
G1 X128.518 Y104.036 E0.01410
G1 X121.482 Y104.036 E0.22060
G1 X121.164 Y103.718 E0.01410
G1 X121.164 Y99.418 E0.13482
G1 X119.482 Y97.736 E0.07458
G1 X113.982 Y97.736 E0.17245
G1 X113.664 Y97.418 E0.01410
G1 X113.664 Y91.382 E0.18924
G1 X113.982 Y91.064 E0.01410
G1 X119.482 Y91.064 E0.17245
G1 X121.122 Y89.425 E0.07270
G1 X120.787 Y89.226 F10800.000
G1 F1200
G1 X120.787 Y84.926 E0.13482
G1 X121.326 Y84.387 E0.02390
G1 X128.674 Y84.387 E0.23039
G1 X129.213 Y84.926 E0.02390
G1 X129.213 Y89.226 E0.13482
G1 X130.674 Y90.687 E0.06479
G1 X136.174 Y90.687 E0.17245
G1 X136.713 Y91.226 E0.02390
G1 X136.713 Y97.574 E0.19904
G1 X136.174 Y98.113 E0.02390
G1 X130.674 Y98.113 E0.17245
G1 X129.213 Y99.574 E0.06479
G1 X129.213 Y103.874 E0.13482
G1 X128.674 Y104.413 E0.02390
G1 X121.326 Y104.413 E0.23039
G1 X120.787 Y103.874 E0.02390
G1 X120.787 Y99.574 E0.13482
G1 X119.326 Y98.113 E0.06479
G1 X113.826 Y98.113 E0.17245
G1 X113.287 Y97.574 E0.02390
G1 X113.287 Y91.226 E0.19904
G1 X113.826 Y90.687 E0.02390
G1 X119.326 Y90.687 E0.17245
G1 X120.745 Y89.268 E0.06290
G1 X120.410 Y89.070 F10800.000
G1 F1200
G1 X120.410 Y84.770 E0.13482
G1 X121.170 Y84.010 E0.03369
G1 X128.830 Y84.010 E0.24018
G1 X129.590 Y84.770 E0.03369
G1 X129.590 Y89.070 E0.13482
G1 X130.830 Y90.310 E0.05499
