; generated by Slic3r Prusa Edition 1.41.0+win64 on 2019-02-24 at 10:42:21

; 

; external perimeters extrusion width = 0.45mm
; perimeters extrusion width = 0.45mm
; infill extrusion width = 0.45mm
; solid infill extrusion width = 0.45mm
; top infill extrusion width = 0.40mm
; support material extrusion width = 0.35mm
; first layer extrusion width = 0.42mm

M201 X1000 Y1000 Z1000 E5000 ; sets maximum accelerations, mm/sec^2
M203 X200 Y200 Z12 E120 ; sets maximum feedrates, mm/sec
M204 P1250 R1250 T1250 ; sets acceleration (P, T) and retract acceleration (R), mm/sec^2
M205 X8.00 Y8.00 Z0.40 E1.50 ; sets the jerk limits, mm/sec
M205 S0 T0 ; sets the minimum extruding and travel feed rate, mm/sec
M107
M115 U3.4.1 ; tell printer latest fw version
M83  ; extruder relative mode
M104 S215 ; set extruder temp
M140 S60 ; set bed temp
M190 S60 ; wait for bed temp
M109 S215 ; wait for extruder temp
G28 W ; home all without mesh bed level
G80 ; mesh bed leveling
G1 Y-3.0 F1000.0 ; go outside print area
G92 E0.0
G1 X60.0 E9.0  F1000.0 ; intro line
M73 Q0 S28
M73 P0 R28
G1 X100.0 E12.5  F1000.0 ; intro line
G92 E0.0
M221 S95
M900 K30; Filament gcode
G21 ; set units to millimeters
G90 ; use absolute coordinates
M83 ; use relative distances for extrusion
;BEFORE_LAYER_CHANGE
G92 E0.0
;0.2


G1 E-0.80000 F2100.00000
G1 Z0.600 F10800.000
;AFTER_LAYER_CHANGE
;0.2
G1 X109.101 Y95.458
G1 Z0.200
G1 E0.80000 F2100.00000
M204 S1000
G1 F1200
G1 X109.805 Y94.947 E0.02729
G1 X110.640 Y94.701 E0.02729
G1 X128.479 Y93.044 E0.56173
G1 X129.963 Y93.034 E0.04653
G1 X139.518 Y94.774 E0.30453
G1 X140.018 Y94.970 E0.01684
G1 X140.467 Y95.265 E0.01684
G1 X140.845 Y95.647 E0.01684
G1 X141.133 Y96.095 E0.01672
G1 X141.333 Y96.636 E0.01808
G1 X141.407 Y97.208 E0.01808
G1 X141.406 Y112.640 E0.48387
G1 X141.207 Y113.571 E0.02985
G1 X140.678 Y114.368 E0.02997
G1 X140.114 Y114.805 E0.02238
G1 X139.447 Y115.070 E0.02251
G1 X129.963 Y116.966 E0.30322
G1 X119.730 Y116.947 E0.32088
G1 X110.341 Y115.072 E0.30018
G1 X109.701 Y114.825 E0.02152
G1 X109.149 Y114.416 E0.02152
G1 X108.821 Y114.027 E0.01598
G1 X108.576 Y113.580 E0.01598
G1 X108.424 Y113.089 E0.01610
G1 X108.372 Y112.582 E0.01598
G1 X108.374 Y97.142 E0.48410
G1 X108.582 Y96.233 E0.02924
G1 X109.067 Y95.508 E0.02736
G1 X108.930 Y96.379 F10800.000
G1 F1200
G1 X109.384 Y95.708 E0.02541
G1 X109.985 Y95.279 E0.02315
G1 X110.695 Y95.074 E0.02315
G1 X128.512 Y93.420 E0.56106
G1 X129.962 Y93.411 E0.04546
G1 X139.398 Y95.133 E0.30073
G1 X140.217 Y95.547 E0.02878
G1 X140.796 Y96.264 E0.02889
G1 X140.966 Y96.726 E0.01544
G1 X141.030 Y97.217 E0.01555
G1 X141.029 Y112.625 E0.48308
G1 X140.857 Y113.431 E0.02586
G1 X140.395 Y114.119 E0.02597
G1 X139.910 Y114.487 E0.01908
G1 X139.343 Y114.707 E0.01908
G1 X129.959 Y116.589 E0.30011
G1 X119.783 Y116.573 E0.31906
G1 X110.436 Y114.707 E0.29882
G1 X109.876 Y114.491 E0.01885
G1 X109.395 Y114.130 E0.01885
G1 X108.917 Y113.418 E0.02687
G1 X108.749 Y112.577 E0.02690
G1 X108.751 Y97.165 E0.48323
G1 X108.916 Y96.437 E0.02341
; PURGING FINISHED
G1 F8640
G1 X109.384 Y95.708 E-0.20008
G1 X109.985 Y95.279 E-0.17049
G1 X110.695 Y95.074 E-0.17049
G1 X111.639 Y94.987 E-0.21893
G1 E-0.04000 F2100.00000
G1 Z0.800 F10800.000
G1 X116.971 Y104.744
G1 Z0.200
G1 E0.80000 F2100.00000
G1 F1200
G1 X116.971 Y105.086 E0.01074
G1 X117.725 Y105.086 E0.02365
G1 X117.725 Y104.914 E0.00542
G1 X118.479 Y104.914 E0.02365
G1 X118.479 Y105.086 E0.00542
G1 X119.233 Y105.086 E0.02365
G1 X119.233 Y104.914 E0.00542
G1 X119.987 Y104.914 E0.02365
G1 X119.987 Y105.256 E0.01074
G1 F8640
G1 X119.987 Y104.914 E-0.07911
G1 X119.233 Y104.914 E-0.17414
G1 X119.233 Y105.086 E-0.03993
G1 X118.479 Y105.086 E-0.17414
G1 X118.479 Y104.914 E-0.03993
G1 X117.725 Y104.914 E-0.17414
G1 X117.725 Y105.086 E-0.03993
G1 X117.557 Y105.086 E-0.03869
G1 E-0.04000 F2100.00000
G1 Z0.800 F10800.000
G1 X124.512 Y109.348
G1 Z0.200
G1 E0.80000 F2100.00000
G1 F1200
G1 X124.512 Y111.465 E0.06639
G1 X124.629 Y111.519 E0.00403
G1 X124.812 Y111.568 E0.00593
G1 X125.000 Y111.585 E0.00593
G1 X125.267 Y111.547 E0.00844
G1 X125.267 Y109.453 E0.06568
G1 X125.542 Y109.560 E0.00929
G1 X125.697 Y109.669 E0.00593
G1 X125.831 Y109.803 E0.00593
G1 X125.940 Y109.958 E0.00593
G1 X126.019 Y110.129 E0.00593
G1 X126.021 Y111.222 E0.03428
G1 F8640
G1 X126.019 Y110.129 E-0.25247
G1 X125.940 Y109.958 E-0.04367
G1 X125.831 Y109.803 E-0.04366
G1 X125.697 Y109.669 E-0.04367
G1 X125.542 Y109.560 E-0.04366
G1 X125.267 Y109.453 E-0.06841
G1 X125.267 Y110.598 E-0.26446
G1 E-0.04000 F2100.00000
G1 Z0.800 F10800.000
G1 X132.054 Y106.849
G1 Z0.200
G1 E0.80000 F2100.00000
G1 F1200
G1 X132.054 Y112.407 E0.17426
G1 X132.808 Y112.407 E0.02365
G1 X132.808 Y107.014 E0.16912
G1 X133.562 Y107.014 E0.02365
G1 X133.562 Y112.407 E0.16912
G1 X134.316 Y112.407 E0.02365
G1 X134.316 Y107.014 E0.16912
G1 X135.071 Y107.014 E0.02365
G1 X135.071 Y112.407 E0.16912
G1 X135.825 Y112.407 E0.02365
G1 X135.825 Y107.014 E0.16912
G1 X135.941 Y107.014 E0.00364
G1 X136.093 Y106.951 E0.00516
G1 X136.579 Y106.464 E0.02155
G1 X136.579 Y112.577 E0.19166
G1 X138.841 Y112.577 F10800.000
G1 F1200
G1 X138.841 Y97.249 E0.48059
G1 X138.087 Y97.249 E0.02365
G1 X138.087 Y112.407 E0.47527
G1 X137.333 Y112.407 E0.02365
G1 X137.333 Y97.249 E0.47527
G1 X136.579 Y97.249 E0.02365
G1 X136.579 Y103.536 E0.19710
G1 X136.093 Y103.049 E0.02155
G1 X135.941 Y102.986 E0.00516
G1 X135.825 Y102.986 E0.00364
G1 X135.825 Y97.249 E0.17989
G1 X135.071 Y97.249 E0.02365
G1 X135.071 Y102.986 E0.17989
G1 X134.316 Y102.986 E0.02365
G1 X134.316 Y97.249 E0.17989
G1 X133.562 Y97.249 E0.02365
G1 X133.562 Y102.986 E0.17989
G1 X132.808 Y102.986 E0.02365
G1 X132.808 Y97.249 E0.17989
G1 X132.054 Y97.249 E0.02365
G1 X132.054 Y103.151 E0.18503
G1 F8640
G1 X132.054 Y99.859 E-0.76000
G1 E-0.04000 F2100.00000
G1 Z0.800 F10800.000
G1 X132.808 Y105.256
G1 Z0.200
G1 E0.80000 F2100.00000
G1 F1200
G1 X132.808 Y104.914 E0.01074
G1 X132.054 Y104.914 E0.02365
G1 X132.054 Y105.086 E0.00542
G1 X131.300 Y105.086 E0.02365
G1 X131.300 Y104.914 E0.00542
G1 X130.546 Y104.914 E0.02365
G1 X130.546 Y105.256 E0.01074
G1 F8640
G1 X130.546 Y104.914 E-0.07911
G1 X131.300 Y104.914 E-0.17414
G1 X131.300 Y105.086 E-0.03993
G1 X132.054 Y105.086 E-0.17414
G1 X132.054 Y104.914 E-0.03993
G1 X132.808 Y104.914 E-0.17414
G1 X132.808 Y105.254 E-0.07862
G1 E-0.04000 F2100.00000
G1 Z0.800 F10800.000
G1 X128.283 Y99.705
G1 Z0.200
G1 E0.80000 F2100.00000
G1 F1200
G1 X128.283 Y97.249 E0.07699
G1 X127.529 Y97.249 E0.02365
G1 X127.529 Y100.728 E0.10909
G1 X127.147 Y101.110 E0.01693
G1 X126.775 Y101.371 E0.01425
G1 X126.775 Y97.249 E0.12923
G1 X126.021 Y97.249 E0.02365
G1 X126.021 Y101.708 E0.13981
G1 X125.653 Y101.807 E0.01193
G1 X125.267 Y101.841 E0.01216
G1 X125.267 Y97.249 E0.14396
G1 X124.512 Y97.249 E0.02365
G1 X124.512 Y101.857 E0.14447
G1 X123.758 Y101.857 E0.02365
G1 X123.758 Y97.249 E0.14447
G1 X123.004 Y97.249 E0.02365
G1 X123.004 Y101.857 E0.14447
G1 X122.250 Y101.857 E0.02365
G1 X122.250 Y97.249 E0.14447
G1 X121.496 Y97.249 E0.02365
G1 X121.496 Y101.857 E0.14447
G1 X120.742 Y101.857 E0.02365
G1 X120.742 Y97.249 E0.14447
G1 X119.987 Y97.249 E0.02365
G1 X119.987 Y101.857 E0.14447
G1 X119.233 Y101.857 E0.02365
G1 X119.233 Y97.249 E0.14447
G1 X118.479 Y97.249 E0.02365
G1 X118.479 Y102.377 E0.16079
G1 X117.870 Y102.986 E0.02700
G1 X117.725 Y102.986 E0.00455
G1 X117.725 Y97.249 E0.17989
G1 X116.971 Y97.249 E0.02365
G1 X116.971 Y102.986 E0.17989
G1 X116.217 Y102.986 E0.02365
G1 X116.217 Y97.249 E0.17989
G1 X115.462 Y97.249 E0.02365
G1 X115.462 Y102.986 E0.17989
G1 X114.708 Y102.986 E0.02365
G1 X114.708 Y97.249 E0.17989
G1 X113.954 Y97.249 E0.02365
G1 X113.954 Y103.030 E0.18125
G1 X113.907 Y103.049 E0.00159
G1 X113.200 Y103.757 E0.03136
G1 X113.200 Y97.249 E0.20403
G1 X112.446 Y97.249 E0.02365
G1 X112.446 Y112.407 E0.47527
G1 X113.200 Y112.407 E0.02365
G1 X113.200 Y106.243 E0.19327
G1 X113.907 Y106.951 E0.03136
G1 X113.954 Y106.970 E0.00159
G1 X113.954 Y112.407 E0.17048
G1 X114.708 Y112.407 E0.02365
G1 X114.708 Y107.014 E0.16912
G1 X115.462 Y107.014 E0.02365
G1 X115.462 Y112.407 E0.16912
G1 X116.217 Y112.407 E0.02365
G1 X116.217 Y107.014 E0.16912
G1 X116.971 Y107.014 E0.02365
G1 X116.971 Y112.407 E0.16912
G1 X117.725 Y112.407 E0.02365
G1 X117.725 Y107.014 E0.16912
G1 X117.870 Y107.014 E0.00455
G1 X118.479 Y107.623 E0.02700
G1 X118.479 Y112.577 E0.15535
G1 X111.692 Y112.577 F10800.000
G1 F1200
G1 X111.692 Y97.249 E0.48059
G1 X110.938 Y97.249 E0.02365
G1 X110.938 Y112.577 E0.48059
G1 F8640
G1 X110.938 Y109.286 E-0.76000
G1 E-0.04000 F2100.00000
G1 Z0.800 F10800.000
G1 X116.290 Y105.710
G1 Z0.200
G1 E0.80000 F2100.00000
G1 F1200
G1 X116.290 Y104.290 E0.04452
G1 X133.710 Y104.290 E0.54619
G1 X133.710 Y105.710 E0.04452
G1 X116.350 Y105.710 E0.54431
G1 X115.890 Y105.721 F10800.000
G1 X115.913 Y106.013
G1 F1200
G1 X114.385 Y106.013 E0.04792
G1 X113.787 Y105.415 E0.02649
G1 X113.787 Y104.585 E0.02605
G1 X114.385 Y103.987 E0.02649
G1 X115.913 Y103.987 E0.04792
G1 X115.913 Y105.953 E0.06164
G1 F8640
G1 X114.385 Y106.013 E-0.35317
G1 X113.787 Y105.415 E-0.19512
G1 X113.787 Y104.585 E-0.19184
G1 X113.848 Y104.524 E-0.01988
G1 E-0.04000 F2100.00000
G1 Z0.800 F10800.000
G1 X123.191 Y109.455
G1 Z0.200
G1 E0.80000 F2100.00000
G1 F1200
G1 X123.399 Y109.157 E0.01142
G1 X123.657 Y108.899 E0.01142
G1 X123.955 Y108.691 E0.01142
G1 X124.285 Y108.537 E0.01142
G1 X124.637 Y108.442 E0.01142
G1 X124.969 Y108.413 E0.01045
G1 X125.358 Y108.441 E0.01223
G1 X125.715 Y108.537 E0.01157
G1 X126.045 Y108.691 E0.01142
G1 X126.343 Y108.899 E0.01142
G1 X126.601 Y109.157 E0.01142
G1 X126.809 Y109.455 E0.01142
G1 X126.963 Y109.785 E0.01142
G1 X127.058 Y110.137 E0.01142
G1 X127.089 Y110.500 E0.01142
G1 X127.058 Y110.863 E0.01142
G1 X126.963 Y111.215 E0.01142
G1 X126.809 Y111.545 E0.01142
G1 X126.601 Y111.843 E0.01142
G1 X126.343 Y112.101 E0.01142
G1 X126.045 Y112.309 E0.01142
G1 X125.715 Y112.463 E0.01142
G1 X125.363 Y112.558 E0.01142
G1 X125.000 Y112.589 E0.01142
G1 X124.637 Y112.558 E0.01142
G1 X124.285 Y112.463 E0.01142
G1 X123.955 Y112.309 E0.01142
G1 X123.657 Y112.101 E0.01142
G1 X123.399 Y111.843 E0.01142
G1 X123.191 Y111.545 E0.01142
G1 X123.037 Y111.215 E0.01142
G1 X122.942 Y110.863 E0.01142
G1 X122.911 Y110.500 E0.01142
G1 X122.942 Y110.137 E0.01142
G1 X123.037 Y109.785 E0.01142
G1 X123.165 Y109.510 E0.00954
G1 X123.507 Y109.669 F10800.000
G1 F1200
G1 X123.689 Y109.400 E0.01019
G1 X123.900 Y109.189 E0.00935
G1 X124.145 Y109.018 E0.00935
G1 X124.415 Y108.892 E0.00935
G1 X124.703 Y108.815 E0.00935
G1 X124.972 Y108.792 E0.00848
G1 X125.295 Y108.815 E0.01016
G1 X125.585 Y108.892 E0.00940
G1 X125.855 Y109.018 E0.00935
G1 X126.100 Y109.189 E0.00935
G1 X126.311 Y109.400 E0.00935
G1 X126.482 Y109.645 E0.00935
G1 X126.608 Y109.915 E0.00935
G1 X126.685 Y110.203 E0.00935
G1 X126.711 Y110.500 E0.00935
G1 X126.685 Y110.797 E0.00935
G1 X126.608 Y111.085 E0.00935
G1 X126.482 Y111.355 E0.00935
G1 X126.311 Y111.600 E0.00935
G1 X126.100 Y111.811 E0.00935
G1 X125.855 Y111.982 E0.00935
G1 X125.585 Y112.108 E0.00935
G1 X125.297 Y112.185 E0.00935
G1 X125.000 Y112.211 E0.00935
G1 X124.703 Y112.185 E0.00935
G1 X124.415 Y112.108 E0.00935
G1 X124.145 Y111.982 E0.00935
G1 X123.900 Y111.811 E0.00935
G1 X123.689 Y111.600 E0.00935
G1 X123.518 Y111.355 E0.00935
G1 X123.392 Y111.085 E0.00935
G1 X123.315 Y110.797 E0.00935
G1 X123.289 Y110.500 E0.00935
G1 X123.315 Y110.203 E0.00935
G1 X123.392 Y109.915 E0.00935
G1 X123.482 Y109.723 E0.00662
G1 X123.341 Y109.390 F10800.000
G1 F8640
G1 X123.689 Y109.400 E-0.08871
G1 X123.900 Y109.189 E-0.06886
G1 X124.145 Y109.018 E-0.06886
G1 X124.415 Y108.892 E-0.06886
G1 X124.703 Y108.815 E-0.06886
G1 X124.972 Y108.792 E-0.06243
G1 X125.295 Y108.815 E-0.07481
G1 X125.585 Y108.892 E-0.06924
G1 X125.855 Y109.018 E-0.06886
G1 X126.100 Y109.189 E-0.06886
G1 X126.258 Y109.348 E-0.05165
G1 E-0.04000 F2100.00000
G1 Z0.800 F10800.000
G1 X119.687 Y107.415
G1 Z0.200
G1 E0.80000 F2100.00000
G1 F1200
G1 X118.359 Y106.087 E0.05890
G1 X131.641 Y106.087 E0.41646
G1 X130.313 Y107.415 E0.05890
G1 X130.313 Y113.215 E0.18185
G1 X129.715 Y113.813 E0.02649
G1 X120.285 Y113.813 E0.29570
G1 X119.687 Y113.215 E0.02649
G1 X119.687 Y107.475 E0.17997
G1 F8640
G1 X118.359 Y106.087 E-0.44366
G1 X119.729 Y106.087 E-0.31634
G1 E-0.04000 F2100.00000
G1 Z0.800 F10800.000
G1 X134.087 Y106.013
G1 Z0.200
G1 E0.80000 F2100.00000
G1 F1200
G1 X134.087 Y103.987 E0.06352
G1 X135.615 Y103.987 E0.04792
G1 X136.213 Y104.585 E0.02649
G1 X136.213 Y105.415 E0.02605
G1 X135.615 Y106.013 E0.02649
G1 X134.147 Y106.013 E0.04604
G1 F8640
G1 X134.087 Y103.987 E-0.46798
G1 X135.352 Y103.987 E-0.29202
G1 E-0.04000 F2100.00000
G1 Z0.800 F10800.000
G1 X131.641 Y103.913
G1 Z0.200
G1 E0.80000 F2100.00000
G1 F1200
G1 X118.359 Y103.913 E0.41646
G1 X119.414 Y102.857 E0.04680
G1 X125.128 Y102.857 E0.17915
G1 X125.860 Y102.787 E0.02306
G1 X126.533 Y102.607 E0.02184
G1 X127.195 Y102.298 E0.02290
G1 X127.793 Y101.880 E0.02290
G1 X128.309 Y101.363 E0.02290
G1 X128.728 Y100.765 E0.02290
G1 X129.037 Y100.103 E0.02290
G1 X129.226 Y99.398 E0.02290
G1 X129.287 Y98.696 E0.02209
G1 X129.287 Y96.188 E0.07865
G1 X129.716 Y96.188 E0.01346
G1 X130.313 Y96.785 E0.02645
G1 X130.313 Y102.585 E0.18185
G1 X131.599 Y103.870 E0.05702
G1 X131.865 Y103.604 F10800.000
G1 F1200
G1 X135.772 Y103.610 E0.12247
G1 X136.590 Y104.428 E0.03629
G1 X136.590 Y105.572 E0.03584
G1 X135.772 Y106.390 E0.03629
G1 X131.872 Y106.390 E0.12228
G1 X130.690 Y107.572 E0.05239
G1 X130.690 Y113.372 E0.18185
G1 X129.872 Y114.190 E0.03629
G1 X120.128 Y114.190 E0.30549
G1 X119.310 Y113.372 E0.03629
G1 X119.310 Y107.572 E0.18185
G1 X118.128 Y106.390 E0.05239
G1 X114.228 Y106.390 E0.12228
G1 X113.410 Y105.572 E0.03629
G1 X113.410 Y104.428 E0.03584
G1 X114.228 Y103.610 E0.03629
G1 X118.128 Y103.610 E0.12228
G1 X119.258 Y102.480 E0.05009
G1 X125.110 Y102.480 E0.18349
G1 X125.793 Y102.415 E0.02151
G1 X126.403 Y102.251 E0.01982
G1 X127.005 Y101.971 E0.02083
G1 X127.550 Y101.590 E0.02083
G1 X128.019 Y101.120 E0.02083
G1 X128.400 Y100.576 E0.02083
G1 X128.681 Y99.974 E0.02083
G1 X128.853 Y99.332 E0.02083
G1 X128.910 Y98.680 E0.02054
G1 X128.910 Y95.810 E0.08997
G1 X129.872 Y95.810 E0.03015
G1 X130.690 Y96.628 E0.03629
G1 X130.690 Y102.428 E0.18185
G1 X131.823 Y103.561 E0.05024
G1 X131.887 Y104.003 F10800.000
G1 X131.945 Y103.950
G1 F1200
G1 X133.899 Y103.950 E0.04921
G1 F8640
G1 X131.945 Y103.950 E-0.45108
G1 E-0.34892 F2100.00000
G1 Z0.800 F10800.000
G1 X134.200 Y105.129
G1 Z0.200
G1 E0.80000 F2100.00000
G1 F1200
G1 X134.801 Y105.730 E0.02691
G1 X135.340 Y105.730 E0.01706
G1 X134.370 Y104.760 E0.04344
G1 X134.370 Y104.270 E0.01554
G1 X134.418 Y104.270 E0.00152
G1 X135.688 Y105.540 E0.05690
G1 X135.930 Y105.298 E0.01083
G1 X135.930 Y105.243 E0.00174
G1 X134.957 Y104.270 E0.04360
G1 X135.495 Y104.270 E0.01706
G1 X136.100 Y104.874 E0.02707
G1 F8640
G1 X135.495 Y104.270 E-0.19735
G1 X134.957 Y104.270 E-0.12439
G1 X135.930 Y105.243 E-0.31786
G1 X135.930 Y105.298 E-0.01270
G1 X135.688 Y105.540 E-0.07898
G1 X135.600 Y105.452 E-0.02872
G1 E-0.04000 F2100.00000
G1 Z0.800 F10800.000
G1 X133.899 Y106.050
G1 Z0.200
G1 E0.80000 F2100.00000
G1 F1200
G1 X131.945 Y106.050 E0.04921
G1 F8640
G1 X133.899 Y106.050 E-0.45108
G1 E-0.34892 F2100.00000
G1 Z0.800 F10800.000
G1 X130.989 Y106.579
G1 Z0.200
G1 E0.80000 F2100.00000
G1 F1200
G1 X130.780 Y106.370 E0.00952
G1 X130.233 Y106.370 E0.01765
G1 X130.596 Y106.733 E0.01654
G1 X130.322 Y107.007 E0.01248
G1 X129.685 Y106.370 E0.02902
G1 X129.137 Y106.370 E0.01765
G1 X130.048 Y107.281 E0.04149
G1 X130.030 Y107.298 E0.00080
G1 X130.030 Y107.811 E0.01652
G1 X128.589 Y106.370 E0.06565
G1 X128.041 Y106.370 E0.01765
G1 X130.030 Y108.359 E0.09061
G1 X130.030 Y108.907 E0.01765
G1 X127.493 Y106.370 E0.11557
G1 X126.945 Y106.370 E0.01765
G1 X130.030 Y109.455 E0.14053
G1 X130.030 Y110.003 E0.01765
G1 X126.397 Y106.370 E0.16549
G1 X125.850 Y106.370 E0.01765
G1 X130.030 Y110.550 E0.19044
G1 X130.030 Y111.098 E0.01765
G1 X125.302 Y106.370 E0.21540
G1 X124.754 Y106.370 E0.01765
