; generated by Slic3r Prusa Edition 1.41.0+win64 on 2019-02-09 at 16:41:44

; 

; external perimeters extrusion width = 0.45mm
; perimeters extrusion width = 0.45mm
; infill extrusion width = 0.45mm
; solid infill extrusion width = 0.45mm
; top infill extrusion width = 0.40mm
; support material extrusion width = 0.35mm
; first layer extrusion width = 0.42mm

M201 X1000 Y1000 Z1000 E5000 ; sets maximum accelerations, mm/sec^2
M203 X200 Y200 Z12 E120 ; sets maximum feedrates, mm/sec
M204 P1250 R1250 T1250 ; sets acceleration (P, T) and retract acceleration (R), mm/sec^2
M205 X8.00 Y8.00 Z0.40 E1.50 ; sets the jerk limits, mm/sec
M205 S0 T0 ; sets the minimum extruding and travel feed rate, mm/sec
M107
M115 U3.4.1 ; tell printer latest fw version
M83  ; extruder relative mode
M104 S215 ; set extruder temp
M140 S60 ; set bed temp
M190 S60 ; wait for bed temp
M109 S215 ; wait for extruder temp
G28 W ; home all without mesh bed level
G80 ; mesh bed leveling
G1 Y-3.0 F1000.0 ; go outside print area
G92 E0.0
G1 X60.0 E9.0  F1000.0 ; intro line
M73 Q0 S68
M73 P0 R68
G1 X100.0 E12.5  F1000.0 ; intro line
G92 E0.0
M221 S95
M900 K30; Filament gcode
G21 ; set units to millimeters
G90 ; use absolute coordinates
M83 ; use relative distances for extrusion
;BEFORE_LAYER_CHANGE
G92 E0.0
;0.2


G1 E-0.80000 F2100.00000
G1 Z0.600 F10800.000
;AFTER_LAYER_CHANGE
;0.2
G1 X110.985 Y81.024
G1 Z0.200
G1 E0.80000 F2100.00000
M204 S1000
G1 F1200
G1 X112.120 Y79.872 E0.05071
G1 X119.686 Y73.515 E0.30985
G1 X120.138 Y73.226 E0.01680
G1 X121.027 Y73.012 E0.02867
G1 X128.921 Y73.011 E0.24751
G1 X129.648 Y73.137 E0.02315
G1 X130.290 Y73.496 E0.02304
G1 X137.858 Y79.853 E0.30990
G1 X138.898 Y80.888 E0.04601
G1 X139.188 Y81.277 E0.01521
G1 X148.088 Y105.702 E0.81510
G1 X148.196 Y106.378 E0.02146
G1 X148.196 Y131.043 E0.77336
G1 X148.119 Y131.614 E0.01805
G1 X147.938 Y132.068 E0.01532
G1 X147.658 Y132.473 E0.01544
G1 X147.298 Y132.803 E0.01532
G1 X146.871 Y133.047 E0.01544
G1 X138.486 Y135.956 E0.27825
G1 X137.512 Y136.161 E0.03121
G1 X136.704 Y136.213 E0.02539
G1 X113.285 Y136.213 E0.73429
G1 X112.460 Y136.158 E0.02594
G1 X111.627 Y135.991 E0.02664
G1 X110.733 Y135.674 E0.02972
G1 X109.513 Y134.971 E0.04417
G1 X108.787 Y134.356 E0.02984
G1 X108.215 Y133.707 E0.02710
G1 X107.734 Y132.985 E0.02722
G1 X107.328 Y132.128 E0.02972
G1 X106.963 Y130.764 E0.04428
G1 X106.888 Y129.841 E0.02904
G1 X106.930 Y106.680 E0.72620
G1 X110.589 Y81.804 E0.78835
G1 X110.957 Y81.077 E0.02555
; PURGING FINISHED
G1 F8640
G1 X112.120 Y79.872 E-0.38670
G1 X113.358 Y78.832 E-0.37330
G1 E-0.04000 F2100.00000
G1 Z0.800 F10800.000
G1 X117.350 Y118.683
G1 Z0.200
G1 E0.80000 F2100.00000
G1 F1200
G1 X117.350 Y124.303 E0.17619
G1 X117.645 Y125.095 E0.02650
G1 X118.104 Y125.935 E0.03002
G1 X118.104 Y117.537 E0.26332
G1 X118.198 Y117.364 E0.00615
G1 X118.858 Y116.483 E0.03454
G1 X118.858 Y126.989 E0.32941
G1 X119.612 Y127.754 E0.03367
G1 X119.612 Y115.718 E0.37736
G1 X119.705 Y115.625 E0.00411
G1 X120.367 Y115.130 E0.02590
G1 X120.367 Y128.341 E0.41423
G1 X120.629 Y128.538 E0.01027
G1 X121.121 Y128.806 E0.01758
G1 X121.121 Y114.665 E0.44338
G1 X121.641 Y114.381 E0.01859
G1 X121.875 Y114.294 E0.00782
G1 X121.875 Y129.359 E0.47235
G1 X125.646 Y129.945 F10800.000
G1 F1200
G1 X125.646 Y124.926 E0.15738
G1 X125.177 Y124.926 E0.01469
G1 X125.177 Y122.608 E0.07267
G1 X124.891 Y122.608 E0.00896
G1 X124.891 Y129.813 E0.22593
G1 X124.137 Y129.759 E0.02371
G1 X124.137 Y122.608 E0.22424
G1 X123.383 Y122.608 E0.02365
G1 X123.383 Y129.637 E0.22041
G1 X122.629 Y129.459 E0.02430
G1 X122.629 Y114.013 E0.48431
G1 X123.383 Y113.834 E0.02430
G1 X123.383 Y121.595 E0.24334
G1 X124.137 Y121.595 E0.02365
G1 X124.137 Y113.712 E0.24716
G1 X124.891 Y113.658 E0.02371
G1 X124.891 Y121.595 E0.24885
G1 X125.177 Y121.595 E0.00896
G1 X125.177 Y119.277 E0.07267
G1 X125.646 Y119.277 E0.01469
G1 X125.646 Y113.697 E0.17497
G1 X126.151 Y113.733 E0.01587
G1 X126.400 Y113.787 E0.00799
G1 X126.400 Y129.685 E0.49846
G1 X127.154 Y129.521 E0.02420
G1 X127.154 Y113.951 E0.48818
G1 X127.278 Y113.978 E0.00398
G1 X127.908 Y114.213 E0.02109
G1 X127.908 Y129.259 E0.47175
G1 X128.359 Y129.091 E0.01508
G1 X128.662 Y128.925 E0.01084
G1 X128.662 Y114.547 E0.45081
G1 X129.416 Y114.968 E0.02708
G1 X129.416 Y128.504 E0.42442
G1 X130.171 Y127.939 E0.02954
G1 X130.171 Y115.532 E0.38901
G1 X130.295 Y115.625 E0.00486
G1 X130.925 Y116.255 E0.02793
G1 X130.925 Y127.216 E0.34368
G1 X131.111 Y127.031 E0.00824
G1 X131.679 Y126.271 E0.02974
G1 X131.679 Y117.200 E0.28442
G1 X131.802 Y117.364 E0.00643
G1 X132.355 Y118.377 E0.03617
G1 X132.433 Y118.587 E0.00703
G1 X132.433 Y125.305 E0.21064
G1 F8640
G1 X132.433 Y122.014 E-0.76000
G1 E-0.04000 F2100.00000
G1 Z0.800 F10800.000
G1 X140.729 Y131.036
G1 Z0.200
G1 E0.80000 F2100.00000
G1 F1200
G1 X140.729 Y106.383 E0.77297
G1 X141.483 Y106.383 E0.02365
G1 X141.483 Y130.866 E0.76765
G1 X142.237 Y130.866 E0.02365
G1 X142.237 Y106.383 E0.76765
G1 X142.991 Y106.383 E0.02365
G1 X142.991 Y130.866 E0.76765
G1 X143.745 Y130.866 E0.02365
G1 X143.745 Y106.383 E0.76765
G1 X144.500 Y106.383 E0.02365
G1 X144.500 Y130.866 E0.76765
G1 X145.254 Y130.866 E0.02365
G1 X145.254 Y106.383 E0.76765
G1 X146.008 Y106.383 E0.02365
G1 X146.008 Y131.036 E0.77297
G1 F8640
G1 X146.008 Y127.744 E-0.76000
G1 E-0.04000 F2100.00000
G1 Z0.800 F10800.000
G1 X133.267 Y125.511
G1 Z0.200
G1 E0.80000 F2100.00000
G1 F1200
G1 X132.646 Y126.649 E0.04066
G1 X131.869 Y127.688 E0.04066
G1 X130.952 Y128.604 E0.04066
G1 X129.914 Y129.382 E0.04066
G1 X128.776 Y130.003 E0.04066
G1 X127.561 Y130.456 E0.04066
G1 X126.293 Y130.732 E0.04066
G1 X125.000 Y130.824 E0.04066
G1 X123.707 Y130.732 E0.04066
G1 X122.439 Y130.456 E0.04066
G1 X121.224 Y130.003 E0.04066
G1 X120.086 Y129.382 E0.04066
G1 X119.048 Y128.604 E0.04066
G1 X118.190 Y127.747 E0.03804
G1 X117.355 Y126.652 E0.04317
G1 X116.733 Y125.511 E0.04074
G1 X116.280 Y124.296 E0.04066
G1 X116.004 Y123.029 E0.04066
G1 X115.911 Y121.736 E0.04066
G1 X116.004 Y120.442 E0.04066
G1 X116.280 Y119.175 E0.04066
G1 X116.733 Y117.960 E0.04066
G1 X117.354 Y116.822 E0.04066
G1 X118.131 Y115.784 E0.04066
G1 X119.048 Y114.867 E0.04066
G1 X120.086 Y114.090 E0.04066
G1 X121.224 Y113.469 E0.04066
G1 X122.439 Y113.015 E0.04066
G1 X123.707 Y112.740 E0.04066
G1 X124.917 Y112.653 E0.03804
G1 X126.291 Y112.739 E0.04317
G1 X127.561 Y113.015 E0.04074
G1 X128.776 Y113.469 E0.04066
G1 X129.914 Y114.090 E0.04066
G1 X130.952 Y114.867 E0.04066
G1 X131.869 Y115.784 E0.04066
G1 X132.646 Y116.822 E0.04066
G1 X133.267 Y117.960 E0.04066
G1 X133.720 Y119.175 E0.04066
G1 X133.996 Y120.442 E0.04066
G1 X134.089 Y121.736 E0.04066
G1 X133.996 Y123.029 E0.04066
G1 X133.720 Y124.296 E0.04066
G1 X133.288 Y125.455 E0.03878
G1 X132.935 Y125.323 F10800.000
G1 F1200
G1 X132.328 Y126.445 E0.03999
G1 X131.583 Y127.440 E0.03897
G1 X130.704 Y128.319 E0.03897
G1 X129.709 Y129.064 E0.03897
G1 X128.618 Y129.659 E0.03897
G1 X127.454 Y130.093 E0.03897
G1 X126.240 Y130.358 E0.03897
G1 X125.000 Y130.446 E0.03897
G1 X123.760 Y130.358 E0.03897
G1 X122.546 Y130.093 E0.03897
G1 X121.382 Y129.659 E0.03897
G1 X120.291 Y129.064 E0.03897
G1 X119.296 Y128.319 E0.03897
G1 X118.475 Y127.498 E0.03640
G1 X117.673 Y126.446 E0.04148
G1 X117.077 Y125.354 E0.03900
G1 X116.642 Y124.190 E0.03897
G1 X116.378 Y122.975 E0.03897
G1 X116.289 Y121.736 E0.03897
G1 X116.378 Y120.496 E0.03897
G1 X116.642 Y119.282 E0.03897
G1 X117.077 Y118.117 E0.03897
G1 X117.672 Y117.027 E0.03897
G1 X118.417 Y116.032 E0.03897
G1 X119.296 Y115.153 E0.03897
G1 X120.291 Y114.408 E0.03897
G1 X121.382 Y113.812 E0.03897
G1 X122.546 Y113.378 E0.03897
G1 X123.760 Y113.114 E0.03897
G1 X124.918 Y113.031 E0.03640
G1 X126.239 Y113.114 E0.04148
G1 X127.454 Y113.378 E0.03900
G1 X128.618 Y113.812 E0.03897
G1 X129.709 Y114.408 E0.03897
G1 X130.704 Y115.153 E0.03897
G1 X131.583 Y116.032 E0.03897
G1 X132.328 Y117.027 E0.03897
G1 X132.923 Y118.117 E0.03897
G1 X133.358 Y119.282 E0.03897
G1 X133.622 Y120.496 E0.03897
G1 X133.711 Y121.736 E0.03897
G1 X133.622 Y122.975 E0.03897
G1 X133.358 Y124.190 E0.03897
G1 X132.956 Y125.267 E0.03605
G1 X133.168 Y125.649 F10800.000
G1 F8640
G1 X132.328 Y126.445 E-0.30824
G1 X131.583 Y127.440 E-0.28697
G1 X131.078 Y127.945 E-0.16479
G1 E-0.04000 F2100.00000
G1 Z0.800 F10800.000
G1 X139.491 Y130.949
G1 Z0.200
G1 E0.80000 F2100.00000
G1 F1200
G1 X139.262 Y131.387 E0.01550
G1 X139.095 Y131.638 E0.00946
G1 X138.835 Y131.935 E0.01238
G1 X138.538 Y132.195 E0.01238
G1 X138.209 Y132.414 E0.01238
G1 X137.855 Y132.589 E0.01238
G1 X137.481 Y132.716 E0.01238
G1 X137.094 Y132.793 E0.01238
G1 X136.681 Y132.820 E0.01298
G1 X113.319 Y132.820 E0.73249
G1 X112.906 Y132.793 E0.01298
G1 X112.519 Y132.716 E0.01238
G1 X112.145 Y132.589 E0.01238
G1 X111.791 Y132.414 E0.01238
G1 X111.462 Y132.195 E0.01238
G1 X111.165 Y131.935 E0.01238
G1 X110.905 Y131.638 E0.01238
G1 X110.686 Y131.309 E0.01238
G1 X110.511 Y130.955 E0.01238
G1 X110.384 Y130.581 E0.01238
G1 X110.307 Y130.194 E0.01238
G1 X110.280 Y129.781 E0.01298
G1 X110.280 Y107.419 E0.70113
G1 X110.307 Y107.006 E0.01298
G1 X110.384 Y106.619 E0.01238
G1 X110.509 Y106.251 E0.01217
G1 X110.738 Y105.813 E0.01550
G1 X110.905 Y105.562 E0.00946
G1 X111.165 Y105.265 E0.01238
G1 X111.462 Y105.005 E0.01238
G1 X111.791 Y104.786 E0.01238
G1 X112.145 Y104.611 E0.01238
G1 X112.519 Y104.484 E0.01238
G1 X112.906 Y104.407 E0.01238
G1 X113.319 Y104.380 E0.01298
G1 X136.781 Y104.387 E0.73562
G1 X137.094 Y104.407 E0.00985
G1 X137.481 Y104.484 E0.01238
G1 X137.855 Y104.611 E0.01238
G1 X138.209 Y104.786 E0.01238
G1 X138.538 Y105.005 E0.01238
G1 X138.835 Y105.265 E0.01238
G1 X139.095 Y105.562 E0.01238
G1 X139.314 Y105.891 E0.01238
G1 X139.489 Y106.245 E0.01238
G1 X139.616 Y106.619 E0.01238
G1 X139.693 Y107.006 E0.01238
G1 X139.720 Y107.419 E0.01298
G1 X139.720 Y129.781 E0.70113
G1 X139.693 Y130.194 E0.01298
G1 X139.616 Y130.581 E0.01238
G1 X139.510 Y130.892 E0.01029
G1 X139.867 Y131.013 F10800.000
G1 F1200
G1 X139.587 Y131.580 E0.01981
G1 X139.395 Y131.868 E0.01087
G1 X139.102 Y132.202 E0.01393
G1 X138.768 Y132.495 E0.01393
G1 X138.398 Y132.742 E0.01393
G1 X138.000 Y132.938 E0.01393
G1 X137.579 Y133.081 E0.01393
G1 X137.143 Y133.168 E0.01393
G1 X136.693 Y133.197 E0.01415
G1 X113.307 Y133.197 E0.73326
G1 X112.857 Y133.168 E0.01415
G1 X112.421 Y133.081 E0.01393
G1 X112.000 Y132.938 E0.01393
G1 X111.602 Y132.742 E0.01393
G1 X111.232 Y132.495 E0.01393
G1 X110.898 Y132.202 E0.01393
G1 X110.605 Y131.868 E0.01393
G1 X110.358 Y131.498 E0.01393
G1 X110.162 Y131.100 E0.01393
G1 X110.019 Y130.679 E0.01393
G1 X109.932 Y130.243 E0.01393
G1 X109.903 Y129.793 E0.01415
G1 X109.903 Y107.407 E0.70191
G1 X109.932 Y106.957 E0.01415
G1 X110.019 Y106.521 E0.01393
G1 X110.161 Y106.102 E0.01386
G1 X110.413 Y105.621 E0.01705
G1 X110.605 Y105.332 E0.01087
G1 X110.898 Y104.998 E0.01393
G1 X111.232 Y104.705 E0.01393
G1 X111.602 Y104.458 E0.01393
G1 X112.000 Y104.262 E0.01393
G1 X112.421 Y104.119 E0.01393
G1 X112.857 Y104.032 E0.01393
G1 X113.307 Y104.003 E0.01415
G1 X136.793 Y104.009 E0.73639
G1 X137.143 Y104.032 E0.01101
G1 X137.579 Y104.119 E0.01393
G1 X138.000 Y104.262 E0.01393
G1 X138.398 Y104.458 E0.01393
G1 X138.768 Y104.705 E0.01393
G1 X139.102 Y104.998 E0.01393
G1 X139.395 Y105.332 E0.01393
G1 X139.642 Y105.702 E0.01393
G1 X139.838 Y106.100 E0.01393
G1 X139.981 Y106.521 E0.01393
G1 X140.068 Y106.957 E0.01393
G1 X140.097 Y107.407 E0.01415
G1 X140.097 Y129.793 E0.70191
G1 X140.068 Y130.243 E0.01415
G1 X139.981 Y130.679 E0.01393
G1 X139.887 Y130.956 E0.00918
G1 X139.471 Y131.066 F10800.000
G1 F8640
G1 X139.587 Y131.580 E-0.15962
G1 X139.395 Y131.868 E-0.08005
G1 X139.102 Y132.202 E-0.10259
G1 X138.768 Y132.495 E-0.10259
G1 X138.398 Y132.742 E-0.10259
G1 X138.000 Y132.938 E-0.10259
G1 X137.579 Y133.081 E-0.10259
G1 X137.548 Y133.087 E-0.00738
G1 E-0.04000 F2100.00000
G1 Z0.800 F10800.000
G1 X139.607 Y124.106
G1 Z0.200
G1 E0.80000 F2100.00000
G1 F1200
G1 X133.633 Y118.132 E0.26592
G1 X133.952 Y118.986 E0.02868
G1 X139.437 Y124.472 E0.24419
G1 X139.437 Y125.007 E0.01685
G1 X134.122 Y119.692 E0.23660
G1 X134.271 Y120.376 E0.02204
G1 X139.437 Y125.542 E0.22997
G1 X139.437 Y126.078 E0.01685
G1 X134.316 Y120.957 E0.22796
G1 X134.358 Y121.533 E0.01820
G1 X139.437 Y126.613 E0.22612
G1 X139.437 Y127.148 E0.01685
G1 X134.349 Y122.060 E0.22651
M73 Q1 S67
G1 X134.313 Y122.560 E0.01577
G1 X139.437 Y127.684 E0.22810
M73 P1 R67
G1 X139.437 Y128.219 E0.01685
G1 X134.277 Y123.059 E0.22969
G1 X134.183 Y123.500 E0.01419
G1 X139.437 Y128.754 E0.23389
G1 X139.437 Y129.290 E0.01685
G1 X134.087 Y123.940 E0.23815
G1 X133.991 Y124.379 E0.01416
G1 X139.434 Y129.822 E0.24228
G1 X139.412 Y130.157 E0.01057
G1 X139.382 Y130.306 E0.00477
G1 X133.846 Y124.769 E0.24646
G1 X133.700 Y125.159 E0.01310
G1 X139.268 Y130.727 E0.24784
G1 X139.230 Y130.837 E0.00368
G1 X139.098 Y131.092 E0.00903
G1 X133.555 Y125.549 E0.24673
G1 X133.375 Y125.904 E0.01254
G1 X138.896 Y131.426 E0.24579
G1 X138.651 Y131.715 E0.01196
G1 X133.186 Y126.251 E0.24327
G1 X132.997 Y126.597 E0.01242
G1 X138.368 Y131.968 E0.23909
G1 X138.045 Y132.180 E0.01217
G1 X132.791 Y126.927 E0.23386
G1 X132.562 Y127.233 E0.01204
G1 X137.679 Y132.350 E0.22779
G1 X137.408 Y132.442 E0.00902
G1 X137.265 Y132.471 E0.00460
G1 X132.333 Y127.539 E0.21953
G1 X132.104 Y127.845 E0.01204
G1 X136.788 Y132.530 E0.20852
G1 X136.260 Y132.537 E0.01661
G1 X131.840 Y128.116 E0.19679
G1 X131.572 Y128.384 E0.01192
G1 X135.725 Y132.537 E0.18487
G1 X135.190 Y132.537 E0.01685
G1 X131.304 Y128.652 E0.17296
G1 X131.137 Y128.819 E0.00743
G1 X131.022 Y128.905 E0.00453
G1 X134.654 Y132.537 E0.16169
G1 X134.119 Y132.537 E0.01685
G1 X130.716 Y129.134 E0.15149
G1 X130.410 Y129.363 E0.01204
G1 X133.584 Y132.537 E0.14128
G1 X133.048 Y132.537 E0.01685
G1 X130.104 Y129.593 E0.13108
G1 X129.762 Y129.786 E0.01236
G1 X132.513 Y132.537 E0.12245
G1 X131.978 Y132.537 E0.01685
G1 X129.416 Y129.976 E0.11403
G1 X129.070 Y130.165 E0.01242
G1 X131.442 Y132.537 E0.10562
G1 X130.907 Y132.537 E0.01685
G1 X128.702 Y130.332 E0.09815
G1 X128.312 Y130.478 E0.01310
G1 X130.371 Y132.537 E0.09168
G1 X129.836 Y132.537 E0.01685
G1 X127.922 Y130.623 E0.08520
G1 X127.640 Y130.728 E0.00946
G1 X127.518 Y130.755 E0.00393
G1 X129.301 Y132.537 E0.07935
G1 X128.765 Y132.537 E0.01685
G1 X127.079 Y130.850 E0.07509
G1 X126.639 Y130.946 E0.01416
G1 X128.230 Y132.537 E0.07083
G1 X127.695 Y132.537 E0.01685
G1 X126.181 Y131.023 E0.06739
G1 X125.681 Y131.059 E0.01577
G1 X127.159 Y132.537 E0.06580
G1 X126.624 Y132.537 E0.01685
G1 X125.182 Y131.095 E0.06421
G1 X125.000 Y131.108 E0.00573
G1 X124.633 Y131.082 E0.01158
G1 X126.089 Y132.537 E0.06480
G1 X125.553 Y132.537 E0.01685
G1 X124.056 Y131.040 E0.06663
G1 X123.666 Y131.012 E0.01231
G1 X123.445 Y130.964 E0.00712
G1 X125.018 Y132.537 E0.07002
G1 X124.483 Y132.537 E0.01685
G1 X122.761 Y130.816 E0.07664
G1 X122.360 Y130.728 E0.01293
G1 X122.007 Y130.597 E0.01186
G1 X123.947 Y132.537 E0.08639
G1 X123.412 Y132.537 E0.01685
G1 X120.744 Y129.870 E0.11874
G1 X119.991 Y129.652 F10800.000
G1 F1200
G1 X122.876 Y132.537 E0.12845
G1 X122.341 Y132.537 E0.01685
G1 X110.563 Y120.759 E0.52432
G1 X110.563 Y121.294 E0.01685
G1 X121.806 Y132.537 E0.50048
G1 X121.270 Y132.537 E0.01685
G1 X110.563 Y121.830 E0.47665
G1 X110.563 Y122.365 E0.01685
G1 X120.735 Y132.537 E0.45282
G1 X120.200 Y132.537 E0.01685
G1 X110.563 Y122.900 E0.42899
G1 X110.563 Y123.436 E0.01685
G1 X119.664 Y132.537 E0.40516
G1 X119.129 Y132.537 E0.01685
G1 X110.563 Y123.971 E0.38133
G1 X110.563 Y124.506 E0.01685
G1 X118.594 Y132.537 E0.35749
G1 X118.058 Y132.537 E0.01685
G1 X110.563 Y125.042 E0.33366
G1 X110.563 Y125.577 E0.01685
G1 X117.523 Y132.537 E0.30983
G1 X116.988 Y132.537 E0.01685
G1 X110.563 Y126.112 E0.28600
G1 X110.563 Y126.648 E0.01685
G1 X116.452 Y132.537 E0.26217
G1 X115.917 Y132.537 E0.01685
G1 X110.563 Y127.183 E0.23834
G1 X110.563 Y127.719 E0.01685
G1 X115.381 Y132.537 E0.21451
G1 X114.846 Y132.537 E0.01685
G1 X110.563 Y128.254 E0.19067
G1 X110.563 Y128.789 E0.01685
G1 X114.311 Y132.537 E0.16684
G1 X113.775 Y132.537 E0.01685
