; generated by Slic3r Prusa Edition 1.41.0+win64 on 2019-02-10 at 19:23:10

; 

; external perimeters extrusion width = 0.45mm
; perimeters extrusion width = 0.45mm
; infill extrusion width = 0.45mm
; solid infill extrusion width = 0.45mm
; top infill extrusion width = 0.40mm
; support material extrusion width = 0.35mm
; first layer extrusion width = 0.42mm

M201 X1000 Y1000 Z1000 E5000 ; sets maximum accelerations, mm/sec^2
M203 X200 Y200 Z12 E120 ; sets maximum feedrates, mm/sec
M204 P1250 R1250 T1250 ; sets acceleration (P, T) and retract acceleration (R), mm/sec^2
M205 X8.00 Y8.00 Z0.40 E1.50 ; sets the jerk limits, mm/sec
M205 S0 T0 ; sets the minimum extruding and travel feed rate, mm/sec
M107
M115 U3.4.1 ; tell printer latest fw version
M83  ; extruder relative mode
M104 S215 ; set extruder temp
M140 S60 ; set bed temp
M190 S60 ; wait for bed temp
M109 S215 ; wait for extruder temp
G28 W ; home all without mesh bed level
G80 ; mesh bed leveling
G1 Y-3.0 F1000.0 ; go outside print area
G92 E0.0
G1 X60.0 E9.0  F1000.0 ; intro line
M73 Q0 S58
M73 P0 R57
G1 X100.0 E12.5  F1000.0 ; intro line
G92 E0.0
M221 S95
M900 K30; Filament gcode
G21 ; set units to millimeters
G90 ; use absolute coordinates
M83 ; use relative distances for extrusion
;BEFORE_LAYER_CHANGE
G92 E0.0
;0.2


G1 E-0.80000 F2100.00000
G1 Z0.600 F10800.000
;AFTER_LAYER_CHANGE
;0.2
G1 X85.599 Y70.830
G1 Z0.200
G1 E0.80000 F2100.00000
M204 S1000
G1 F1200
G1 X86.898 Y69.447 E0.05949
G1 X88.321 Y68.192 E0.05949
G1 X89.855 Y67.076 E0.05949
G1 X91.488 Y66.108 E0.05949
G1 X93.204 Y65.299 E0.05949
G1 X94.988 Y64.654 E0.05949
G1 X96.826 Y64.180 E0.05949
G1 X127.637 Y59.162 E0.97879
G1 X129.554 Y59.062 E0.06019
G1 X148.062 Y59.061 E0.58031
G1 X149.858 Y59.142 E0.05637
G1 X151.650 Y59.385 E0.05671
G1 X153.403 Y59.784 E0.05637
G1 X155.124 Y60.341 E0.05671
G1 X156.788 Y61.050 E0.05671
G1 X158.382 Y61.905 E0.05671
G1 X159.884 Y62.893 E0.05637
G1 X161.300 Y64.018 E0.05671
G1 X163.366 Y66.014 E0.09006
G1 X164.396 Y67.131 E0.04767
G1 X165.515 Y68.567 E0.05706
G1 X166.506 Y70.106 E0.05741
G1 X167.386 Y71.800 E0.05984
G1 X168.106 Y73.580 E0.06019
G1 X168.653 Y75.420 E0.06019
G1 X169.023 Y77.303 E0.06019
G1 X169.239 Y80.112 E0.08833
G1 X169.216 Y105.215 E0.78709
G1 X166.614 Y127.909 E0.71620
G1 X166.058 Y130.637 E0.08729
G1 X165.131 Y133.262 E0.08729
G1 X161.736 Y140.115 E0.23978
G1 X160.361 Y142.368 E0.08278
G1 X159.132 Y143.943 E0.06262
G1 X157.202 Y146.155 E0.09207
G1 X156.205 Y147.183 E0.04489
G1 X154.336 Y148.770 E0.07687
G1 X152.289 Y150.119 E0.07687
G1 X149.562 Y151.508 E0.09595
G1 X147.026 Y152.421 E0.08451
G1 X144.303 Y153.000 E0.08729
G1 X141.526 Y153.200 E0.08729
G1 X135.560 Y153.190 E0.18706
G1 X132.910 Y152.931 E0.08347
G1 X96.919 Y145.836 E1.15018
G1 X94.910 Y145.318 E0.06506
G1 X92.965 Y144.597 E0.06506
G1 X91.104 Y143.679 E0.06506
G1 X89.338 Y142.569 E0.06540
G1 X87.521 Y141.129 E0.07270
G1 X85.888 Y139.498 E0.07235
G1 X84.446 Y137.682 E0.07270
G1 X83.221 Y135.713 E0.07270
G1 X80.413 Y129.941 E0.20126
G1 X79.696 Y128.209 E0.05880
G1 X78.934 Y125.531 E0.08729
G1 X78.547 Y122.763 E0.08764
G1 X78.498 Y88.834 E1.06382
G1 X78.634 Y86.541 E0.07201
G1 X79.135 Y83.848 E0.08590
G1 X79.996 Y81.247 E0.08590
G1 X82.874 Y74.949 E0.21711
G1 X83.603 Y73.614 E0.04767
G1 X84.435 Y72.329 E0.04802
G1 X85.562 Y70.877 E0.05761
; PURGING FINISHED
G1 F8640
G1 X86.898 Y69.447 E-0.45193
G1 X87.898 Y68.564 E-0.30807
G1 E-0.04000 F2100.00000
G1 Z0.800 F10800.000
G1 X137.701 Y87.161
G1 Z0.200
G1 E0.80000 F2100.00000
G1 F1200
G1 X137.701 Y85.478 E0.05278
G1 X138.455 Y84.172 E0.04729
G1 X138.455 Y88.128 E0.12406
G1 X138.532 Y88.261 E0.00482
G1 X139.209 Y88.261 E0.02124
G1 X139.209 Y84.039 E0.13241
G1 X139.963 Y84.039 E0.02365
G1 X139.963 Y88.261 E0.13241
G1 X140.717 Y88.261 E0.02365
G1 X140.717 Y84.039 E0.13241
G1 X140.970 Y84.039 E0.00792
G1 X141.472 Y84.907 E0.03146
G1 X141.472 Y87.732 E0.08856
G1 F8640
G1 X141.472 Y84.907 E-0.65219
G1 X141.238 Y84.503 E-0.10781
G1 E-0.04000 F2100.00000
G1 Z0.800 F10800.000
G1 X140.717 Y129.229
G1 Z0.200
G1 E0.80000 F2100.00000
G1 F1200
G1 X140.717 Y126.910 E0.07272
G1 X140.070 Y125.789 E0.04060
G1 X139.963 Y125.789 E0.00334
G1 X139.963 Y130.011 E0.13241
G1 X139.209 Y130.011 E0.02365
G1 X139.209 Y125.789 E0.13241
G1 X138.455 Y125.789 E0.02365
G1 X138.455 Y130.011 E0.13241
G1 X137.701 Y130.011 E0.02365
G1 X137.701 Y125.789 E0.13241
G1 X137.632 Y125.789 E0.00216
G1 X136.947 Y126.975 E0.04297
G1 X136.947 Y129.164 E0.06862
G1 F8640
G1 X136.947 Y126.975 E-0.50537
G1 X137.498 Y126.020 E-0.25463
G1 E-0.04000 F2100.00000
G1 Z0.800 F10800.000
G1 X135.438 Y132.551
G1 Z0.200
G1 E0.80000 F2100.00000
G1 F1200
G1 X135.438 Y131.164 E0.04351
G1 X136.192 Y131.164 E0.02365
G1 X136.192 Y133.011 E0.05794
G1 X136.947 Y133.011 E0.02365
G1 X136.947 Y131.164 E0.05794
G1 X137.701 Y131.164 E0.02365
G1 X137.701 Y133.011 E0.05794
G1 X138.455 Y133.011 E0.02365
G1 X138.455 Y131.164 E0.05794
G1 X139.209 Y131.164 E0.02365
G1 X139.209 Y133.011 E0.05794
G1 X139.963 Y133.011 E0.02365
G1 X139.963 Y131.164 E0.05794
G1 X140.717 Y131.164 E0.02365
G1 X140.717 Y133.011 E0.05794
G1 X141.472 Y133.011 E0.02365
G1 X141.472 Y131.164 E0.05794
G1 X142.226 Y131.164 E0.02365
G1 X142.226 Y132.617 E0.04556
G1 F8640
G1 X142.226 Y131.164 E-0.33553
G1 X141.472 Y131.164 E-0.17414
G1 X141.472 Y132.248 E-0.25033
G1 E-0.04000 F2100.00000
G1 Z0.800 F10800.000
G1 X141.765 Y89.639
G1 Z0.200
G1 E0.80000 F2100.00000
G1 F1200
G1 X137.736 Y89.639 E0.12632
G1 X135.722 Y86.150 E0.12632
G1 X137.736 Y82.661 E0.12632
G1 X141.765 Y82.661 E0.12632
G1 X143.780 Y86.150 E0.12632
G1 X141.795 Y89.587 E0.12444
G1 X141.548 Y89.262 F10800.000
G1 F1200
G1 X137.954 Y89.262 E0.11267
G1 X136.157 Y86.150 E0.11267
G1 X137.954 Y83.038 E0.11267
G1 X141.548 Y83.038 E0.11267
G1 X143.344 Y86.150 E0.11267
G1 X141.578 Y89.210 E0.11079
G1 X141.330 Y88.885 F10800.000
G1 F1200
G1 X138.172 Y88.885 E0.09902
G1 X136.593 Y86.150 E0.09902
G1 X138.172 Y83.415 E0.09902
G1 X141.330 Y83.415 E0.09902
G1 X142.909 Y86.150 E0.09902
G1 X141.360 Y88.833 E0.09714
G1 X141.330 Y89.285 F10800.000
G1 F8640
G1 X138.172 Y88.885 E-0.73624
G1 X138.120 Y88.796 E-0.02376
G1 E-0.04000 F2100.00000
G1 Z0.800 F10800.000
G1 X147.202 Y104.286
G1 Z0.200
G1 E0.80000 F2100.00000
G1 F1200
G1 X145.637 Y105.851 E0.06939
G1 X145.637 Y125.022 E0.60112
G1 X143.255 Y129.786 E0.16698
G1 X141.791 Y129.786 E0.04590
G1 X142.880 Y127.900 E0.06828
G1 X140.865 Y124.411 E0.12632
G1 X136.836 Y124.411 E0.12632
G1 X134.822 Y127.900 E0.12632
G1 X135.911 Y129.786 E0.06828
G1 X134.447 Y129.786 E0.04590
G1 X132.065 Y125.022 E0.16698
G1 X132.065 Y105.851 E0.60112
G1 X130.500 Y104.286 E0.06939
G1 X130.050 Y104.286 E0.01411
G1 X129.615 Y103.851 E0.01930
G1 X129.615 Y80.649 E0.72746
G1 X130.050 Y80.214 E0.01930
G1 X147.652 Y80.214 E0.55188
G1 X148.087 Y80.649 E0.01930
G1 X148.087 Y103.851 E0.72746
G1 X147.652 Y104.286 E0.01930
G1 X147.262 Y104.286 E0.01223
G1 X147.358 Y104.663 F10800.000
G1 F1200
G1 X146.014 Y106.007 E0.05959
G1 X146.014 Y125.111 E0.59901
G1 X143.488 Y130.163 E0.17708
G1 X141.138 Y130.163 E0.07369
G1 X142.444 Y127.900 E0.08193
G1 X140.648 Y124.788 E0.11267
G1 X137.054 Y124.788 E0.11267
G1 X135.257 Y127.900 E0.11267
G1 X136.564 Y130.163 E0.08193
G1 X134.214 Y130.163 E0.07369
G1 X131.688 Y125.111 E0.17708
G1 X131.688 Y106.007 E0.59901
G1 X130.344 Y104.663 E0.05959
G1 X129.894 Y104.663 E0.01411
G1 X129.238 Y104.007 E0.02909
G1 X129.238 Y80.493 E0.73725
G1 X129.894 Y79.837 E0.02909
G1 X147.808 Y79.837 E0.56167
G1 X148.464 Y80.493 E0.02909
G1 X148.464 Y104.007 E0.73725
G1 X147.808 Y104.663 E0.02909
G1 X147.418 Y104.663 E0.01223
G1 X147.514 Y105.040 F10800.000
G1 F1200
G1 X146.391 Y106.163 E0.04980
G1 X146.391 Y125.200 E0.59690
G1 X143.721 Y130.540 E0.18718
G1 X140.485 Y130.540 E0.10147
G1 X142.009 Y127.900 E0.09558
G1 X140.430 Y125.165 E0.09902
G1 X137.272 Y125.165 E0.09902
G1 X135.693 Y127.900 E0.09902
G1 X137.217 Y130.540 E0.09558
G1 X133.981 Y130.540 E0.10147
G1 X131.311 Y125.200 E0.18718
G1 X131.311 Y106.163 E0.59690
G1 X130.188 Y105.040 E0.04980
G1 X129.738 Y105.040 E0.01411
G1 X128.861 Y104.163 E0.03889
G1 X128.861 Y80.337 E0.74705
G1 X129.738 Y79.460 E0.03889
G1 X147.964 Y79.460 E0.57146
G1 X148.841 Y80.337 E0.03889
G1 X148.841 Y104.163 E0.74705
G1 X147.964 Y105.040 E0.03889
G1 X147.574 Y105.040 E0.01223
G1 X147.135 Y104.911 F10800.000
G1 F8640
G1 X146.391 Y106.163 E-0.37664
G1 X146.391 Y107.823 E-0.38336
G1 E-0.04000 F2100.00000
G1 Z0.800 F10800.000
G1 X147.974 Y100.165
G1 Z0.200
G1 E0.80000 F2100.00000
G1 F1200
G1 X129.898 Y82.089 E0.80277
G1 X129.898 Y82.623 E0.01677
G1 X147.804 Y100.529 E0.79523
G1 X147.804 Y101.063 E0.01677
G1 X129.898 Y83.157 E0.79523
G1 X129.898 Y83.691 E0.01677
G1 X147.804 Y101.597 E0.79523
G1 X147.804 Y102.131 E0.01677
G1 X129.898 Y84.225 E0.79523
G1 X129.898 Y84.759 E0.01677
G1 X147.804 Y102.665 E0.79523
M73 Q1 S57
G1 X147.804 Y103.200 E0.01677
G1 X129.898 Y85.293 E0.79523
M73 P1 R56
G1 X129.898 Y85.828 E0.01677
G1 X147.804 Y103.734 E0.79523
G1 X147.537 Y104.001 E0.01186
G1 X129.898 Y86.362 E0.78337
G1 X129.898 Y86.896 E0.01677
G1 X147.045 Y104.043 E0.76152
G1 X146.778 Y104.310 E0.01186
G1 X129.898 Y87.430 E0.74966
G1 X129.898 Y87.964 E0.01677
G1 X146.511 Y104.577 E0.73780
G1 X146.244 Y104.844 E0.01186
G1 X129.898 Y88.498 E0.72594
G1 X129.898 Y89.032 E0.01677
G1 X145.977 Y105.111 E0.71408
G1 X145.710 Y105.378 E0.01186
G1 X129.898 Y89.566 E0.70222
G1 X129.898 Y90.100 E0.01677
G1 X145.442 Y105.645 E0.69036
G1 X145.354 Y105.733 E0.00393
G1 X145.354 Y106.091 E0.01121
G1 X129.898 Y90.634 E0.68642
G1 X129.898 Y91.169 E0.01677
G1 X145.354 Y106.625 E0.68642
G1 X145.354 Y107.159 E0.01677
G1 X129.898 Y91.703 E0.68642
G1 X129.898 Y92.237 E0.01677
G1 X145.354 Y107.693 E0.68642
G1 X145.354 Y108.227 E0.01677
G1 X129.898 Y92.771 E0.68642
G1 X129.898 Y93.305 E0.01677
G1 X145.354 Y108.761 E0.68642
G1 X145.354 Y109.295 E0.01677
G1 X129.898 Y93.839 E0.68642
G1 X129.898 Y94.373 E0.01677
G1 X145.354 Y109.829 E0.68642
G1 X145.354 Y110.363 E0.01677
G1 X129.898 Y94.907 E0.68642
G1 X129.898 Y95.441 E0.01677
G1 X145.354 Y110.898 E0.68642
G1 X145.354 Y111.432 E0.01677
G1 X129.898 Y95.976 E0.68642
G1 X129.898 Y96.510 E0.01677
G1 X145.354 Y111.966 E0.68642
G1 X145.354 Y112.500 E0.01677
G1 X129.898 Y97.044 E0.68642
G1 X129.898 Y97.578 E0.01677
G1 X145.354 Y113.034 E0.68642
G1 X145.354 Y113.568 E0.01677
G1 X129.898 Y98.112 E0.68642
G1 X129.898 Y98.646 E0.01677
G1 X145.354 Y114.102 E0.68642
G1 X145.354 Y114.636 E0.01677
G1 X129.898 Y99.180 E0.68642
G1 X129.898 Y99.714 E0.01677
G1 X145.354 Y115.170 E0.68642
G1 X145.354 Y115.705 E0.01677
G1 X129.898 Y100.248 E0.68642
G1 X129.898 Y100.783 E0.01677
G1 X145.354 Y116.239 E0.68642
G1 X145.354 Y116.773 E0.01677
G1 X129.898 Y101.317 E0.68642
G1 X129.898 Y101.851 E0.01677
G1 X145.354 Y117.307 E0.68642
G1 X145.354 Y117.841 E0.01677
G1 X129.898 Y102.385 E0.68642
G1 X129.898 Y102.919 E0.01677
G1 X145.354 Y118.375 E0.68642
G1 X145.354 Y118.909 E0.01677
G1 X129.728 Y103.283 E0.69396
G1 F8640
G1 X132.056 Y105.611 E-0.76000
G1 E-0.04000 F2100.00000
G1 Z0.800 F10800.000
G1 X138.095 Y89.752
G1 Z0.200
G1 E0.80000 F2100.00000
G1 F1200
G1 X147.804 Y99.461 E0.43117
G1 X147.804 Y98.927 E0.01677
G1 X138.799 Y89.922 E0.39991
G1 X139.333 Y89.922 E0.01677
G1 X147.804 Y98.393 E0.37619
G1 X147.804 Y97.858 E0.01677
G1 X139.867 Y89.922 E0.35247
G1 X140.402 Y89.922 E0.01677
G1 X147.804 Y97.324 E0.32875
G1 X147.804 Y96.790 E0.01677
G1 X140.936 Y89.922 E0.30503
G1 X141.470 Y89.922 E0.01677
G1 X147.804 Y96.256 E0.28131
G1 X147.804 Y95.722 E0.01677
G1 X141.956 Y89.874 E0.25971
G1 X142.152 Y89.536 E0.01228
G1 X147.804 Y95.188 E0.25102
G1 X147.804 Y94.654 E0.01677
G1 X142.347 Y89.197 E0.24234
G1 X142.543 Y88.858 E0.01228
G1 X147.804 Y94.120 E0.23366
G1 X147.804 Y93.586 E0.01677
G1 X142.738 Y88.520 E0.22498
G1 X142.934 Y88.181 E0.01228
G1 X147.804 Y93.051 E0.21630
G1 X147.804 Y92.517 E0.01677
G1 X143.129 Y87.843 E0.20761
G1 X143.325 Y87.504 E0.01228
G1 X147.804 Y91.983 E0.19893
G1 X147.804 Y91.449 E0.01677
G1 X143.520 Y87.165 E0.19025
G1 X143.716 Y86.827 E0.01228
G1 X147.804 Y90.915 E0.18157
G1 X147.804 Y90.381 E0.01677
G1 X143.911 Y86.488 E0.17288
G1 X144.105 Y86.148 E0.01229
G1 X147.974 Y90.017 E0.17180
G1 X147.974 Y89.482 F10800.000
G1 F1200
G1 X142.912 Y84.421 E0.22479
G1 F8640
G1 X145.240 Y86.748 E-0.76000
G1 E-0.04000 F2100.00000
G1 Z0.800 F10800.000
G1 X142.183 Y83.157
G1 Z0.200
G1 E0.80000 F2100.00000
G1 F1200
G1 X147.974 Y88.948 E0.25719
G1 F8640
G1 X145.646 Y86.621 E-0.76000
G1 E-0.04000 F2100.00000
G1 Z0.800 F10800.000
G1 X147.974 Y80.937
G1 Z0.200
G1 E0.80000 F2100.00000
G1 F1200
G1 X147.534 Y80.497 E0.01953
G1 X147.000 Y80.497 E0.01677
G1 X147.804 Y81.301 E0.03571
G1 X147.804 Y81.835 E0.01677
G1 X146.466 Y80.497 E0.05943
G1 X145.932 Y80.497 E0.01677
G1 X147.804 Y82.369 E0.08315
G1 X147.804 Y82.903 E0.01677
G1 X145.397 Y80.497 E0.10687
G1 X144.863 Y80.497 E0.01677
G1 X147.804 Y83.438 E0.13059
G1 X147.804 Y83.972 E0.01677
G1 X144.329 Y80.497 E0.15432
G1 X143.795 Y80.497 E0.01677
G1 X147.804 Y84.506 E0.17804
G1 X147.804 Y85.040 E0.01677
G1 X143.261 Y80.497 E0.20176
G1 X142.727 Y80.497 E0.01677
G1 X147.804 Y85.574 E0.22548
G1 X147.804 Y86.108 E0.01677
G1 X142.193 Y80.497 E0.24920
G1 X141.659 Y80.497 E0.01677
G1 X147.804 Y86.642 E0.27292
G1 X147.804 Y87.176 E0.01677
G1 X141.125 Y80.497 E0.29664
G1 X140.591 Y80.497 E0.01677
G1 X147.804 Y87.710 E0.32036
G1 X147.804 Y88.244 E0.01677
G1 X140.056 Y80.497 E0.34408
G1 X139.522 Y80.497 E0.01677
G1 X141.403 Y82.378 E0.08354
G1 X140.869 Y82.378 E0.01677
G1 X138.988 Y80.497 E0.08354
G1 X138.454 Y80.497 E0.01677
G1 X140.335 Y82.378 E0.08354
G1 X139.801 Y82.378 E0.01677
G1 X137.920 Y80.497 E0.08354
G1 X137.386 Y80.497 E0.01677
G1 X139.267 Y82.378 E0.08354
G1 X138.733 Y82.378 E0.01677
G1 X136.852 Y80.497 E0.08354
G1 X136.318 Y80.497 E0.01677
G1 X138.199 Y82.378 E0.08354
G1 X137.665 Y82.378 E0.01677
G1 X135.784 Y80.497 E0.08354
G1 X135.249 Y80.497 E0.01677
G1 X137.411 Y82.659 E0.09600
G1 X137.216 Y82.997 E0.01228
G1 X134.715 Y80.497 E0.11104
G1 X134.181 Y80.497 E0.01677
G1 X137.020 Y83.336 E0.12608
G1 X136.825 Y83.674 E0.01228
G1 X133.647 Y80.497 E0.14112
G1 X133.113 Y80.497 E0.01677
G1 X136.629 Y84.013 E0.15616
G1 X136.434 Y84.352 E0.01228
G1 X132.579 Y80.497 E0.17120
G1 X132.045 Y80.497 E0.01677
G1 X136.238 Y84.690 E0.18623
G1 X136.043 Y85.029 E0.01228
G1 X131.511 Y80.497 E0.20127
G1 X130.977 Y80.497 E0.01677
G1 X135.847 Y85.368 E0.21631
M73 Q3 S56
G1 X135.652 Y85.706 E0.01228
G1 X130.442 Y80.497 E0.23135
G1 X130.167 Y80.497 E0.00864
G1 X130.038 Y80.626 E0.00575
G1 X135.456 Y86.045 E0.24063
G1 X135.395 Y86.150 E0.00382
G1 X135.898 Y87.021 E0.03158
G1 X129.898 Y81.021 E0.26649
M73 P3 R55
G1 X129.898 Y81.555 E0.01677
G1 X137.092 Y88.748 E0.31948
G1 F8640
G1 X134.764 Y86.421 E-0.76000
G1 E-0.04000 F2100.00000
G1 Z0.800 F10800.000
G1 X145.524 Y119.613
G1 Z0.200
G1 E0.80000 F2100.00000
G1 F1200
G1 X132.348 Y106.437 E0.58515
G1 X132.348 Y106.971 E0.01677
G1 X145.354 Y119.977 E0.57762
G1 X145.354 Y120.511 E0.01677
G1 X132.348 Y107.505 E0.57762
G1 X132.348 Y108.039 E0.01677
G1 X145.354 Y121.046 E0.57762
G1 X145.354 Y121.580 E0.01677
G1 X132.348 Y108.574 E0.57762
G1 X132.348 Y109.108 E0.01677
G1 X145.354 Y122.114 E0.57762
G1 X145.354 Y122.648 E0.01677
G1 X132.348 Y109.642 E0.57762
G1 X132.348 Y110.176 E0.01677
G1 X145.354 Y123.182 E0.57762
G1 X145.354 Y123.716 E0.01677
G1 X132.348 Y110.710 E0.57762
G1 X132.348 Y111.244 E0.01677
G1 X145.354 Y124.250 E0.57762
G1 X145.354 Y124.784 E0.01677
G1 X132.348 Y111.778 E0.57762
G1 X132.348 Y112.312 E0.01677
G1 X145.233 Y125.198 E0.57225
G1 X145.055 Y125.554 E0.01250
G1 X132.348 Y112.846 E0.56434
G1 X132.348 Y113.381 E0.01677
G1 X144.877 Y125.910 E0.55643
G1 X144.699 Y126.266 E0.01250
G1 X132.348 Y113.915 E0.54853
G1 X132.348 Y114.449 E0.01677
G1 X144.521 Y126.622 E0.54062
G1 X144.343 Y126.978 E0.01250
G1 X132.348 Y114.983 E0.53271
G1 X132.348 Y115.517 E0.01677
G1 X144.165 Y127.334 E0.52481
G1 X143.987 Y127.690 E0.01250
G1 X141.390 Y125.093 E0.11533
G1 F8640
