; generated by Slic3r Prusa Edition 1.41.0+win64 on 2019-02-10 at 16:21:28

; 

; external perimeters extrusion width = 0.45mm
; perimeters extrusion width = 0.45mm
; infill extrusion width = 0.45mm
; solid infill extrusion width = 0.45mm
; top infill extrusion width = 0.40mm
; support material extrusion width = 0.35mm
; first layer extrusion width = 0.42mm

M201 X1000 Y1000 Z1000 E5000 ; sets maximum accelerations, mm/sec^2
M203 X200 Y200 Z12 E120 ; sets maximum feedrates, mm/sec
M204 P1250 R1250 T1250 ; sets acceleration (P, T) and retract acceleration (R), mm/sec^2
M205 X8.00 Y8.00 Z0.40 E1.50 ; sets the jerk limits, mm/sec
M205 S0 T0 ; sets the minimum extruding and travel feed rate, mm/sec
M107
M115 U3.4.1 ; tell printer latest fw version
M83  ; extruder relative mode
M104 S215 ; set extruder temp
M140 S60 ; set bed temp
M190 S60 ; wait for bed temp
M109 S215 ; wait for extruder temp
G28 W ; home all without mesh bed level
G80 ; mesh bed leveling
G1 Y-3.0 F1000.0 ; go outside print area
G92 E0.0
G1 X60.0 E9.0  F1000.0 ; intro line
M73 Q0 S64
M73 P0 R64
G1 X100.0 E12.5  F1000.0 ; intro line
G92 E0.0
M221 S95
M900 K30; Filament gcode
G21 ; set units to millimeters
G90 ; use absolute coordinates
M83 ; use relative distances for extrusion
;BEFORE_LAYER_CHANGE
G92 E0.0
;0.2


G1 E-0.80000 F2100.00000
G1 Z0.600 F10800.000
;AFTER_LAYER_CHANGE
;0.2
G1 X73.698 Y69.447
G1 Z0.200
G1 E0.80000 F2100.00000
M204 S1000
G1 F1200
G1 X75.121 Y68.192 E0.05949
G1 X76.655 Y67.076 E0.05949
G1 X78.288 Y66.108 E0.05949
G1 X80.004 Y65.299 E0.05949
G1 X81.788 Y64.654 E0.05949
G1 X83.626 Y64.180 E0.05949
G1 X114.437 Y59.162 E0.97879
G1 X116.354 Y59.062 E0.06019
G1 X134.862 Y59.061 E0.58031
G1 X136.868 Y59.162 E0.06297
G1 X138.854 Y59.462 E0.06297
G1 X140.800 Y59.958 E0.06297
G1 X142.687 Y60.644 E0.06297
G1 X170.582 Y74.108 E0.97118
G1 X172.893 Y75.517 E0.08486
G1 X174.995 Y77.223 E0.08486
G1 X177.531 Y79.817 E0.11375
G1 X178.468 Y80.986 E0.04698
G1 X179.321 Y82.231 E0.04732
G1 X180.473 Y84.320 E0.07479
G1 X181.374 Y86.540 E0.07513
G1 X182.006 Y88.852 E0.07513
G1 X182.360 Y91.222 E0.07513
G1 X182.439 Y92.951 E0.05428
G1 X182.438 Y117.255 E0.76204
G1 X182.363 Y118.763 E0.04732
G1 X182.174 Y120.271 E0.04767
G1 X181.875 Y121.751 E0.04732
G1 X181.463 Y123.214 E0.04767
G1 X180.946 Y124.632 E0.04732
G1 X180.319 Y126.017 E0.04767
G1 X179.596 Y127.342 E0.04732
G1 X178.769 Y128.618 E0.04767
G1 X177.128 Y130.658 E0.08208
G1 X174.629 Y133.131 E0.11023
G1 X172.624 Y134.691 E0.07965
G1 X170.430 Y135.992 E0.08000
G1 X136.275 Y151.546 E1.17671
G1 X133.681 Y152.462 E0.08625
G1 X130.987 Y153.016 E0.08625
G1 X128.708 Y153.195 E0.07166
G1 X122.693 Y153.198 E0.18862
G1 X120.953 Y153.097 E0.05463
G1 X119.218 Y152.844 E0.05497
G1 X83.069 Y145.693 E1.15540
G1 X81.236 Y145.163 E0.05984
G1 X79.460 Y144.463 E0.05984
G1 X77.759 Y143.598 E0.05984
G1 X76.138 Y142.569 E0.06019
G1 X74.321 Y141.129 E0.07270
G1 X72.688 Y139.498 E0.07235
G1 X71.246 Y137.682 E0.07270
G1 X70.021 Y135.713 E0.07270
G1 X67.213 Y129.941 E0.20126
G1 X66.496 Y128.209 E0.05880
G1 X65.734 Y125.531 E0.08729
G1 X65.347 Y122.763 E0.08764
G1 X65.298 Y88.834 E1.06382
G1 X65.434 Y86.541 E0.07201
G1 X65.935 Y83.848 E0.08590
G1 X66.796 Y81.247 E0.08590
G1 X69.674 Y74.949 E0.21711
G1 X70.403 Y73.614 E0.04767
G1 X71.235 Y72.329 E0.04802
G1 X72.399 Y70.830 E0.05949
G1 X73.657 Y69.491 E0.05761
; PURGING FINISHED
G1 F8640
G1 X75.121 Y68.192 E-0.45193
G1 X76.200 Y67.407 E-0.30807
G1 E-0.04000 F2100.00000
G1 Z0.800 F10800.000
G1 X124.501 Y87.161
G1 Z0.200
G1 E0.80000 F2100.00000
G1 F1200
G1 X124.501 Y85.478 E0.05278
G1 X125.255 Y84.172 E0.04729
G1 X125.255 Y88.128 E0.12406
G1 X125.332 Y88.261 E0.00482
G1 X126.009 Y88.261 E0.02124
G1 X126.009 Y84.039 E0.13241
G1 X126.763 Y84.039 E0.02365
G1 X126.763 Y88.261 E0.13241
G1 X127.517 Y88.261 E0.02365
G1 X127.517 Y84.039 E0.13241
G1 X127.770 Y84.039 E0.00792
G1 X128.272 Y84.907 E0.03146
G1 X128.272 Y87.732 E0.08856
G1 F8640
G1 X128.272 Y84.907 E-0.65219
G1 X128.038 Y84.503 E-0.10781
G1 E-0.04000 F2100.00000
G1 Z0.800 F10800.000
G1 X127.517 Y129.229
G1 Z0.200
G1 E0.80000 F2100.00000
G1 F1200
G1 X127.517 Y126.910 E0.07272
G1 X126.870 Y125.789 E0.04060
G1 X126.763 Y125.789 E0.00334
G1 X126.763 Y130.011 E0.13241
G1 X126.009 Y130.011 E0.02365
G1 X126.009 Y125.789 E0.13241
G1 X125.255 Y125.789 E0.02365
G1 X125.255 Y130.011 E0.13241
G1 X124.501 Y130.011 E0.02365
G1 X124.501 Y125.789 E0.13241
G1 X124.432 Y125.789 E0.00216
G1 X123.747 Y126.975 E0.04297
G1 X123.747 Y129.164 E0.06862
G1 F8640
G1 X123.747 Y126.975 E-0.50537
G1 X124.298 Y126.020 E-0.25463
G1 E-0.04000 F2100.00000
G1 Z0.800 F10800.000
G1 X122.238 Y132.551
G1 Z0.200
G1 E0.80000 F2100.00000
G1 F1200
G1 X122.238 Y131.164 E0.04351
G1 X122.992 Y131.164 E0.02365
G1 X122.992 Y133.011 E0.05794
G1 X123.747 Y133.011 E0.02365
G1 X123.747 Y131.164 E0.05794
G1 X124.501 Y131.164 E0.02365
G1 X124.501 Y133.011 E0.05794
G1 X125.255 Y133.011 E0.02365
G1 X125.255 Y131.164 E0.05794
G1 X126.009 Y131.164 E0.02365
G1 X126.009 Y133.011 E0.05794
G1 X126.763 Y133.011 E0.02365
G1 X126.763 Y131.164 E0.05794
G1 X127.517 Y131.164 E0.02365
G1 X127.517 Y133.011 E0.05794
G1 X128.272 Y133.011 E0.02365
G1 X128.272 Y131.164 E0.05794
G1 X129.026 Y131.164 E0.02365
G1 X129.026 Y132.617 E0.04556
G1 F8640
G1 X129.026 Y131.164 E-0.33553
G1 X128.272 Y131.164 E-0.17414
G1 X128.272 Y132.248 E-0.25033
G1 E-0.04000 F2100.00000
G1 Z0.800 F10800.000
G1 X128.565 Y89.639
G1 Z0.200
G1 E0.80000 F2100.00000
G1 F1200
G1 X124.536 Y89.639 E0.12632
G1 X122.522 Y86.150 E0.12632
G1 X124.536 Y82.661 E0.12632
G1 X128.565 Y82.661 E0.12632
G1 X130.580 Y86.150 E0.12632
G1 X128.595 Y89.587 E0.12444
G1 X128.348 Y89.262 F10800.000
G1 F1200
G1 X124.754 Y89.262 E0.11267
G1 X122.957 Y86.150 E0.11267
G1 X124.754 Y83.038 E0.11267
G1 X128.348 Y83.038 E0.11267
G1 X130.144 Y86.150 E0.11267
G1 X128.378 Y89.210 E0.11079
G1 X128.130 Y88.885 F10800.000
G1 F1200
G1 X124.972 Y88.885 E0.09902
G1 X123.393 Y86.150 E0.09902
G1 X124.972 Y83.415 E0.09902
G1 X128.130 Y83.415 E0.09902
G1 X129.709 Y86.150 E0.09902
G1 X128.160 Y88.833 E0.09714
G1 X128.130 Y89.285 F10800.000
G1 F8640
G1 X124.972 Y88.885 E-0.73624
G1 X124.920 Y88.796 E-0.02376
G1 E-0.04000 F2100.00000
G1 Z0.800 F10800.000
G1 X134.002 Y104.286
G1 Z0.200
G1 E0.80000 F2100.00000
G1 F1200
G1 X132.437 Y105.851 E0.06939
G1 X132.437 Y125.022 E0.60112
G1 X130.055 Y129.786 E0.16698
G1 X128.591 Y129.786 E0.04590
G1 X129.680 Y127.900 E0.06828
G1 X127.665 Y124.411 E0.12632
G1 X123.636 Y124.411 E0.12632
G1 X121.622 Y127.900 E0.12632
G1 X122.711 Y129.786 E0.06828
G1 X121.247 Y129.786 E0.04590
G1 X118.865 Y125.022 E0.16698
G1 X118.865 Y105.851 E0.60112
G1 X117.300 Y104.286 E0.06939
G1 X116.850 Y104.286 E0.01411
G1 X116.415 Y103.851 E0.01930
G1 X116.415 Y80.649 E0.72746
G1 X116.850 Y80.214 E0.01930
G1 X134.452 Y80.214 E0.55188
G1 X134.887 Y80.649 E0.01930
G1 X134.887 Y103.851 E0.72746
G1 X134.452 Y104.286 E0.01930
G1 X134.062 Y104.286 E0.01223
G1 X134.158 Y104.663 F10800.000
G1 F1200
G1 X132.814 Y106.007 E0.05959
G1 X132.814 Y125.111 E0.59901
G1 X130.288 Y130.163 E0.17708
G1 X127.938 Y130.163 E0.07369
G1 X129.244 Y127.900 E0.08193
G1 X127.448 Y124.788 E0.11267
G1 X123.854 Y124.788 E0.11267
G1 X122.057 Y127.900 E0.11267
G1 X123.364 Y130.163 E0.08193
G1 X121.014 Y130.163 E0.07369
G1 X118.488 Y125.111 E0.17708
G1 X118.488 Y106.007 E0.59901
G1 X117.144 Y104.663 E0.05959
G1 X116.694 Y104.663 E0.01411
G1 X116.038 Y104.007 E0.02909
G1 X116.038 Y80.493 E0.73725
G1 X116.694 Y79.837 E0.02909
G1 X134.608 Y79.837 E0.56167
G1 X135.264 Y80.493 E0.02909
G1 X135.264 Y104.007 E0.73725
G1 X134.608 Y104.663 E0.02909
G1 X134.218 Y104.663 E0.01223
G1 X134.314 Y105.040 F10800.000
G1 F1200
G1 X133.191 Y106.163 E0.04980
G1 X133.191 Y125.200 E0.59690
G1 X130.521 Y130.540 E0.18718
G1 X127.285 Y130.540 E0.10147
G1 X128.809 Y127.900 E0.09558
G1 X127.230 Y125.165 E0.09902
G1 X124.072 Y125.165 E0.09902
G1 X122.493 Y127.900 E0.09902
G1 X124.017 Y130.540 E0.09558
G1 X120.781 Y130.540 E0.10147
G1 X118.111 Y125.200 E0.18718
G1 X118.111 Y106.163 E0.59690
G1 X116.988 Y105.040 E0.04980
G1 X116.538 Y105.040 E0.01411
G1 X115.661 Y104.163 E0.03889
G1 X115.661 Y80.337 E0.74705
G1 X116.538 Y79.460 E0.03889
G1 X134.764 Y79.460 E0.57146
G1 X135.641 Y80.337 E0.03889
G1 X135.641 Y104.163 E0.74705
G1 X134.764 Y105.040 E0.03889
G1 X134.374 Y105.040 E0.01223
G1 X133.935 Y104.911 F10800.000
G1 F8640
G1 X133.191 Y106.163 E-0.37664
G1 X133.191 Y107.823 E-0.38336
G1 E-0.04000 F2100.00000
G1 Z0.800 F10800.000
G1 X134.774 Y100.165
G1 Z0.200
G1 E0.80000 F2100.00000
G1 F1200
G1 X116.698 Y82.089 E0.80277
G1 X116.698 Y82.623 E0.01677
G1 X134.604 Y100.529 E0.79523
G1 X134.604 Y101.063 E0.01677
G1 X116.698 Y83.157 E0.79523
G1 X116.698 Y83.691 E0.01677
G1 X134.604 Y101.597 E0.79523
G1 X134.604 Y102.131 E0.01677
G1 X116.698 Y84.225 E0.79523
M73 Q1 S63
M73 P1 R63
G1 X116.698 Y84.759 E0.01677
G1 X134.604 Y102.665 E0.79523
G1 X134.604 Y103.200 E0.01677
G1 X116.698 Y85.293 E0.79523
G1 X116.698 Y85.828 E0.01677
G1 X134.604 Y103.734 E0.79523
G1 X134.337 Y104.001 E0.01186
G1 X116.698 Y86.362 E0.78337
G1 X116.698 Y86.896 E0.01677
G1 X133.845 Y104.043 E0.76152
G1 X133.578 Y104.310 E0.01186
G1 X116.698 Y87.430 E0.74966
G1 X116.698 Y87.964 E0.01677
G1 X133.311 Y104.577 E0.73780
G1 X133.044 Y104.844 E0.01186
G1 X116.698 Y88.498 E0.72594
G1 X116.698 Y89.032 E0.01677
G1 X132.777 Y105.111 E0.71408
G1 X132.510 Y105.378 E0.01186
G1 X116.698 Y89.566 E0.70222
G1 X116.698 Y90.100 E0.01677
G1 X132.242 Y105.645 E0.69036
G1 X132.154 Y105.733 E0.00393
G1 X132.154 Y106.091 E0.01121
G1 X116.698 Y90.634 E0.68642
G1 X116.698 Y91.169 E0.01677
G1 X132.154 Y106.625 E0.68642
G1 X132.154 Y107.159 E0.01677
G1 X116.698 Y91.703 E0.68642
G1 X116.698 Y92.237 E0.01677
G1 X132.154 Y107.693 E0.68642
G1 X132.154 Y108.227 E0.01677
G1 X116.698 Y92.771 E0.68642
G1 X116.698 Y93.305 E0.01677
G1 X132.154 Y108.761 E0.68642
G1 X132.154 Y109.295 E0.01677
G1 X116.698 Y93.839 E0.68642
G1 X116.698 Y94.373 E0.01677
G1 X132.154 Y109.829 E0.68642
G1 X132.154 Y110.363 E0.01677
G1 X116.698 Y94.907 E0.68642
G1 X116.698 Y95.441 E0.01677
G1 X132.154 Y110.898 E0.68642
G1 X132.154 Y111.432 E0.01677
G1 X116.698 Y95.976 E0.68642
G1 X116.698 Y96.510 E0.01677
G1 X132.154 Y111.966 E0.68642
G1 X132.154 Y112.500 E0.01677
G1 X116.698 Y97.044 E0.68642
G1 X116.698 Y97.578 E0.01677
G1 X132.154 Y113.034 E0.68642
G1 X132.154 Y113.568 E0.01677
G1 X116.698 Y98.112 E0.68642
G1 X116.698 Y98.646 E0.01677
G1 X132.154 Y114.102 E0.68642
G1 X132.154 Y114.636 E0.01677
G1 X116.698 Y99.180 E0.68642
G1 X116.698 Y99.714 E0.01677
G1 X132.154 Y115.170 E0.68642
G1 X132.154 Y115.705 E0.01677
G1 X116.698 Y100.248 E0.68642
G1 X116.698 Y100.783 E0.01677
G1 X132.154 Y116.239 E0.68642
G1 X132.154 Y116.773 E0.01677
G1 X116.698 Y101.317 E0.68642
G1 X116.698 Y101.851 E0.01677
G1 X132.154 Y117.307 E0.68642
G1 X132.154 Y117.841 E0.01677
G1 X116.698 Y102.385 E0.68642
G1 X116.698 Y102.919 E0.01677
G1 X132.154 Y118.375 E0.68642
G1 X132.154 Y118.909 E0.01677
G1 X116.528 Y103.283 E0.69396
G1 F8640
G1 X118.856 Y105.611 E-0.76000
G1 E-0.04000 F2100.00000
G1 Z0.800 F10800.000
G1 X124.895 Y89.752
G1 Z0.200
G1 E0.80000 F2100.00000
G1 F1200
G1 X134.604 Y99.461 E0.43117
G1 X134.604 Y98.927 E0.01677
G1 X125.599 Y89.922 E0.39991
G1 X126.133 Y89.922 E0.01677
G1 X134.604 Y98.393 E0.37619
G1 X134.604 Y97.858 E0.01677
G1 X126.667 Y89.922 E0.35247
G1 X127.202 Y89.922 E0.01677
G1 X134.604 Y97.324 E0.32875
G1 X134.604 Y96.790 E0.01677
G1 X127.736 Y89.922 E0.30503
G1 X128.270 Y89.922 E0.01677
G1 X134.604 Y96.256 E0.28131
G1 X134.604 Y95.722 E0.01677
G1 X128.756 Y89.874 E0.25971
G1 X128.952 Y89.536 E0.01228
G1 X134.604 Y95.188 E0.25102
G1 X134.604 Y94.654 E0.01677
G1 X129.147 Y89.197 E0.24234
G1 X129.343 Y88.858 E0.01228
G1 X134.604 Y94.120 E0.23366
G1 X134.604 Y93.586 E0.01677
G1 X129.538 Y88.520 E0.22498
G1 X129.734 Y88.181 E0.01228
G1 X134.604 Y93.051 E0.21630
G1 X134.604 Y92.517 E0.01677
G1 X129.929 Y87.843 E0.20761
G1 X130.125 Y87.504 E0.01228
G1 X134.604 Y91.983 E0.19893
G1 X134.604 Y91.449 E0.01677
G1 X130.320 Y87.165 E0.19025
G1 X130.516 Y86.827 E0.01228
G1 X134.604 Y90.915 E0.18157
G1 X134.604 Y90.381 E0.01677
G1 X130.711 Y86.488 E0.17288
G1 X130.905 Y86.148 E0.01229
G1 X134.774 Y90.017 E0.17180
G1 X134.774 Y89.482 F10800.000
G1 F1200
G1 X129.712 Y84.421 E0.22479
G1 F8640
G1 X132.040 Y86.748 E-0.76000
G1 E-0.04000 F2100.00000
G1 Z0.800 F10800.000
G1 X128.983 Y83.157
G1 Z0.200
G1 E0.80000 F2100.00000
G1 F1200
G1 X134.774 Y88.948 E0.25719
G1 F8640
G1 X132.446 Y86.621 E-0.76000
G1 E-0.04000 F2100.00000
G1 Z0.800 F10800.000
G1 X134.774 Y80.937
G1 Z0.200
G1 E0.80000 F2100.00000
G1 F1200
G1 X134.334 Y80.497 E0.01953
G1 X133.800 Y80.497 E0.01677
G1 X134.604 Y81.301 E0.03571
G1 X134.604 Y81.835 E0.01677
G1 X133.266 Y80.497 E0.05943
G1 X132.732 Y80.497 E0.01677
G1 X134.604 Y82.369 E0.08315
G1 X134.604 Y82.903 E0.01677
G1 X132.197 Y80.497 E0.10687
G1 X131.663 Y80.497 E0.01677
G1 X134.604 Y83.438 E0.13059
G1 X134.604 Y83.972 E0.01677
G1 X131.129 Y80.497 E0.15432
G1 X130.595 Y80.497 E0.01677
G1 X134.604 Y84.506 E0.17804
G1 X134.604 Y85.040 E0.01677
G1 X130.061 Y80.497 E0.20176
G1 X129.527 Y80.497 E0.01677
G1 X134.604 Y85.574 E0.22548
G1 X134.604 Y86.108 E0.01677
G1 X128.993 Y80.497 E0.24920
G1 X128.459 Y80.497 E0.01677
G1 X134.604 Y86.642 E0.27292
G1 X134.604 Y87.176 E0.01677
G1 X127.925 Y80.497 E0.29664
G1 X127.391 Y80.497 E0.01677
G1 X134.604 Y87.710 E0.32036
G1 X134.604 Y88.244 E0.01677
G1 X126.856 Y80.497 E0.34408
G1 X126.322 Y80.497 E0.01677
G1 X128.203 Y82.378 E0.08354
G1 X127.669 Y82.378 E0.01677
G1 X125.788 Y80.497 E0.08354
G1 X125.254 Y80.497 E0.01677
G1 X127.135 Y82.378 E0.08354
G1 X126.601 Y82.378 E0.01677
G1 X124.720 Y80.497 E0.08354
G1 X124.186 Y80.497 E0.01677
G1 X126.067 Y82.378 E0.08354
G1 X125.533 Y82.378 E0.01677
G1 X123.652 Y80.497 E0.08354
G1 X123.118 Y80.497 E0.01677
G1 X124.999 Y82.378 E0.08354
G1 X124.465 Y82.378 E0.01677
G1 X122.584 Y80.497 E0.08354
G1 X122.049 Y80.497 E0.01677
G1 X124.211 Y82.659 E0.09600
G1 X124.016 Y82.997 E0.01228
G1 X121.515 Y80.497 E0.11104
G1 X120.981 Y80.497 E0.01677
G1 X123.820 Y83.336 E0.12608
G1 X123.625 Y83.674 E0.01228
G1 X120.447 Y80.497 E0.14112
G1 X119.913 Y80.497 E0.01677
G1 X123.429 Y84.013 E0.15616
M73 Q3 S62
G1 X123.234 Y84.352 E0.01228
M73 P3 R62
G1 X119.379 Y80.497 E0.17120
G1 X118.845 Y80.497 E0.01677
G1 X123.038 Y84.690 E0.18623
G1 X122.843 Y85.029 E0.01228
G1 X118.311 Y80.497 E0.20127
G1 X117.777 Y80.497 E0.01677
G1 X122.647 Y85.368 E0.21631
G1 X122.452 Y85.706 E0.01228
G1 X117.242 Y80.497 E0.23135
G1 X116.967 Y80.497 E0.00864
G1 X116.838 Y80.626 E0.00575
G1 X122.256 Y86.045 E0.24063
G1 X122.195 Y86.150 E0.00382
G1 X122.698 Y87.021 E0.03158
G1 X116.698 Y81.021 E0.26649
G1 X116.698 Y81.555 E0.01677
G1 X123.892 Y88.748 E0.31948
G1 F8640
G1 X121.564 Y86.421 E-0.76000
G1 E-0.04000 F2100.00000
G1 Z0.800 F10800.000
G1 X132.324 Y119.613
G1 Z0.200
G1 E0.80000 F2100.00000
G1 F1200
G1 X119.148 Y106.437 E0.58515
G1 X119.148 Y106.971 E0.01677
G1 X132.154 Y119.977 E0.57762
G1 X132.154 Y120.511 E0.01677
G1 X119.148 Y107.505 E0.57762
G1 X119.148 Y108.039 E0.01677
G1 X132.154 Y121.046 E0.57762
G1 X132.154 Y121.580 E0.01677
G1 X119.148 Y108.574 E0.57762
G1 X119.148 Y109.108 E0.01677
G1 X132.154 Y122.114 E0.57762
G1 X132.154 Y122.648 E0.01677
G1 X119.148 Y109.642 E0.57762
G1 X119.148 Y110.176 E0.01677
G1 X132.154 Y123.182 E0.57762
G1 X132.154 Y123.716 E0.01677
G1 X119.148 Y110.710 E0.57762
G1 X119.148 Y111.244 E0.01677
G1 X132.154 Y124.250 E0.57762
G1 X132.154 Y124.784 E0.01677
G1 X119.148 Y111.778 E0.57762
G1 X119.148 Y112.312 E0.01677
G1 X132.033 Y125.198 E0.57225
G1 X131.855 Y125.554 E0.01250
G1 X119.148 Y112.846 E0.56434
G1 X119.148 Y113.381 E0.01677
G1 X131.677 Y125.910 E0.55643
G1 X131.499 Y126.266 E0.01250
G1 X119.148 Y113.915 E0.54853
G1 X119.148 Y114.449 E0.01677
G1 X131.321 Y126.622 E0.54062
G1 X131.143 Y126.978 E0.01250
G1 X119.148 Y114.983 E0.53271
G1 X119.148 Y115.517 E0.01677
G1 X130.965 Y127.334 E0.52481
G1 X130.787 Y127.690 E0.01250
G1 X128.190 Y125.093 E0.11533
