; generated by Slic3r Prusa Edition 1.41.0+win64 on 2019-02-09 at 14:21:03

; 

; external perimeters extrusion width = 0.45mm
; perimeters extrusion width = 0.45mm
; infill extrusion width = 0.45mm
; solid infill extrusion width = 0.45mm
; top infill extrusion width = 0.40mm
; support material extrusion width = 0.35mm
; first layer extrusion width = 0.42mm

M201 X1000 Y1000 Z1000 E5000 ; sets maximum accelerations, mm/sec^2
M203 X200 Y200 Z12 E120 ; sets maximum feedrates, mm/sec
M204 P1250 R1250 T1250 ; sets acceleration (P, T) and retract acceleration (R), mm/sec^2
M205 X8.00 Y8.00 Z0.40 E1.50 ; sets the jerk limits, mm/sec
M205 S0 T0 ; sets the minimum extruding and travel feed rate, mm/sec
M107
M115 U3.4.1 ; tell printer latest fw version
M83  ; extruder relative mode
M104 S215 ; set extruder temp
M140 S60 ; set bed temp
M190 S60 ; wait for bed temp
M109 S215 ; wait for extruder temp
G28 W ; home all without mesh bed level
G80 ; mesh bed leveling
G1 Y-3.0 F1000.0 ; go outside print area
G92 E0.0
G1 X60.0 E9.0  F1000.0 ; intro line
M73 Q0 S78
M73 P0 R78
G1 X100.0 E12.5  F1000.0 ; intro line
G92 E0.0
M221 S95
M900 K30; Filament gcode
G21 ; set units to millimeters
G90 ; use absolute coordinates
M83 ; use relative distances for extrusion
;BEFORE_LAYER_CHANGE
G92 E0.0
;0.2


G1 E-0.80000 F2100.00000
G1 Z0.600 F10800.000
;AFTER_LAYER_CHANGE
;0.2
G1 X94.254 Y58.324
G1 Z0.200
G1 E0.80000 F2100.00000
M204 S1000
G1 F1200
G1 X94.596 Y57.910 E0.01680
G1 X95.030 Y57.591 E0.01692
G1 X95.526 Y57.388 E0.01680
G1 X96.061 Y57.312 E0.01692
G1 X153.904 Y57.311 E1.81363
G1 X154.648 Y57.443 E0.02372
G1 X155.301 Y57.819 E0.02360
G1 X155.788 Y58.393 E0.02360
G1 X156.051 Y59.098 E0.02360
G1 X161.041 Y95.604 E1.15527
G1 X161.046 Y154.929 E1.86008
G1 X160.957 Y155.538 E0.01930
G1 X160.703 Y156.095 E0.01919
G1 X160.359 Y156.510 E0.01692
G1 X159.920 Y156.831 E0.01703
G1 X159.416 Y157.034 E0.01703
G1 X158.878 Y157.106 E0.01703
G1 X91.727 Y157.106 E2.10549
G1 X91.117 Y157.017 E0.01930
G1 X90.561 Y156.763 E0.01919
G1 X90.170 Y156.445 E0.01578
G1 X89.863 Y156.047 E0.01578
G1 X89.654 Y155.589 E0.01578
G1 X89.556 Y155.092 E0.01589
G1 X89.550 Y144.124 E0.34389
G1 X93.915 Y59.380 E2.66060
G1 X94.017 Y58.828 E0.01760
G1 X94.229 Y58.378 E0.01560
; PURGING FINISHED
G1 F8640
G1 X94.596 Y57.910 E-0.13721
G1 X95.030 Y57.591 E-0.12458
G1 X95.526 Y57.388 E-0.12374
G1 X96.061 Y57.312 E-0.12458
G1 X97.143 Y57.312 E-0.24989
G1 E-0.04000 F2100.00000
G1 Z0.800 F10800.000
G1 X95.508 Y83.027
G1 Z0.200
G1 E0.80000 F2100.00000
G1 F1200
G1 X95.508 Y88.973 E0.18646
G1 F8640
G1 X95.508 Y85.682 E-0.76000
G1 E-0.04000 F2100.00000
G1 Z0.800 F10800.000
G1 X98.525 Y89.444
G1 Z0.200
G1 E0.80000 F2100.00000
G1 F1200
G1 X98.525 Y91.285 E0.05774
G1 X98.569 Y91.306 E0.00152
G1 X99.279 Y91.496 E0.02305
G1 X99.279 Y89.614 E0.05902
G1 X100.033 Y89.614 E0.02365
G1 X100.033 Y91.605 E0.06245
G1 X100.500 Y91.646 E0.01469
G1 X100.787 Y91.621 E0.00905
G1 X100.787 Y89.614 E0.06295
G1 X101.542 Y89.614 E0.02365
G1 X101.542 Y91.544 E0.06053
G1 X102.296 Y91.342 E0.02448
G1 X102.296 Y89.614 E0.05419
G1 X103.050 Y89.614 E0.02365
G1 X103.050 Y91.204 E0.04988
G1 F8640
G1 X103.050 Y89.614 E-0.36734
G1 X102.296 Y89.614 E-0.17414
G1 X102.296 Y90.560 E-0.21852
G1 E-0.04000 F2100.00000
G1 Z0.800 F10800.000
G1 X103.050 Y87.144
G1 Z0.200
G1 E0.80000 F2100.00000
G1 F1200
G1 X103.050 Y85.375 E0.05548
G1 X102.976 Y85.099 E0.00896
G1 X102.782 Y84.683 E0.01440
G1 X102.518 Y84.306 E0.01440
G1 X102.296 Y84.084 E0.00987
G1 X102.296 Y87.916 E0.12017
G1 X102.194 Y88.018 E0.00453
G1 X101.817 Y88.282 E0.01440
G1 X101.542 Y88.411 E0.00954
G1 X101.542 Y83.589 E0.15116
G1 X101.401 Y83.524 E0.00486
G1 X100.958 Y83.405 E0.01440
G1 X100.787 Y83.390 E0.00535
G1 X100.787 Y88.610 E0.16365
G1 X100.500 Y88.635 E0.00905
G1 X100.033 Y88.592 E0.01469
G1 X100.033 Y83.408 E0.16257
G1 X99.599 Y83.524 E0.01410
G1 X99.279 Y83.673 E0.01106
G1 X99.279 Y88.327 E0.14592
G1 X99.183 Y88.282 E0.00334
G1 X98.806 Y88.018 E0.01440
G1 X98.525 Y87.737 E0.01248
G1 X98.525 Y84.023 E0.11645
G1 F8640
G1 X98.525 Y87.314 E-0.76000
G1 E-0.04000 F2100.00000
G1 Z0.800 F10800.000
G1 X129.445 Y99.149
G1 Z0.200
G1 E0.80000 F2100.00000
G1 F1200
G1 X129.445 Y106.111 E0.21827
G1 X130.171 Y106.836 E0.03218
G1 X130.200 Y106.836 E0.00089
G1 X130.200 Y98.664 E0.25626
G1 X130.954 Y98.664 E0.02365
G1 X130.954 Y106.836 E0.25626
G1 X131.708 Y106.836 E0.02365
G1 X131.708 Y98.664 E0.25626
G1 X132.462 Y98.664 E0.02365
G1 X132.462 Y106.836 E0.25626
G1 X133.216 Y106.836 E0.02365
G1 X133.216 Y98.664 E0.25626
G1 X133.970 Y98.664 E0.02365
G1 X133.970 Y106.836 E0.25626
G1 X134.725 Y106.836 E0.02365
G1 X134.725 Y98.664 E0.25626
G1 X135.479 Y98.664 E0.02365
G1 X135.479 Y106.836 E0.25626
G1 X135.582 Y106.836 E0.00325
G1 X135.734 Y106.899 E0.00516
G1 X136.233 Y107.398 E0.02211
G1 X136.233 Y98.102 E0.29147
G1 X136.851 Y97.484 E0.02739
G1 X136.914 Y97.332 E0.00516
G1 X136.914 Y93.121 E0.13203
G1 X136.987 Y93.048 E0.00326
G1 X136.987 Y112.452 E0.60841
G1 X137.671 Y113.136 E0.03034
G1 X137.741 Y113.136 E0.00219
G1 X137.741 Y92.364 E0.65132
G1 X138.495 Y92.364 E0.02365
G1 X138.495 Y113.136 E0.65132
G1 X139.250 Y113.136 E0.02365
G1 X139.250 Y92.364 E0.65132
G1 X140.004 Y92.364 E0.02365
G1 X140.004 Y113.136 E0.65132
G1 X140.758 Y113.136 E0.02365
G1 X140.758 Y92.364 E0.65132
G1 X141.512 Y92.364 E0.02365
G1 X141.512 Y113.136 E0.65132
G1 X142.266 Y113.136 E0.02365
G1 X142.266 Y92.364 E0.65132
G1 X143.020 Y92.364 E0.02365
G1 X143.020 Y113.136 E0.65132
G1 X143.774 Y113.136 E0.02365
G1 X143.774 Y92.364 E0.65132
G1 X144.529 Y92.364 E0.02365
G1 X144.529 Y113.136 E0.65132
G1 X145.283 Y113.136 E0.02365
G1 X145.283 Y92.364 E0.65132
G1 X145.329 Y92.364 E0.00144
G1 X146.037 Y93.072 E0.03141
G1 X146.037 Y112.428 E0.60691
G1 X146.086 Y112.379 E0.00219
G1 X146.086 Y108.168 E0.13203
G1 X146.149 Y108.016 E0.00516
G1 X146.791 Y107.374 E0.02845
G1 X146.791 Y98.126 E0.28997
G1 X147.266 Y98.601 E0.02105
G1 X147.418 Y98.664 E0.00516
G1 X147.545 Y98.664 E0.00400
G1 X147.545 Y106.836 E0.25626
G1 X148.299 Y106.836 E0.02365
G1 X148.299 Y98.664 E0.25626
G1 X149.054 Y98.664 E0.02365
G1 X149.054 Y106.836 E0.25626
G1 X149.808 Y106.836 E0.02365
G1 X149.808 Y98.664 E0.25626
G1 X150.562 Y98.664 E0.02365
G1 X150.562 Y106.836 E0.25626
G1 X151.316 Y106.836 E0.02365
G1 X151.316 Y98.664 E0.25626
G1 X152.070 Y98.664 E0.02365
G1 X152.070 Y106.836 E0.25626
G1 X152.824 Y106.836 E0.02365
G1 X152.824 Y98.664 E0.25626
G1 X153.403 Y99.238 E0.02556
G1 X153.579 Y99.165 E0.00596
G1 X153.579 Y106.519 E0.23057
G1 F8640
G1 X153.579 Y103.227 E-0.76000
G1 E-0.04000 F2100.00000
G1 Z0.800 F10800.000
G1 X154.342 Y108.087
G1 Z0.200
G1 E0.80000 F2100.00000
G1 F1200
G1 X154.342 Y98.720 E0.23916
G1 X154.849 Y98.720 E0.01295
G1 X154.849 Y107.949 E0.23564
G1 X155.357 Y107.949 E0.01295
G1 X155.357 Y98.720 E0.23564
G1 X155.864 Y98.720 E0.01295
G1 X155.864 Y108.087 E0.23916
G1 X154.333 Y108.121 F10800.000
G1 F1200
G1 X154.333 Y110.914 E0.08756
G1 X155.087 Y110.914 E0.02365
G1 X155.087 Y108.291 E0.08224
G1 X155.841 Y108.291 E0.02365
G1 X155.841 Y110.914 E0.08224
G1 X156.595 Y110.914 E0.02365
G1 X156.595 Y95.755 E0.47527
G1 X157.349 Y95.755 E0.02365
G1 X157.349 Y110.914 E0.47527
G1 X158.104 Y110.914 E0.02365
G1 X158.104 Y95.755 E0.47527
G1 X158.858 Y95.755 E0.02365
G1 X158.858 Y111.083 E0.48059
G1 X155.841 Y98.548 F10800.000
G1 F1200
G1 X155.841 Y95.755 E0.08756
G1 X155.087 Y95.755 E0.02365
G1 X155.087 Y98.378 E0.08224
G1 X154.333 Y98.378 E0.02365
G1 X154.333 Y95.586 E0.08756
G1 F8640
G1 X154.333 Y98.378 E-0.64480
G1 X154.832 Y98.378 E-0.11520
G1 E-0.04000 F2100.00000
G1 Z0.800 F10800.000
G1 X154.333 Y89.347
G1 Z0.200
G1 E0.80000 F2100.00000
G1 F1200
G1 X154.333 Y83.055 E0.19730
G1 X154.390 Y83.177 E0.00423
G1 X154.642 Y83.537 E0.01378
G1 X154.642 Y83.718 E0.00566
G1 X154.806 Y84.069 E0.01215
G1 X155.060 Y85.020 E0.03086
G1 X155.087 Y85.321 E0.00950
G1 X155.087 Y87.537 E0.06948
G1 F8640
G1 X155.087 Y85.321 E-0.51169
G1 X155.060 Y85.020 E-0.06998
G1 X154.861 Y84.274 E-0.17833
G1 E-0.04000 F2100.00000
G1 Z0.800 F10800.000
G1 X152.070 Y87.101
G1 Z0.200
G1 E0.80000 F2100.00000
G1 F1200
G1 X152.070 Y85.451 E0.05173
G1 X151.976 Y85.099 E0.01142
G1 X151.782 Y84.683 E0.01440
G1 X151.518 Y84.306 E0.01440
G1 X151.316 Y84.104 E0.00897
G1 X151.316 Y87.896 E0.11890
G1 X151.194 Y88.018 E0.00543
G1 X150.817 Y88.282 E0.01440
G1 X150.562 Y88.401 E0.00884
G1 X150.562 Y83.599 E0.15056
G1 X150.401 Y83.524 E0.00556
G1 X149.958 Y83.405 E0.01440
G1 X149.808 Y83.392 E0.00471
G1 X149.808 Y88.608 E0.16354
G1 X149.500 Y88.635 E0.00969
G1 X149.054 Y88.596 E0.01405
G1 X149.054 Y83.404 E0.16278
G1 X148.599 Y83.524 E0.01475
G1 X148.299 Y83.664 E0.01036
G1 X148.299 Y88.336 E0.14651
G1 X148.183 Y88.282 E0.00404
G1 X147.806 Y88.018 E0.01440
G1 X147.545 Y87.757 E0.01158
G1 X147.545 Y84.003 E0.11773
G1 F8640
G1 X147.545 Y87.294 E-0.76000
G1 E-0.04000 F2100.00000
G1 Z0.800 F10800.000
G1 X146.037 Y81.956
G1 Z0.200
G1 E0.80000 F2100.00000
G1 F1200
G1 X146.037 Y81.558 E0.01247
G1 X146.677 Y81.110 E0.02449
G1 X146.791 Y81.057 E0.00395
G1 X146.791 Y81.786 E0.02287
G1 X147.545 Y81.786 E0.02365
G1 X147.545 Y80.705 E0.03390
G1 X148.299 Y80.499 E0.02452
M73 Q1 S77
G1 X148.299 Y81.786 E0.04038
G1 X149.054 Y81.786 E0.02365
G1 X149.054 Y80.393 E0.04370
G1 X149.500 Y80.354 E0.01405
G1 X149.808 Y80.381 E0.00969
G1 X149.808 Y81.956 E0.04940
G1 F8640
G1 X149.808 Y80.381 E-0.36378
M73 P1 R77
G1 X149.500 Y80.354 E-0.07134
G1 X149.054 Y80.393 E-0.10347
G1 X149.054 Y81.352 E-0.22142
G1 E-0.04000 F2100.00000
G1 Z0.800 F10800.000
G1 X155.841 Y139.418
G1 Z0.200
G1 E0.80000 F2100.00000
G1 F1200
G1 X155.841 Y146.827 E0.23230
G1 X155.087 Y146.827 E0.02365
G1 X155.087 Y139.589 E0.22695
G1 X154.333 Y139.590 E0.02365
G1 X154.333 Y146.827 E0.22692
G1 X153.936 Y146.827 E0.01242
G1 X153.936 Y148.415 E0.04980
G1 X153.915 Y148.436 E0.00095
G1 X153.579 Y148.436 E0.01055
G1 X153.579 Y148.414 E0.00072
G1 X152.824 Y148.414 E0.02365
G1 X152.824 Y148.436 E0.00072
G1 X151.316 Y148.414 E0.04730
G1 X151.316 Y154.748 E0.19862
G1 X152.070 Y154.748 E0.02365
G1 X152.070 Y149.818 E0.15457
G1 X152.824 Y149.818 E0.02365
G1 X152.824 Y154.748 E0.15457
G1 X153.579 Y154.748 E0.02365
G1 X153.579 Y149.818 E0.15457
G1 X154.333 Y149.818 E0.02365
G1 X154.333 Y154.748 E0.15457
G1 X155.087 Y154.748 E0.02365
G1 X155.087 Y149.818 E0.15457
G1 X155.841 Y149.818 E0.02365
G1 X155.841 Y154.748 E0.15457
G1 X156.595 Y154.748 E0.02365
G1 X156.595 Y139.587 E0.47538
G1 X156.929 Y139.586 E0.01046
G1 X156.941 Y144.204 E0.14479
G1 X157.349 Y144.204 E0.01279
G1 X157.349 Y154.748 E0.33060
G1 X158.104 Y154.748 E0.02365
G1 X158.104 Y144.204 E0.33060
G1 X158.858 Y144.204 E0.02365
G1 X158.858 Y154.918 E0.33592
G1 F8640
G1 X158.858 Y151.626 E-0.76000
G1 E-0.04000 F2100.00000
G1 Z0.800 F10800.000
G1 X155.864 Y149.614
G1 Z0.200
G1 E0.80000 F2100.00000
G1 F1200
G1 X155.864 Y147.169 E0.06244
G1 X155.357 Y147.169 E0.01295
G1 X155.357 Y149.476 E0.05891
G1 X154.849 Y149.476 E0.01295
G1 X154.849 Y147.169 E0.05891
G1 X154.342 Y147.169 E0.01295
G1 X154.342 Y149.476 E0.05891
G1 X153.835 Y149.476 E0.01295
G1 X153.835 Y148.779 E0.01781
G1 X153.328 Y148.779 E0.01295
G1 X153.328 Y149.476 E0.01781
G1 X152.821 Y149.476 E0.01295
G1 X152.821 Y148.779 E0.01781
G1 X152.314 Y148.779 E0.01295
G1 X152.314 Y149.476 E0.01781
G1 X151.807 Y149.476 E0.01295
G1 X151.807 Y148.640 E0.02134
G1 F8640
G1 X151.807 Y149.476 E-0.19298
G1 X152.314 Y149.476 E-0.11709
G1 X152.314 Y148.779 E-0.16107
G1 X152.821 Y148.779 E-0.11709
G1 X152.821 Y149.476 E-0.16107
G1 X152.867 Y149.476 E-0.01070
G1 E-0.04000 F2100.00000
G1 Z0.800 F10800.000
G1 X152.070 Y145.101
G1 Z0.200
G1 E0.80000 F2100.00000
G1 F1200
G1 X152.070 Y143.451 E0.05173
G1 X151.976 Y143.099 E0.01142
G1 X151.782 Y142.683 E0.01440
G1 X151.518 Y142.306 E0.01440
G1 X151.316 Y142.104 E0.00897
G1 X151.316 Y145.896 E0.11890
G1 X151.194 Y146.018 E0.00543
G1 X150.817 Y146.282 E0.01440
G1 X150.562 Y146.401 E0.00884
G1 X150.562 Y141.599 E0.15056
G1 X150.401 Y141.524 E0.00556
G1 X149.958 Y141.405 E0.01440
G1 X149.808 Y141.392 E0.00471
G1 X149.808 Y146.608 E0.16354
G1 X149.500 Y146.635 E0.00969
G1 X149.054 Y146.596 E0.01405
G1 X149.054 Y141.404 E0.16278
G1 X148.599 Y141.524 E0.01475
G1 X148.299 Y141.664 E0.01036
G1 X148.299 Y146.336 E0.14651
G1 X148.183 Y146.282 E0.00404
G1 X147.806 Y146.018 E0.01440
G1 X147.545 Y145.757 E0.01158
G1 X147.545 Y142.003 E0.11773
G1 F8640
G1 X147.545 Y145.294 E-0.76000
G1 E-0.04000 F2100.00000
G1 Z0.800 F10800.000
G1 X146.037 Y148.244
G1 Z0.200
G1 E0.80000 F2100.00000
G1 F1200
G1 X146.037 Y148.442 E0.00620
G1 X146.677 Y148.890 E0.02449
G1 X146.791 Y148.943 E0.00395
G1 X146.791 Y148.414 E0.01660
G1 X147.545 Y148.414 E0.02365
G1 X147.545 Y149.295 E0.02763
G1 X148.299 Y149.501 E0.02452
G1 X148.299 Y148.414 E0.03411
G1 X149.054 Y148.414 E0.02365
G1 X149.054 Y152.441 E0.12628
G1 X149.808 Y152.441 E0.02365
G1 X149.808 Y148.414 E0.12628
G1 X150.562 Y148.414 E0.02365
G1 X150.562 Y152.611 E0.13160
G1 F8640
G1 X150.562 Y149.319 E-0.76000
G1 E-0.04000 F2100.00000
G1 Z0.800 F10800.000
G1 X103.804 Y148.760
G1 Z0.200
G1 E0.80000 F2100.00000
G1 F1200
G1 X103.804 Y148.414 E0.01087
G1 X103.050 Y148.414 E0.02365
G1 X103.050 Y149.017 E0.01893
G1 X102.431 Y149.306 E0.02141
G1 X102.296 Y149.342 E0.00439
G1 X102.296 Y148.414 E0.02911
G1 X101.542 Y148.414 E0.02365
G1 X101.542 Y149.544 E0.03545
G1 X100.787 Y149.621 E0.02377
G1 X100.787 Y148.414 E0.03786
G1 X100.033 Y148.414 E0.02365
G1 X100.033 Y149.605 E0.03737
G1 X99.520 Y149.560 E0.01617
G1 X99.279 Y149.496 E0.00781
G1 X99.279 Y148.414 E0.03394
G1 X98.525 Y148.414 E0.02365
G1 X98.525 Y154.748 E0.19862
G1 X97.771 Y154.748 E0.02365
G1 X97.771 Y148.414 E0.19862
G1 X97.017 Y148.414 E0.02365
G1 X97.017 Y154.748 E0.19862
G1 X96.262 Y154.748 E0.02365
G1 X96.262 Y149.818 E0.15457
G1 X95.508 Y149.818 E0.02365
G1 X95.508 Y154.748 E0.15457
G1 X94.754 Y154.748 E0.02365
G1 X94.754 Y149.818 E0.15457
G1 X94.000 Y149.818 E0.02365
G1 X94.000 Y154.748 E0.15457
G1 X93.246 Y154.748 E0.02365
G1 X93.246 Y144.204 E0.33060
G1 X94.000 Y144.204 E0.02365
G1 X94.000 Y146.827 E0.08224
G1 X94.754 Y146.827 E0.02365
G1 X94.754 Y144.204 E0.08224
G1 X94.872 Y144.204 E0.00368
G1 X94.854 Y144.000 E0.00642
G1 X94.940 Y143.020 E0.03086
G1 X95.194 Y142.069 E0.03086
G1 X95.508 Y141.395 E0.02330
G1 X95.508 Y146.827 E0.17030
G1 X96.064 Y146.827 E0.01741
G1 X96.064 Y148.415 E0.04980
G1 X96.085 Y148.436 E0.00095
G1 X96.262 Y148.436 E0.00557
G1 X96.262 Y148.107 E0.01032
G1 F8640
G1 X96.262 Y148.436 E-0.07600
G1 X96.085 Y148.436 E-0.04100
G1 X96.064 Y148.415 E-0.00697
G1 X96.064 Y146.827 E-0.36672
G1 X95.508 Y146.827 E-0.12821
G1 X95.508 Y146.216 E-0.14110
G1 E-0.04000 F2100.00000
G1 Z0.800 F10800.000
G1 X96.028 Y149.614
G1 Z0.200
G1 E0.80000 F2100.00000
G1 F1200
G1 X96.028 Y148.779 E0.02134
G1 X95.943 Y148.779 E0.00217
G1 X95.721 Y148.557 E0.00801
G1 X95.721 Y147.169 E0.03544
G1 X95.521 Y147.169 E0.00511
G1 X95.521 Y149.476 E0.05891
G1 X95.014 Y149.476 E0.01295
G1 X95.014 Y147.169 E0.05891
G1 X94.507 Y147.169 E0.01295
G1 X94.507 Y149.476 E0.05891
G1 X94.000 Y149.476 E0.01295
G1 X94.000 Y147.031 E0.06244
G1 F8640
G1 X94.000 Y149.476 E-0.56463
G1 X94.507 Y149.476 E-0.11709
G1 X94.507 Y149.137 E-0.07828
G1 E-0.04000 F2100.00000
G1 Z0.800 F10800.000
G1 X98.525 Y142.023
G1 Z0.200
G1 E0.80000 F2100.00000
G1 F1200
G1 X98.525 Y145.737 E0.11645
G1 X98.806 Y146.018 E0.01248
G1 X99.183 Y146.282 E0.01440
G1 X99.279 Y146.327 E0.00334
G1 X99.279 Y141.673 E0.14592
G1 X99.599 Y141.524 E0.01106
G1 X100.033 Y141.408 E0.01410
G1 X100.033 Y146.592 E0.16257
G1 X100.500 Y146.635 E0.01469
G1 X100.787 Y146.610 E0.00905
G1 X100.787 Y141.390 E0.16365
G1 X100.958 Y141.405 E0.00535
G1 X101.401 Y141.524 E0.01440
G1 X101.542 Y141.589 E0.00486
G1 X101.542 Y146.411 E0.15116
G1 X101.817 Y146.282 E0.00954
G1 X102.194 Y146.018 E0.01440
G1 X102.296 Y145.916 E0.00453
G1 X102.296 Y142.084 E0.12017
G1 X102.518 Y142.306 E0.00987
G1 X102.782 Y142.683 E0.01440
G1 X102.976 Y143.099 E0.01440
G1 X103.050 Y143.375 E0.00896
G1 X103.050 Y145.144 E0.05548
G1 F8640
