; generated by Slic3r Prusa Edition 1.41.0+win64 on 2019-02-10 at 16:30:01

; 

; external perimeters extrusion width = 0.45mm
; perimeters extrusion width = 0.45mm
; infill extrusion width = 0.45mm
; solid infill extrusion width = 0.45mm
; top infill extrusion width = 0.40mm
; support material extrusion width = 0.35mm
; first layer extrusion width = 0.42mm

M201 X1000 Y1000 Z1000 E5000 ; sets maximum accelerations, mm/sec^2
M203 X200 Y200 Z12 E120 ; sets maximum feedrates, mm/sec
M204 P1250 R1250 T1250 ; sets acceleration (P, T) and retract acceleration (R), mm/sec^2
M205 X8.00 Y8.00 Z0.40 E1.50 ; sets the jerk limits, mm/sec
M205 S0 T0 ; sets the minimum extruding and travel feed rate, mm/sec
M107
M115 U3.4.1 ; tell printer latest fw version
M83  ; extruder relative mode
M104 S215 ; set extruder temp
M140 S60 ; set bed temp
M190 S60 ; wait for bed temp
M109 S215 ; wait for extruder temp
G28 W ; home all without mesh bed level
G80 ; mesh bed leveling
G1 Y-3.0 F1000.0 ; go outside print area
G92 E0.0
G1 X60.0 E9.0  F1000.0 ; intro line
M73 Q0 S94
M73 P0 R93
G1 X100.0 E12.5  F1000.0 ; intro line
G92 E0.0
M221 S95
M900 K30; Filament gcode
G21 ; set units to millimeters
G90 ; use absolute coordinates
M83 ; use relative distances for extrusion
;BEFORE_LAYER_CHANGE
G92 E0.0
;0.2


G1 E-0.80000 F2100.00000
G1 Z0.600 F10800.000
;AFTER_LAYER_CHANGE
;0.2
G1 X88.100 Y48.034
G1 Z0.200
G1 E0.80000 F2100.00000
M204 S1000
G1 F1200
G1 X89.207 Y46.534 E0.05845
G1 X90.446 Y45.141 E0.05845
G1 X91.809 Y43.870 E0.05845
G1 X93.293 Y42.722 E0.05880
G1 X95.012 Y41.641 E0.06367
G1 X96.841 Y40.734 E0.06401
G1 X98.752 Y40.016 E0.06401
G1 X100.726 Y39.495 E0.06401
G1 X102.356 Y39.221 E0.05184
G1 X104.004 Y39.081 E0.05184
G1 X110.671 Y39.061 E0.20905
G1 X112.865 Y39.182 E0.06888
G1 X115.032 Y39.541 E0.06888
G1 X117.148 Y40.132 E0.06888
G1 X119.187 Y40.950 E0.06888
G1 X121.125 Y41.985 E0.06888
G1 X122.938 Y43.224 E0.06888
G1 X124.607 Y44.653 E0.06888
G1 X126.110 Y46.255 E0.06888
G1 X164.906 Y97.807 E2.02295
G1 X166.267 Y100.095 E0.08347
G1 X167.315 Y102.542 E0.08347
G1 X168.032 Y105.106 E0.08347
G1 X168.406 Y107.742 E0.08347
G1 X168.462 Y109.195 E0.04558
G1 X168.462 Y129.328 E0.63125
G1 X168.319 Y131.653 E0.07305
G1 X167.828 Y134.270 E0.08347
G1 X166.993 Y136.809 E0.08382
G1 X165.836 Y139.207 E0.08347
G1 X164.366 Y141.440 E0.08382
G1 X162.584 Y143.491 E0.08521
G1 X160.541 Y145.284 E0.08521
G1 X130.311 Y167.504 E1.17635
G1 X128.058 Y168.816 E0.08173
G1 X125.655 Y169.826 E0.08173
G1 X123.142 Y170.519 E0.08173
G1 X120.561 Y170.882 E0.08173
G1 X119.130 Y170.938 E0.04489
G1 X107.278 Y170.937 E0.37162
G1 X105.848 Y170.871 E0.04489
G1 X104.426 Y170.703 E0.04489
G1 X102.062 Y170.192 E0.07583
G1 X99.766 Y169.398 E0.07618
G1 X97.592 Y168.340 E0.07583
G1 X95.550 Y167.022 E0.07618
G1 X94.393 Y166.106 E0.04628
G1 X93.299 Y165.099 E0.04663
G1 X92.281 Y164.015 E0.04663
G1 X91.346 Y162.858 E0.04663
G1 X87.949 Y158.235 E0.17988
G1 X84.412 Y152.161 E0.22040
G1 X83.370 Y150.028 E0.07444
G1 X82.582 Y147.776 E0.07479
G1 X81.854 Y144.306 E0.11118
G1 X81.594 Y142.258 E0.06471
G1 X81.538 Y140.772 E0.04663
G1 X81.539 Y72.202 E2.14999
G1 X81.870 Y62.711 E0.29774
G1 X82.121 Y60.730 E0.06262
G1 X82.569 Y58.772 E0.06297
G1 X83.213 Y56.858 E0.06332
G1 X84.051 Y55.008 E0.06367
G1 X88.070 Y48.086 E0.25098
; PURGING FINISHED
G1 F8640
G1 X89.207 Y46.534 E-0.44423
G1 X90.116 Y45.512 E-0.31577
G1 E-0.04000 F2100.00000
G1 Z0.800 F10800.000
G1 X101.726 Y83.148
G1 Z0.200
G1 E0.80000 F2100.00000
G1 F1200
G1 X101.726 Y72.435 E0.33592
G1 X102.481 Y72.435 E0.02365
G1 X102.481 Y82.979 E0.33060
G1 X103.235 Y82.979 E0.02365
G1 X103.235 Y72.435 E0.33060
G1 X103.989 Y72.435 E0.02365
G1 X103.989 Y82.979 E0.33060
G1 X104.743 Y82.979 E0.02365
G1 X104.743 Y72.435 E0.33060
G1 X105.402 Y72.435 E0.02066
G1 X105.497 Y72.755 E0.01047
G1 X105.497 Y82.979 E0.32056
G1 X106.251 Y82.979 E0.02365
G1 X106.251 Y75.292 E0.24102
G1 X107.006 Y77.828 E0.08298
G1 X107.006 Y82.979 E0.16149
G1 X107.760 Y82.979 E0.02365
G1 X107.760 Y80.365 E0.08195
G1 X108.514 Y82.902 E0.08298
G1 X108.514 Y83.148 E0.00773
G1 F8640
G1 X108.514 Y82.902 E-0.05695
G1 X107.760 Y80.365 E-0.61107
G1 X107.760 Y80.763 E-0.09198
G1 E-0.04000 F2100.00000
G1 Z0.800 F10800.000
G1 X108.514 Y130.006
G1 Z0.200
G1 E0.80000 F2100.00000
G1 F1200
G1 X108.514 Y123.190 E0.21370
G1 X107.760 Y123.190 E0.02365
G1 X107.760 Y129.836 E0.20838
G1 X107.678 Y129.836 E0.00257
G1 X107.486 Y129.947 E0.00695
G1 X107.006 Y130.779 E0.03012
G1 X107.006 Y123.190 E0.23794
G1 X106.251 Y123.190 E0.02365
G1 X106.251 Y132.085 E0.27890
G1 X105.497 Y133.392 E0.04729
G1 X105.497 Y123.190 E0.31986
G1 X104.743 Y123.190 E0.02365
G1 X104.743 Y133.734 E0.33060
G1 X103.989 Y133.734 E0.02365
G1 X103.989 Y123.190 E0.33060
G1 X103.235 Y123.190 E0.02365
G1 X103.235 Y133.734 E0.33060
G1 X102.481 Y133.734 E0.02365
G1 X102.481 Y123.190 E0.33060
G1 X101.726 Y123.190 E0.02365
G1 X101.726 Y133.904 E0.33592
G1 F8640
G1 X101.726 Y130.613 E-0.76000
G1 E-0.04000 F2100.00000
G1 Z0.800 F10800.000
G1 X111.136 Y139.516
G1 Z0.200
G1 E0.80000 F2100.00000
G1 F1200
G1 X111.383 Y139.164 E0.01349
G1 X111.687 Y138.860 E0.01349
G1 X112.040 Y138.613 E0.01349
G1 X112.429 Y138.431 E0.01349
G1 X112.845 Y138.320 E0.01349
G1 X113.251 Y138.284 E0.01278
G1 X113.697 Y138.318 E0.01403
G1 X114.118 Y138.431 E0.01365
G1 X114.507 Y138.613 E0.01349
G1 X114.860 Y138.860 E0.01349
G1 X115.164 Y139.164 E0.01349
G1 X115.411 Y139.516 E0.01349
G1 X115.583 Y139.885 E0.01278
G1 X115.703 Y140.316 E0.01403
G1 X115.741 Y140.750 E0.01365
G1 X115.704 Y141.179 E0.01349
G1 X115.593 Y141.594 E0.01349
G1 X115.411 Y141.984 E0.01349
G1 X115.164 Y142.336 E0.01349
G1 X114.860 Y142.640 E0.01349
G1 X114.507 Y142.887 E0.01349
G1 X114.118 Y143.069 E0.01349
G1 X113.702 Y143.180 E0.01349
G1 X113.274 Y143.218 E0.01349
G1 X112.845 Y143.180 E0.01349
G1 X112.429 Y143.069 E0.01349
G1 X112.040 Y142.887 E0.01349
G1 X111.687 Y142.640 E0.01349
G1 X111.399 Y142.352 E0.01278
G1 X111.139 Y141.989 E0.01403
G1 X110.954 Y141.594 E0.01365
G1 X110.843 Y141.179 E0.01349
G1 X110.806 Y140.750 E0.01349
G1 X110.843 Y140.321 E0.01349
G1 X110.954 Y139.906 E0.01349
G1 X111.111 Y139.570 E0.01161
G1 X111.453 Y139.730 F10800.000
G1 F1200
G1 X111.673 Y139.407 E0.01225
G1 X111.931 Y139.149 E0.01142
G1 X112.229 Y138.941 E0.01142
G1 X112.559 Y138.787 E0.01142
G1 X112.911 Y138.692 E0.01142
G1 X113.253 Y138.662 E0.01077
G1 X113.633 Y138.692 E0.01196
G1 X113.988 Y138.787 E0.01152
G1 X114.318 Y138.941 E0.01142
G1 X114.616 Y139.149 E0.01142
G1 X114.874 Y139.407 E0.01142
G1 X115.083 Y139.705 E0.01142
G1 X115.228 Y140.017 E0.01077
G1 X115.331 Y140.384 E0.01196
G1 X115.363 Y140.750 E0.01152
G1 X115.331 Y141.113 E0.01142
G1 X115.237 Y141.465 E0.01142
G1 X115.083 Y141.795 E0.01142
G1 X114.874 Y142.093 E0.01142
G1 X114.616 Y142.351 E0.01142
G1 X114.318 Y142.559 E0.01142
G1 X113.988 Y142.713 E0.01142
G1 X113.636 Y142.808 E0.01142
G1 X113.274 Y142.839 E0.01142
G1 X112.911 Y142.808 E0.01142
G1 X112.559 Y142.713 E0.01142
G1 X112.229 Y142.559 E0.01142
G1 X111.931 Y142.351 E0.01142
G1 X111.688 Y142.108 E0.01077
G1 X111.465 Y141.798 E0.01196
G1 X111.310 Y141.465 E0.01152
G1 X111.216 Y141.113 E0.01142
G1 X111.184 Y140.750 E0.01142
G1 X111.216 Y140.387 E0.01142
G1 X111.310 Y140.035 E0.01142
G1 X111.427 Y139.784 E0.00869
G1 X111.792 Y139.895 F10800.000
G1 F1200
G1 X111.963 Y139.650 E0.00935
G1 X112.174 Y139.439 E0.00935
G1 X112.418 Y139.268 E0.00935
G1 X112.688 Y139.142 E0.00935
G1 X112.976 Y139.065 E0.00935
G1 X113.255 Y139.041 E0.00877
G1 X113.569 Y139.065 E0.00989
G1 X113.859 Y139.142 E0.00939
G1 X114.129 Y139.268 E0.00935
G1 X114.373 Y139.439 E0.00935
G1 X114.584 Y139.650 E0.00935
G1 X114.755 Y139.895 E0.00935
G1 X114.873 Y140.148 E0.00877
G1 X114.958 Y140.452 E0.00989
G1 X114.984 Y140.750 E0.00939
G1 X114.958 Y141.047 E0.00935
G1 X114.881 Y141.335 E0.00935
G1 X114.755 Y141.605 E0.00935
G1 X114.584 Y141.850 E0.00935
G1 X114.373 Y142.061 E0.00935
G1 X114.129 Y142.232 E0.00935
G1 X113.859 Y142.358 E0.00935
G1 X113.571 Y142.435 E0.00935
G1 X113.274 Y142.461 E0.00935
G1 X112.976 Y142.435 E0.00935
G1 X112.688 Y142.358 E0.00935
G1 X112.418 Y142.232 E0.00935
G1 X112.174 Y142.061 E0.00935
G1 X111.976 Y141.863 E0.00877
G1 X111.792 Y141.606 E0.00989
G1 X111.666 Y141.335 E0.00939
G1 X111.589 Y141.047 E0.00935
G1 X111.563 Y140.750 E0.00935
G1 X111.589 Y140.453 E0.00935
G1 X111.666 Y140.165 E0.00935
G1 X111.767 Y139.949 E0.00747
G1 X111.643 Y139.636 F10800.000
G1 F8640
G1 X111.963 Y139.650 E-0.08254
G1 X112.174 Y139.439 E-0.06886
G1 X112.418 Y139.268 E-0.06886
G1 X112.688 Y139.142 E-0.06886
G1 X112.976 Y139.065 E-0.06886
G1 X113.255 Y139.041 E-0.06457
G1 X113.569 Y139.065 E-0.07283
G1 X113.859 Y139.142 E-0.06912
G1 X114.129 Y139.268 E-0.06886
G1 X114.373 Y139.439 E-0.06886
G1 X114.550 Y139.616 E-0.05780
G1 E-0.04000 F2100.00000
G1 Z0.800 F10800.000
G1 X116.309 Y131.714
G1 Z0.200
G1 E0.80000 F2100.00000
G1 F1200
G1 X116.309 Y106.786 E0.78161
G1 X118.490 Y106.786 E0.06838
G1 X119.236 Y105.495 E0.04674
G1 X135.767 Y116.778 E0.62755
G1 X134.340 Y119.250 E0.08949
G1 X135.767 Y121.722 E0.08949
G1 X119.236 Y133.005 E0.62755
G1 X118.490 Y131.714 E0.04674
G1 X116.369 Y131.714 E0.06650
G1 X116.686 Y131.337 F10800.000
G1 F1200
G1 X116.686 Y107.163 E0.75796
G1 X118.708 Y107.163 E0.06339
G1 X119.359 Y106.036 E0.04081
G1 X135.265 Y116.893 E0.60384
G1 X133.904 Y119.250 E0.08535
G1 X135.265 Y121.607 E0.08535
G1 X119.359 Y132.464 E0.60384
G1 X118.708 Y131.337 E0.04081
G1 X116.746 Y131.337 E0.06151
G1 X117.064 Y130.960 F10800.000
G1 F1200
G1 X117.064 Y107.540 E0.73432
G1 X118.926 Y107.540 E0.05839
G1 X119.482 Y106.576 E0.03489
G1 X134.764 Y117.007 E0.58012
G1 X133.469 Y119.250 E0.08121
G1 X134.764 Y121.493 E0.08121
G1 X119.482 Y131.924 E0.58013
G1 X118.926 Y130.960 E0.03489
G1 X117.124 Y130.960 E0.05651
G1 X116.667 Y130.910 F10800.000
G1 F8640
G1 X117.115 Y127.669 E-0.76000
G1 E-0.04000 F2100.00000
G1 Z0.800 F10800.000
G1 X113.702 Y100.180
G1 Z0.200
G1 E0.80000 F2100.00000
G1 F1200
G1 X113.274 Y100.218 E0.01349
G1 X112.845 Y100.180 E0.01349
G1 X112.429 Y100.069 E0.01349
G1 X112.040 Y99.887 E0.01349
G1 X111.687 Y99.640 E0.01349
G1 X111.383 Y99.336 E0.01349
G1 X111.136 Y98.984 E0.01349
G1 X110.954 Y98.594 E0.01349
G1 X110.843 Y98.179 E0.01349
G1 X110.806 Y97.750 E0.01349
G1 X110.843 Y97.321 E0.01349
G1 X110.954 Y96.906 E0.01349
G1 X111.136 Y96.516 E0.01349
G1 X111.383 Y96.164 E0.01349
G1 X111.687 Y95.860 E0.01349
G1 X112.040 Y95.613 E0.01349
G1 X112.429 Y95.431 E0.01349
G1 X112.845 Y95.320 E0.01349
G1 X113.251 Y95.284 E0.01278
G1 X113.697 Y95.318 E0.01403
G1 X114.118 Y95.431 E0.01365
G1 X114.507 Y95.613 E0.01349
G1 X114.860 Y95.860 E0.01349
G1 X115.164 Y96.164 E0.01349
G1 X115.398 Y96.497 E0.01278
G1 X115.591 Y96.901 E0.01403
G1 X115.704 Y97.321 E0.01365
G1 X115.741 Y97.750 E0.01349
G1 X115.704 Y98.179 E0.01349
G1 X115.593 Y98.594 E0.01349
G1 X115.411 Y98.984 E0.01349
G1 X115.164 Y99.336 E0.01349
G1 X114.876 Y99.624 E0.01278
G1 X114.512 Y99.885 E0.01403
G1 X114.118 Y100.069 E0.01365
G1 X113.760 Y100.165 E0.01161
G1 X113.662 Y99.801 F10800.000
G1 F1200
G1 X113.274 Y99.839 E0.01225
G1 X112.911 Y99.808 E0.01142
G1 X112.559 Y99.713 E0.01142
G1 X112.229 Y99.559 E0.01142
G1 X111.931 Y99.351 E0.01142
G1 X111.673 Y99.093 E0.01142
G1 X111.464 Y98.795 E0.01142
G1 X111.310 Y98.465 E0.01142
G1 X111.216 Y98.113 E0.01142
G1 X111.184 Y97.750 E0.01142
G1 X111.216 Y97.387 E0.01142
G1 X111.310 Y97.035 E0.01142
G1 X111.464 Y96.705 E0.01142
G1 X111.673 Y96.407 E0.01142
G1 X111.931 Y96.149 E0.01142
G1 X112.229 Y95.941 E0.01142
G1 X112.559 Y95.787 E0.01142
G1 X112.911 Y95.692 E0.01142
G1 X113.253 Y95.662 E0.01077
G1 X113.633 Y95.692 E0.01196
G1 X113.988 Y95.787 E0.01152
G1 X114.318 Y95.941 E0.01142
G1 X114.616 Y96.149 E0.01142
G1 X114.874 Y96.407 E0.01142
G1 X115.071 Y96.688 E0.01077
G1 X115.236 Y97.032 E0.01196
G1 X115.331 Y97.387 E0.01152
G1 X115.363 Y97.750 E0.01142
G1 X115.331 Y98.113 E0.01142
G1 X115.237 Y98.465 E0.01142
G1 X115.083 Y98.795 E0.01142
G1 X114.874 Y99.093 E0.01142
G1 X114.631 Y99.336 E0.01077
G1 X114.321 Y99.558 E0.01196
G1 X113.988 Y99.713 E0.01152
G1 X113.720 Y99.785 E0.00869
G1 X113.571 Y99.435 F10800.000
G1 F1200
G1 X113.274 Y99.461 E0.00935
G1 X112.976 Y99.435 E0.00935
G1 X112.688 Y99.358 E0.00935
G1 X112.418 Y99.232 E0.00935
G1 X112.174 Y99.061 E0.00935
G1 X111.963 Y98.850 E0.00935
G1 X111.792 Y98.605 E0.00935
G1 X111.666 Y98.335 E0.00935
G1 X111.589 Y98.047 E0.00935
G1 X111.563 Y97.750 E0.00935
G1 X111.589 Y97.453 E0.00935
G1 X111.666 Y97.165 E0.00935
G1 X111.792 Y96.895 E0.00935
G1 X111.963 Y96.650 E0.00935
G1 X112.174 Y96.439 E0.00935
G1 X112.418 Y96.268 E0.00935
G1 X112.688 Y96.142 E0.00935
G1 X112.976 Y96.065 E0.00935
G1 X113.255 Y96.041 E0.00877
G1 X113.569 Y96.065 E0.00989
G1 X113.859 Y96.142 E0.00939
G1 X114.129 Y96.268 E0.00935
G1 X114.373 Y96.439 E0.00935
G1 X114.584 Y96.650 E0.00935
G1 X114.744 Y96.879 E0.00877
G1 X114.881 Y97.164 E0.00989
G1 X114.958 Y97.453 E0.00939
G1 X114.984 Y97.750 E0.00935
G1 X114.958 Y98.047 E0.00935
G1 X114.881 Y98.335 E0.00935
G1 X114.755 Y98.605 E0.00935
G1 X114.584 Y98.850 E0.00935
G1 X114.386 Y99.047 E0.00877
G1 X114.130 Y99.231 E0.00989
G1 X113.859 Y99.358 E0.00939
G1 X113.629 Y99.419 E0.00747
G1 X113.469 Y99.715 F10800.000
G1 F8640
G1 X113.274 Y99.461 E-0.08254
G1 X112.976 Y99.435 E-0.06886
G1 X112.688 Y99.358 E-0.06886
G1 X112.418 Y99.232 E-0.06886
G1 X112.174 Y99.061 E-0.06886
G1 X111.963 Y98.850 E-0.06886
G1 X111.792 Y98.605 E-0.06886
G1 X111.666 Y98.335 E-0.06886
G1 X111.589 Y98.047 E-0.06886
G1 X111.563 Y97.750 E-0.06886
G1 X111.584 Y97.501 E-0.05774
G1 E-0.04000 F2100.00000
G1 Z0.800 F10800.000
G1 X142.636 Y118.016
G1 Z0.200
G1 E0.80000 F2100.00000
G1 F1200
G1 X142.883 Y117.664 E0.01349
G1 X143.187 Y117.360 E0.01349
G1 X143.540 Y117.113 E0.01349
G1 X143.929 Y116.931 E0.01349
G1 X144.345 Y116.820 E0.01349
G1 X144.756 Y116.784 E0.01295
G1 X145.198 Y116.819 E0.01389
G1 X145.618 Y116.931 E0.01361
G1 X146.007 Y117.113 E0.01349
G1 X146.360 Y117.360 E0.01349
G1 X146.664 Y117.664 E0.01349
G1 X146.911 Y118.016 E0.01349
G1 X147.093 Y118.406 E0.01349
G1 X147.204 Y118.821 E0.01349
G1 X147.241 Y119.250 E0.01349
G1 X147.204 Y119.679 E0.01349
G1 X147.093 Y120.094 E0.01349
G1 X146.911 Y120.484 E0.01349
G1 X146.664 Y120.836 E0.01349
G1 X146.360 Y121.140 E0.01349
G1 X146.007 Y121.387 E0.01349
G1 X145.618 Y121.569 E0.01349
G1 X145.202 Y121.680 E0.01349
G1 X144.774 Y121.718 E0.01349
G1 X144.345 Y121.680 E0.01349
G1 X143.929 Y121.569 E0.01349
G1 X143.540 Y121.387 E0.01349
G1 X143.187 Y121.140 E0.01349
G1 X142.883 Y120.836 E0.01349
G1 X142.636 Y120.484 E0.01349
G1 X142.454 Y120.094 E0.01349
G1 X142.343 Y119.679 E0.01349
G1 X142.306 Y119.250 E0.01349
G1 X142.343 Y118.821 E0.01349
G1 X142.454 Y118.406 E0.01349
G1 X142.611 Y118.070 E0.01161
G1 X142.953 Y118.230 F10800.000
G1 F1200
G1 X143.173 Y117.907 E0.01225
G1 X143.431 Y117.649 E0.01142
G1 X143.729 Y117.441 E0.01142
G1 X144.059 Y117.287 E0.01142
G1 X144.411 Y117.192 E0.01142
G1 X144.758 Y117.162 E0.01093
G1 X145.134 Y117.192 E0.01182
G1 X145.488 Y117.287 E0.01150
G1 X145.818 Y117.441 E0.01142
G1 X146.116 Y117.649 E0.01142
G1 X146.374 Y117.907 E0.01142
G1 X146.583 Y118.205 E0.01142
G1 X146.737 Y118.535 E0.01142
G1 X146.831 Y118.887 E0.01142
G1 X146.863 Y119.250 E0.01142
G1 X146.831 Y119.613 E0.01142
G1 X146.737 Y119.965 E0.01142
G1 X146.583 Y120.295 E0.01142
G1 X146.374 Y120.593 E0.01142
G1 X146.116 Y120.851 E0.01142
G1 X145.818 Y121.059 E0.01142
G1 X145.488 Y121.213 E0.01142
G1 X145.136 Y121.308 E0.01142
G1 X144.774 Y121.339 E0.01142
G1 X144.411 Y121.308 E0.01142
G1 X144.059 Y121.213 E0.01142
G1 X143.729 Y121.059 E0.01142
G1 X143.431 Y120.851 E0.01142
G1 X143.173 Y120.593 E0.01142
G1 X142.964 Y120.295 E0.01142
G1 X142.810 Y119.965 E0.01142
G1 X142.716 Y119.613 E0.01142
G1 X142.684 Y119.250 E0.01142
G1 X142.716 Y118.887 E0.01142
G1 X142.810 Y118.535 E0.01142
G1 X142.927 Y118.284 E0.00869
G1 X143.292 Y118.395 F10800.000
G1 F1200
G1 X143.463 Y118.150 E0.00935
G1 X143.674 Y117.939 E0.00935
G1 X143.918 Y117.768 E0.00935
