; generated by Slic3r Prusa Edition 1.41.0+win64 on 2019-01-31 at 21:21:59

; 

; external perimeters extrusion width = 0.45mm
; perimeters extrusion width = 0.45mm
; infill extrusion width = 0.45mm
; solid infill extrusion width = 0.45mm
; top infill extrusion width = 0.40mm
; first layer extrusion width = 0.42mm

M201 X1000 Y1000 Z1000 E5000 ; sets maximum accelerations, mm/sec^2
M203 X200 Y200 Z12 E120 ; sets maximum feedrates, mm/sec
M204 P1250 R1250 T1250 ; sets acceleration (P, T) and retract acceleration (R), mm/sec^2
M205 X8.00 Y8.00 Z0.40 E1.50 ; sets the jerk limits, mm/sec
M205 S0 T0 ; sets the minimum extruding and travel feed rate, mm/sec
M107
M115 U3.4.1 ; tell printer latest fw version
M83  ; extruder relative mode
M104 S215 ; set extruder temp
M140 S65 ; set bed temp
M190 S65 ; wait for bed temp
M109 S215 ; wait for extruder temp
G28 W ; home all without mesh bed level
G80 ; mesh bed leveling
G1 Y-3.0 F1000.0 ; go outside print area
G92 E0.0
G1 X60.0 E9.0  F1000.0 ; intro line
M73 Q0 S35
M73 P0 R35
G1 X100.0 E12.5  F1000.0 ; intro line
G92 E0.0
M221 S95
M900 K30; Filament gcode
G21 ; set units to millimeters
G90 ; use absolute coordinates
M83 ; use relative distances for extrusion
;BEFORE_LAYER_CHANGE
G92 E0.0
;0.2


G1 E-0.80000 F2100.00000
G1 Z0.600 F10800.000
;AFTER_LAYER_CHANGE
;0.2
G1 X110.320 Y99.676
G1 Z0.200
G1 E0.80000 F2100.00000
M204 S1000
G1 F1200
G1 X110.518 Y99.031 E0.02116
G1 X110.877 Y98.460 E0.02116
G1 X111.708 Y97.628 E0.03687
G1 X112.340 Y97.241 E0.02324
G1 X112.827 Y97.088 E0.01598
G1 X113.329 Y97.034 E0.01586
G1 X136.654 Y97.034 E0.73133
G1 X137.600 Y97.217 E0.03022
G1 X138.415 Y97.738 E0.03034
G1 X139.360 Y98.798 E0.04451
G1 X139.603 Y99.347 E0.01882
G1 X139.710 Y99.937 E0.01882
G1 X139.683 Y110.306 E0.32511
G1 X139.488 Y110.956 E0.02128
G1 X139.130 Y111.532 E0.02128
G1 X138.295 Y112.369 E0.03706
G1 X137.660 Y112.759 E0.02337
G1 X136.710 Y112.965 E0.03046
G1 X129.289 Y112.952 E0.23268
G1 X112.928 Y110.231 E0.52004
G1 X112.283 Y110.033 E0.02116
G1 X111.712 Y109.674 E0.02116
G1 X110.883 Y108.847 E0.03671
G1 X110.496 Y108.215 E0.02324
G1 X110.290 Y107.257 E0.03071
G1 X110.319 Y99.736 E0.23581
G1 F8640
G1 X110.518 Y99.031 E-0.16910
G1 X110.877 Y98.460 E-0.15579
G1 X111.708 Y97.628 E-0.27155
G1 X112.312 Y97.259 E-0.16356
G1 E-0.04000 F2100.00000
G1 Z0.800 F10800.000
G1 X112.519 Y97.575
G1 Z0.200
G1 E0.80000 F2100.00000
G1 F1200
G1 X113.334 Y97.412 E0.02608
G1 X136.654 Y97.411 E0.73116
G1 X137.467 Y97.570 E0.02597
G1 X138.163 Y98.018 E0.02597
G1 X139.029 Y98.978 E0.04054
G1 X139.242 Y99.458 E0.01646
G1 X139.335 Y99.978 E0.01658
G1 X139.315 Y110.220 E0.32113
G1 X139.148 Y110.794 E0.01873
G1 X138.831 Y111.301 E0.01873
G1 X138.049 Y112.083 E0.03468
G1 X137.481 Y112.425 E0.02078
G1 X136.684 Y112.588 E0.02552
G1 X129.193 Y112.559 E0.23486
G1 X112.826 Y109.825 E0.52031
G1 X112.328 Y109.635 E0.01669
G1 X111.888 Y109.329 E0.01680
G1 X111.163 Y108.593 E0.03241
G1 X110.830 Y108.036 E0.02032
G1 X110.667 Y107.243 E0.02541
G1 X110.689 Y99.752 E0.23486
G1 X110.861 Y99.187 E0.01851
G1 X111.175 Y98.692 E0.01839
G1 X111.951 Y97.917 E0.03438
G1 X112.467 Y97.606 E0.01889
; PURGING FINISHED
G1 F8640
G1 X113.334 Y97.412 E-0.20518
G1 X115.737 Y97.412 E-0.55482
G1 E-0.04000 F2100.00000
G1 Z0.800 F10800.000
G1 X131.163 Y101.713
G1 Z0.200
G1 E0.80000 F2100.00000
G1 F1200
G1 X135.037 Y101.713 E0.12147
G1 X135.037 Y108.287 E0.20613
G1 X131.163 Y108.287 E0.12147
G1 X131.163 Y101.773 E0.20425
G1 X131.540 Y102.090 F10800.000
G1 F1200
G1 X134.660 Y102.090 E0.09783
G1 X134.660 Y107.910 E0.18248
G1 X131.540 Y107.910 E0.09783
G1 X131.540 Y102.150 E0.18060
G1 X131.475 Y101.695 F10800.000
G1 F8640
G1 X134.660 Y102.090 E-0.72055
G1 X134.660 Y102.261 E-0.03945
G1 E-0.04000 F2100.00000
G1 Z0.800 F10800.000
G1 X114.963 Y101.713
G1 Z0.200
G1 E0.80000 F2100.00000
G1 F1200
G1 X126.937 Y101.713 E0.37544
G1 X126.937 Y105.587 E0.12147
G1 X114.963 Y105.587 E0.37544
G1 X114.963 Y101.773 E0.11959
G1 X115.340 Y102.090 F10800.000
G1 F1200
G1 X126.560 Y102.090 E0.35180
G1 X126.560 Y105.210 E0.09783
G1 X115.340 Y105.210 E0.35180
G1 X115.340 Y102.150 E0.09594
G1 X115.172 Y101.727 F10800.000
G1 F8640
G1 X118.631 Y102.132 E-0.76000
G1 E-0.04000 F2100.00000
G1 Z0.800 F10800.000
G1 X129.637 Y107.957
G1 Z0.200
G1 E0.80000 F2100.00000
G1 F1200
G1 X128.793 Y107.113 E0.03742
G1 X113.593 Y107.113 E0.47659
G1 X113.437 Y106.957 E0.00692
G1 X113.437 Y100.343 E0.20737
G1 X113.593 Y100.187 E0.00692
G1 X136.407 Y100.187 E0.71531
G1 X136.558 Y100.338 E0.00671
G1 X136.563 Y109.657 E0.29218
G1 X136.407 Y109.813 E0.00692
G1 X129.793 Y109.813 E0.20737
G1 X129.637 Y109.657 E0.00692
G1 X129.637 Y108.017 E0.05142
G1 X129.260 Y108.113 F10800.000
G1 F1200
G1 X128.637 Y107.490 E0.02763
G1 X113.437 Y107.490 E0.47659
G1 X113.060 Y107.113 E0.01672
G1 X113.060 Y100.187 E0.21716
G1 X113.437 Y99.810 E0.01672
G1 X136.563 Y99.810 E0.72510
G1 X136.935 Y100.182 E0.01650
G1 X136.940 Y109.813 E0.30197
G1 X136.563 Y110.190 E0.01671
G1 X129.637 Y110.190 E0.21716
G1 X129.260 Y109.813 E0.01672
G1 X129.260 Y108.173 E0.05142
G1 X129.439 Y107.755 F10800.000
G1 F8640
G1 X128.637 Y107.490 E-0.21346
G1 X126.270 Y107.490 E-0.54654
G1 E-0.04000 F2100.00000
G1 Z0.800 F10800.000
G1 X130.514 Y109.700
G1 Z0.200
G1 E0.80000 F2100.00000
G1 F1200
G1 X129.920 Y109.106 E0.02647
G1 X129.920 Y108.570 E0.01688
G1 X131.050 Y109.700 E0.05035
G1 X131.586 Y109.700 F10800.000
G1 F1200
G1 X127.220 Y105.334 E0.19453
G1 X127.220 Y105.870 E0.01688
G1 X128.180 Y106.830 E0.04279
G1 X127.644 Y106.830 E0.01688
G1 X126.684 Y105.870 E0.04279
G1 X126.148 Y105.870 E0.01688
G1 X127.108 Y106.830 E0.04279
G1 X126.572 Y106.830 E0.01688
G1 X125.612 Y105.870 E0.04279
G1 X125.076 Y105.870 E0.01688
G1 X126.037 Y106.830 E0.04279
G1 X125.501 Y106.830 E0.01688
G1 X124.540 Y105.870 E0.04279
G1 X124.005 Y105.870 E0.01688
G1 X124.965 Y106.830 E0.04279
G1 X124.429 Y106.830 E0.01688
G1 X123.469 Y105.870 E0.04279
G1 X122.933 Y105.870 E0.01688
G1 X123.893 Y106.830 E0.04279
G1 X123.357 Y106.830 E0.01688
G1 X122.397 Y105.870 E0.04279
G1 X121.861 Y105.870 E0.01688
G1 X122.821 Y106.830 E0.04279
G1 X122.285 Y106.830 E0.01688
G1 X121.325 Y105.870 E0.04279
G1 X120.789 Y105.870 E0.01688
G1 X121.750 Y106.830 E0.04279
G1 X121.214 Y106.830 E0.01688
G1 X120.253 Y105.870 E0.04279
G1 X119.718 Y105.870 E0.01688
G1 X120.678 Y106.830 E0.04279
G1 X120.142 Y106.830 E0.01688
G1 X119.182 Y105.870 E0.04279
G1 X118.646 Y105.870 E0.01688
G1 X119.606 Y106.830 E0.04279
G1 X119.070 Y106.830 E0.01688
G1 X118.110 Y105.870 E0.04279
G1 X117.574 Y105.870 E0.01688
G1 X118.534 Y106.830 E0.04279
G1 X117.999 Y106.830 E0.01688
G1 X117.038 Y105.870 E0.04279
G1 X116.502 Y105.870 E0.01688
G1 X117.463 Y106.830 E0.04279
G1 X116.927 Y106.830 E0.01688
G1 X115.967 Y105.870 E0.04279
G1 X115.431 Y105.870 E0.01688
G1 X116.391 Y106.830 E0.04279
G1 X115.855 Y106.830 E0.01688
G1 X113.720 Y104.695 E0.09514
G1 X113.720 Y105.231 E0.01688
G1 X115.319 Y106.830 E0.07126
G1 X114.783 Y106.830 E0.01688
G1 X113.720 Y105.767 E0.04738
G1 X113.720 Y106.303 E0.01688
G1 X114.417 Y107.000 E0.03107
G1 F8640
G1 X113.720 Y106.303 E-0.22768
G1 X113.720 Y105.767 E-0.12373
G1 X114.783 Y106.830 E-0.34726
G1 X115.049 Y106.830 E-0.06133
G1 E-0.04000 F2100.00000
G1 Z0.800 F10800.000
G1 X114.850 Y105.289
G1 Z0.200
G1 E0.80000 F2100.00000
G1 F1200
G1 X113.720 Y104.159 E0.05035
G1 X113.720 Y103.623 E0.01688
G1 X114.680 Y104.583 E0.04279
G1 X114.680 Y104.048 E0.01688
G1 X113.720 Y103.087 E0.04279
G1 X113.720 Y102.551 E0.01688
G1 X114.680 Y103.512 E0.04279
G1 X114.680 Y102.976 E0.01688
G1 X113.720 Y102.016 E0.04279
G1 X113.720 Y101.480 E0.01688
G1 X114.680 Y102.440 E0.04279
G1 X114.680 Y101.904 E0.01688
G1 X113.720 Y100.944 E0.04279
G1 X113.720 Y100.470 E0.01493
G1 X113.782 Y100.470 E0.00195
G1 X114.742 Y101.430 E0.04279
G1 X115.278 Y101.430 E0.01688
G1 X114.318 Y100.470 E0.04279
G1 X114.853 Y100.470 E0.01688
G1 X115.814 Y101.430 E0.04279
G1 X116.350 Y101.430 E0.01688
G1 X115.389 Y100.470 E0.04279
G1 X115.925 Y100.470 E0.01688
G1 X116.885 Y101.430 E0.04279
G1 X117.421 Y101.430 E0.01688
G1 X116.461 Y100.470 E0.04279
G1 X116.997 Y100.470 E0.01688
G1 X117.957 Y101.430 E0.04279
G1 X118.493 Y101.430 E0.01688
G1 X117.533 Y100.470 E0.04279
G1 X118.069 Y100.470 E0.01688
G1 X119.029 Y101.430 E0.04279
G1 X119.565 Y101.430 E0.01688
G1 X118.605 Y100.470 E0.04279
G1 X119.140 Y100.470 E0.01688
G1 X120.101 Y101.430 E0.04279
G1 X120.637 Y101.430 E0.01688
G1 X119.676 Y100.470 E0.04279
G1 X120.212 Y100.470 E0.01688
G1 X121.172 Y101.430 E0.04279
G1 X121.708 Y101.430 E0.01688
G1 X120.748 Y100.470 E0.04279
G1 X121.284 Y100.470 E0.01688
G1 X122.244 Y101.430 E0.04279
G1 X122.780 Y101.430 E0.01688
G1 X121.820 Y100.470 E0.04279
G1 X122.356 Y100.470 E0.01688
G1 X123.316 Y101.430 E0.04279
G1 X123.852 Y101.430 E0.01688
G1 X122.892 Y100.470 E0.04279
G1 X123.427 Y100.470 E0.01688
G1 X124.388 Y101.430 E0.04279
G1 X124.924 Y101.430 E0.01688
G1 X123.963 Y100.470 E0.04279
G1 X124.499 Y100.470 E0.01688
G1 X125.459 Y101.430 E0.04279
G1 X125.995 Y101.430 E0.01688
G1 X125.035 Y100.470 E0.04279
G1 X125.571 Y100.470 E0.01688
G1 X126.701 Y101.600 E0.05035
G1 F8640
G1 X125.571 Y100.470 E-0.36898
G1 X125.035 Y100.470 E-0.12373
G1 X125.854 Y101.288 E-0.26728
G1 E-0.04000 F2100.00000
G1 Z0.800 F10800.000
G1 X133.439 Y100.300
G1 Z0.200
G1 E0.80000 F2100.00000
G1 F1200
G1 X134.569 Y101.430 E0.05035
G1 X134.033 Y101.430 E0.01688
G1 X133.073 Y100.470 E0.04279
G1 X132.537 Y100.470 E0.01688
G1 X133.497 Y101.430 E0.04279
G1 X132.962 Y101.430 E0.01688
G1 X132.001 Y100.470 E0.04279
G1 X131.465 Y100.470 E0.01688
G1 X132.426 Y101.430 E0.04279
G1 X131.890 Y101.430 E0.01688
G1 X130.930 Y100.470 E0.04279
G1 X130.394 Y100.470 E0.01688
G1 X131.354 Y101.430 E0.04279
G1 X130.880 Y101.430 E0.01493
G1 X130.880 Y101.492 E0.00195
G1 X129.858 Y100.470 E0.04555
G1 X129.322 Y100.470 E0.01688
G1 X130.880 Y102.028 E0.06943
G1 X130.880 Y102.564 E0.01688
G1 X128.786 Y100.470 E0.09330
G1 X128.250 Y100.470 E0.01688
G1 X130.880 Y103.100 E0.11718
G1 X130.880 Y103.636 E0.01688
G1 X127.714 Y100.470 E0.14106
G1 X127.179 Y100.470 E0.01688
G1 X130.880 Y104.171 E0.16494
G1 X130.880 Y104.707 E0.01688
G1 X126.643 Y100.470 E0.18881
G1 X126.107 Y100.470 E0.01688
G1 X130.880 Y105.243 E0.21269
G1 X130.880 Y105.779 E0.01688
G1 X127.220 Y102.119 E0.16309
G1 X127.220 Y102.655 E0.01688
G1 X130.880 Y106.315 E0.16309
G1 X130.880 Y106.851 E0.01688
G1 X127.220 Y103.191 E0.16309
G1 X127.220 Y103.726 E0.01688
G1 X130.880 Y107.387 E0.16309
G1 X130.880 Y107.923 E0.01688
G1 X127.220 Y104.262 E0.16309
G1 X127.220 Y104.798 E0.01688
G1 X131.952 Y109.530 E0.21085
G1 X132.488 Y109.530 E0.01688
G1 X131.527 Y108.570 E0.04279
G1 X132.063 Y108.570 E0.01688
G1 X133.024 Y109.530 E0.04279
G1 X133.559 Y109.530 E0.01688
G1 X132.599 Y108.570 E0.04279
G1 X133.135 Y108.570 E0.01688
G1 X134.095 Y109.530 E0.04279
G1 X134.631 Y109.530 E0.01688
G1 X133.671 Y108.570 E0.04279
G1 X134.207 Y108.570 E0.01688
G1 X135.167 Y109.530 E0.04279
G1 X135.703 Y109.530 E0.01688
G1 X134.743 Y108.570 E0.04279
G1 X135.279 Y108.570 E0.01688
G1 X136.239 Y109.530 E0.04279
G1 X136.280 Y109.530 E0.00130
G1 X136.280 Y109.035 E0.01559
G1 X135.320 Y108.075 E0.04277
G1 X135.320 Y107.539 E0.01688
G1 X136.279 Y108.499 E0.04276
G1 X136.279 Y107.963 E0.01689
G1 X135.320 Y107.004 E0.04274
G1 X135.320 Y106.468 E0.01688
G1 X136.279 Y107.427 E0.04273
G1 X136.279 Y106.891 E0.01689
G1 X135.320 Y105.932 E0.04272
G1 X135.320 Y105.396 E0.01688
G1 X136.278 Y106.354 E0.04271
G1 X136.278 Y105.818 E0.01689
G1 X135.320 Y104.860 E0.04269
G1 X135.320 Y104.324 E0.01688
G1 X136.278 Y105.282 E0.04268
G1 X136.278 Y104.746 E0.01689
G1 X135.320 Y103.788 E0.04267
G1 X135.320 Y103.253 E0.01688
G1 X136.277 Y104.210 E0.04266
G1 X136.277 Y103.674 E0.01689
G1 X135.320 Y102.717 E0.04265
G1 X135.320 Y102.181 E0.01688
G1 X136.277 Y103.138 E0.04263
G1 X136.276 Y102.601 E0.01689
G1 X134.145 Y100.470 E0.09498
G1 X134.681 Y100.470 E0.01688
G1 X136.276 Y102.065 E0.07109
G1 X136.276 Y101.529 E0.01689
G1 X135.217 Y100.470 E0.04720
G1 X135.752 Y100.470 E0.01688
G1 X136.445 Y101.163 E0.03087
M106 S255
;BEFORE_LAYER_CHANGE
G92 E0.0
;0.3


G1 F8640
G1 X135.752 Y100.470 E-0.22627
G1 X135.217 Y100.470 E-0.12373
G1 X136.276 Y101.529 E-0.34591
G1 X136.276 Y101.807 E-0.06409
G1 E-0.04000 F2100.00000
G1 Z0.800 F10800.000
;AFTER_LAYER_CHANGE
;0.3
M104 S210 ; set temperature
M140 S60 ; set bed temperature
G1 X137.600 Y97.217
G1 Z0.300
G1 E0.80000 F2100.00000
G1 F1676
G1 X138.415 Y97.738 E0.01603
G1 X139.360 Y98.798 E0.02352
G1 X139.603 Y99.347 E0.00994
G1 X139.710 Y99.937 E0.00994
G1 X139.683 Y110.306 E0.17181
G1 X139.488 Y110.956 E0.01124
G1 X139.130 Y111.532 E0.01124
G1 X138.295 Y112.369 E0.01959
G1 X137.660 Y112.759 E0.01235
G1 X136.710 Y112.965 E0.01610
G1 X129.289 Y112.952 E0.12296
G1 X112.928 Y110.231 E0.27482
G1 X112.283 Y110.033 E0.01118
G1 X111.712 Y109.674 E0.01118
G1 X110.883 Y108.847 E0.01940
G1 X110.496 Y108.215 E0.01228
G1 X110.290 Y107.257 E0.01623
G1 X110.320 Y99.676 E0.12561
G1 X110.518 Y99.031 E0.01118
G1 X110.877 Y98.460 E0.01118
G1 X111.708 Y97.628 E0.01949
G1 X112.340 Y97.241 E0.01228
G1 X112.827 Y97.088 E0.00844
G1 X113.329 Y97.034 E0.00838
G1 X136.654 Y97.034 E0.38647
G1 X137.541 Y97.205 E0.01497
; PURGING FINISHED
G1 F8640
G1 X138.415 Y97.738 E-0.23636
G1 X139.360 Y98.798 E-0.32779
G1 X139.603 Y99.347 E-0.13857
G1 X139.647 Y99.591 E-0.05729
G1 E-0.04000 F2100.00000
G1 Z0.900 F10800.000
G1 X135.104 Y101.646
G1 Z0.300
G1 E0.80000 F2100.00000
M204 S800
G1 F1500
G1 X135.104 Y108.354 E0.11950
G1 X131.096 Y108.354 E0.07139
G1 X131.096 Y101.646 E0.11950
G1 X135.044 Y101.646 E0.07032
M204 S1000
G1 X134.675 Y102.075 F10800.000
M204 S800
G1 F1500
G1 X134.675 Y107.925 E0.10423
G1 X131.525 Y107.925 E0.05612
G1 X131.525 Y102.075 E0.10423
G1 X134.615 Y102.075 E0.05505
M204 S1000
G1 X135.050 Y101.934 F10800.000
G1 F8640
G1 X134.649 Y105.366 E-0.76000
G1 E-0.04000 F2100.00000
G1 Z0.900 F10800.000
G1 X114.896 Y101.646
G1 Z0.300
G1 E0.80000 F2100.00000
M204 S800
G1 F1500
G1 X127.004 Y101.646 E0.21571
G1 X127.004 Y105.654 E0.07139
G1 X114.896 Y105.654 E0.21571
G1 X114.896 Y101.706 E0.07032
M204 S1000
G1 X115.325 Y102.075 F10800.000
M204 S800
G1 F1500
G1 X126.575 Y102.075 E0.20044
G1 X126.575 Y105.225 E0.05612
G1 X115.325 Y105.225 E0.20044
G1 X115.325 Y102.135 E0.05505
M204 S1000
G1 X115.157 Y101.712 F10800.000
G1 F8640
G1 X118.616 Y102.117 E-0.76000
G1 E-0.04000 F2100.00000
G1 Z0.900 F10800.000
G1 X129.704 Y107.929
G1 Z0.300
G1 E0.80000 F2100.00000
M204 S800
G1 F1676
G1 X128.821 Y107.046 E0.02224
G1 X113.621 Y107.046 E0.27081
G1 X113.504 Y106.929 E0.00295
G1 X113.504 Y100.371 E0.11685
G1 X113.621 Y100.254 E0.00295
G1 X136.379 Y100.254 E0.40548
G1 X136.484 Y100.359 E0.00265
G1 X136.496 Y109.630 E0.16518
G1 X136.379 Y109.746 E0.00294
G1 X129.821 Y109.746 E0.11685
G1 X129.704 Y109.629 E0.00295
G1 X129.704 Y107.989 E0.02922
M204 S1000
G1 X129.275 Y108.107 F10800.000
M204 S800
G1 F1676
G1 X128.643 Y107.475 E0.01592
G1 X113.443 Y107.475 E0.27081
G1 X113.075 Y107.107 E0.00928
G1 X113.075 Y100.193 E0.12318
G1 X113.443 Y99.825 E0.00928
G1 X136.557 Y99.825 E0.41181
G1 X136.913 Y100.181 E0.00897
G1 X136.925 Y109.807 E0.17150
G1 X136.557 Y110.175 E0.00927
G1 X129.643 Y110.175 E0.12318
G1 X129.275 Y109.807 E0.00928
G1 X129.275 Y108.167 E0.02922
M204 S1000
G1 X129.454 Y107.749 F10800.000
G1 F8640
G1 X128.643 Y107.475 E-0.21633
G1 X126.289 Y107.475 E-0.54367
G1 E-0.04000 F2100.00000
G1 Z0.900 F10800.000
G1 X127.089 Y106.918
G1 Z0.300
G1 E0.80000 F2100.00000
M204 S1250
G1 F1676
G1 X130.775 Y103.232 E0.09447
G1 X130.775 Y103.848 E0.01117
G1 X127.898 Y106.725 E0.07373
G1 X128.515 Y106.725 E0.01117
G1 X130.775 Y104.465 E0.05793
G1 X130.775 Y105.081 E0.01117
G1 X129.043 Y106.814 E0.04440
G1 X129.351 Y107.122 E0.00790
G1 X130.775 Y105.698 E0.03650
G1 X130.775 Y106.314 E0.01117
G1 X129.659 Y107.430 E0.02860
G1 X129.967 Y107.739 E0.00790
G1 X130.775 Y106.931 E0.02070
G1 X130.775 Y107.547 E0.01117
G1 X130.025 Y108.297 E0.01923
G1 X130.025 Y108.914 E0.01117
G1 X130.775 Y108.164 E0.01923
