; generated by Slic3r Prusa Edition 1.41.0+win64 on 2019-02-10 at 13:22:11

; 

; external perimeters extrusion width = 0.45mm
; perimeters extrusion width = 0.45mm
; infill extrusion width = 0.45mm
; solid infill extrusion width = 0.45mm
; top infill extrusion width = 0.40mm
; first layer extrusion width = 0.42mm

M201 X1000 Y1000 Z1000 E5000 ; sets maximum accelerations, mm/sec^2
M203 X200 Y200 Z12 E120 ; sets maximum feedrates, mm/sec
M204 P1250 R1250 T1250 ; sets acceleration (P, T) and retract acceleration (R), mm/sec^2
M205 X8.00 Y8.00 Z0.40 E1.50 ; sets the jerk limits, mm/sec
M205 S0 T0 ; sets the minimum extruding and travel feed rate, mm/sec
M107
M115 U3.4.1 ; tell printer latest fw version
M83  ; extruder relative mode
M104 S215 ; set extruder temp
M140 S60 ; set bed temp
M190 S60 ; wait for bed temp
M109 S215 ; wait for extruder temp
G28 W ; home all without mesh bed level
G80 ; mesh bed leveling
G1 Y-3.0 F1000.0 ; go outside print area
G92 E0.0
G1 X60.0 E9.0  F1000.0 ; intro line
M73 Q0 S14
M73 P0 R14
G1 X100.0 E12.5  F1000.0 ; intro line
G92 E0.0
M221 S95
M900 K30; Filament gcode
G21 ; set units to millimeters
G90 ; use absolute coordinates
M83 ; use relative distances for extrusion
;BEFORE_LAYER_CHANGE
G92 E0.0
;0.2


G1 E-0.80000 F2100.00000
G1 Z0.600 F10800.000
;AFTER_LAYER_CHANGE
;0.2
G1 X97.430 Y78.170
G1 Z0.200
G1 E0.80000 F2100.00000
M204 S1000
G1 F1200
G1 X98.857 Y76.648 E0.06540
G1 X100.442 Y75.275 E0.06575
G1 X102.161 Y74.074 E0.06575
G1 X103.995 Y73.057 E0.06575
G1 X105.914 Y72.240 E0.06540
G1 X107.918 Y71.623 E0.06575
G1 X110.152 Y71.193 E0.07131
G1 X112.430 Y71.016 E0.07166
G1 X137.161 Y71.011 E0.77542
G1 X138.758 Y71.076 E0.05011
G1 X140.356 Y71.268 E0.05045
G1 X141.922 Y71.584 E0.05011
G1 X143.459 Y72.022 E0.05011
G1 X144.956 Y72.582 E0.05011
G1 X146.414 Y73.262 E0.05045
G1 X147.803 Y74.051 E0.05011
G1 X149.135 Y74.954 E0.05045
G1 X150.383 Y75.953 E0.05011
G1 X151.547 Y77.047 E0.05011
G1 X152.622 Y78.231 E0.05011
G1 X153.605 Y79.504 E0.05045
G1 X154.479 Y80.842 E0.05011
G1 X155.249 Y82.255 E0.05045
G1 X155.904 Y83.725 E0.05045
G1 X156.436 Y85.232 E0.05011
G1 X157.070 Y87.920 E0.08660
G1 X157.332 Y90.680 E0.08694
G1 X157.326 Y119.510 E0.90394
G1 X157.112 Y121.819 E0.07270
G1 X156.634 Y124.088 E0.07270
G1 X155.903 Y126.277 E0.07235
G1 X154.922 Y128.378 E0.07270
G1 X153.630 Y130.462 E0.07687
G1 X152.102 Y132.365 E0.07652
G1 X150.356 Y134.070 E0.07652
G1 X148.408 Y135.558 E0.07687
G1 X146.303 Y136.794 E0.07652
G1 X144.055 Y137.771 E0.07687
G1 X141.704 Y138.468 E0.07687
G1 X139.286 Y138.875 E0.07687
G1 X137.370 Y138.987 E0.06019
G1 X128.928 Y138.988 E0.26470
G1 X126.273 Y138.797 E0.08347
G1 X108.626 Y135.842 E0.56100
G1 X107.238 Y135.493 E0.04489
G1 X105.877 Y135.046 E0.04489
G1 X104.552 Y134.504 E0.04489
G1 X103.269 Y133.870 E0.04489
G1 X101.285 Y132.648 E0.07305
G1 X99.464 Y131.213 E0.07270
G1 X97.819 Y129.578 E0.07270
G1 X96.373 Y127.766 E0.07270
G1 X95.144 Y125.799 E0.07270
G1 X94.145 Y123.695 E0.07305
G1 X93.394 Y121.489 E0.07305
G1 X92.904 Y119.223 E0.07270
G1 X92.729 Y117.746 E0.04663
G1 X92.662 Y116.249 E0.04698
G1 X92.695 Y90.035 E0.82193
G1 X92.941 Y87.852 E0.06888
G1 X93.426 Y85.698 E0.06923
G1 X94.138 Y83.620 E0.06888
G1 X95.078 Y81.622 E0.06923
G1 X96.167 Y79.830 E0.06575
G1 X97.393 Y78.217 E0.06352
; PURGING FINISHED
G1 F8640
G1 X98.857 Y76.648 E-0.49544
G1 X99.723 Y75.898 E-0.26456
G1 E-0.04000 F2100.00000
G1 Z0.800 F10800.000
G1 X131.636 Y110.586
G1 Z0.200
G1 E0.80000 F2100.00000
G1 F1200
G1 X134.564 Y110.586 E0.09182
G1 X134.564 Y116.214 E0.17647
G1 X131.636 Y116.214 E0.09182
G1 X131.636 Y110.646 E0.17459
G1 F8640
G1 X134.564 Y110.586 E-0.67630
G1 X134.564 Y110.948 E-0.08370
G1 E-0.04000 F2100.00000
G1 Z0.800 F10800.000
G1 X132.013 Y113.663
G1 Z0.200
G1 E0.80000 F2100.00000
G1 F1200
G1 X134.187 Y113.663 E0.06817
G1 X134.187 Y115.837 E0.06817
G1 X132.013 Y115.837 E0.06817
G1 X132.013 Y113.723 E0.06629
G1 X132.390 Y114.040 F10800.000
G1 F1200
G1 X133.810 Y114.040 E0.04452
G1 X133.810 Y115.460 E0.04452
G1 X132.390 Y115.460 E0.04452
G1 X132.390 Y114.100 E0.04264
G1 X132.286 Y113.654 F10800.000
G1 F8640
G1 X133.810 Y114.040 E-0.32817
G1 X133.810 Y115.460 E-0.32788
G1 X133.360 Y115.460 E-0.10394
G1 E-0.04000 F2100.00000
G1 Z0.800 F10800.000
G1 X132.013 Y110.963
G1 Z0.200
G1 E0.80000 F2100.00000
G1 F1200
G1 X134.187 Y110.963 E0.06817
G1 X134.187 Y113.137 E0.06817
G1 X132.013 Y113.137 E0.06817
G1 X132.013 Y111.023 E0.06629
G1 X132.390 Y111.340 F10800.000
G1 F1200
G1 X133.810 Y111.340 E0.04452
G1 X133.810 Y112.760 E0.04452
G1 X132.390 Y112.760 E0.04452
G1 X132.390 Y111.400 E0.04264
G1 X132.286 Y110.954 F10800.000
G1 F8640
G1 X133.810 Y111.340 E-0.32817
G1 X133.810 Y112.760 E-0.32788
G1 X133.360 Y112.760 E-0.10394
G1 E-0.04000 F2100.00000
G1 Z0.800 F10800.000
G1 X115.436 Y110.586
G1 Z0.200
G1 E0.80000 F2100.00000
G1 F1200
G1 X126.464 Y110.586 E0.34579
G1 X126.464 Y113.514 E0.09182
G1 X115.436 Y113.514 E0.34579
G1 X115.436 Y110.646 E0.08993
G1 X115.813 Y110.963 F10800.000
G1 F1200
G1 X117.987 Y110.963 E0.06817
G1 X117.987 Y113.137 E0.06817
G1 X115.813 Y113.137 E0.06817
G1 X115.813 Y111.023 E0.06629
G1 X116.190 Y111.340 F10800.000
G1 F1200
G1 X117.610 Y111.340 E0.04452
G1 X117.610 Y112.760 E0.04452
G1 X116.190 Y112.760 E0.04452
G1 X116.190 Y111.400 E0.04264
G1 X116.086 Y110.954 F10800.000
G1 F8640
G1 X117.610 Y111.340 E-0.32817
G1 X117.610 Y112.760 E-0.32788
G1 X117.160 Y112.760 E-0.10394
G1 E-0.04000 F2100.00000
G1 Z0.800 F10800.000
G1 X118.513 Y110.963
G1 Z0.200
G1 E0.80000 F2100.00000
G1 F1200
G1 X120.687 Y110.963 E0.06817
G1 X120.687 Y113.137 E0.06817
G1 X118.513 Y113.137 E0.06817
G1 X118.513 Y111.023 E0.06629
G1 X118.890 Y111.340 F10800.000
G1 F1200
G1 X120.310 Y111.340 E0.04452
G1 X120.310 Y112.760 E0.04452
G1 X118.890 Y112.760 E0.04452
G1 X118.890 Y111.400 E0.04264
G1 X118.786 Y110.954 F10800.000
G1 F8640
G1 X120.310 Y111.340 E-0.32817
G1 X120.310 Y112.760 E-0.32788
G1 X119.860 Y112.760 E-0.10394
G1 E-0.04000 F2100.00000
G1 Z0.800 F10800.000
G1 X121.213 Y110.963
G1 Z0.200
G1 E0.80000 F2100.00000
G1 F1200
G1 X123.387 Y110.963 E0.06817
G1 X123.387 Y113.137 E0.06817
G1 X121.213 Y113.137 E0.06817
G1 X121.213 Y111.023 E0.06629
G1 X121.590 Y111.340 F10800.000
G1 F1200
G1 X123.010 Y111.340 E0.04452
G1 X123.010 Y112.760 E0.04452
G1 X121.590 Y112.760 E0.04452
G1 X121.590 Y111.400 E0.04264
G1 X121.486 Y110.954 F10800.000
G1 F8640
G1 X123.010 Y111.340 E-0.32817
G1 X123.010 Y112.760 E-0.32788
G1 X122.560 Y112.760 E-0.10394
G1 E-0.04000 F2100.00000
G1 Z0.800 F10800.000
G1 X123.913 Y110.963
G1 Z0.200
G1 E0.80000 F2100.00000
G1 F1200
G1 X126.087 Y110.963 E0.06817
G1 X126.087 Y113.137 E0.06817
G1 X123.913 Y113.137 E0.06817
G1 X123.913 Y111.023 E0.06629
G1 X124.290 Y111.340 F10800.000
G1 F1200
G1 X125.710 Y111.340 E0.04452
G1 X125.710 Y112.760 E0.04452
G1 X124.290 Y112.760 E0.04452
G1 X124.290 Y111.400 E0.04264
G1 X124.186 Y110.954 F10800.000
G1 F8640
G1 X125.710 Y111.340 E-0.32817
G1 X125.710 Y112.760 E-0.32788
G1 X125.260 Y112.760 E-0.10394
G1 E-0.04000 F2100.00000
G1 Z0.800 F10800.000
G1 X130.014 Y115.136
G1 Z0.200
G1 E0.80000 F2100.00000
G1 F1200
G1 X113.814 Y115.136 E0.50794
G1 X113.814 Y108.964 E0.19351
G1 X136.186 Y108.964 E0.70145
G1 X136.186 Y117.836 E0.27817
G1 X130.014 Y117.836 E0.19351
G1 X130.014 Y115.196 E0.08278
G1 X129.637 Y115.513 F10800.000
G1 F1200
G1 X113.437 Y115.513 E0.50794
G1 X113.437 Y108.587 E0.21715
G1 X136.563 Y108.587 E0.72509
G1 X136.563 Y118.213 E0.30181
G1 X129.637 Y118.213 E0.21715
G1 X129.637 Y115.573 E0.08278
G1 X129.260 Y115.890 F10800.000
G1 F1200
G1 X113.060 Y115.890 E0.50794
G1 X113.060 Y108.210 E0.24080
G1 X136.940 Y108.210 E0.74874
G1 X136.940 Y118.590 E0.32546
G1 X129.260 Y118.590 E0.24080
G1 X129.260 Y115.950 E0.08278
G1 X129.100 Y115.523 F10800.000
G1 F8640
G1 X125.969 Y115.938 E-0.76000
G1 E-0.04000 F2100.00000
G1 Z0.800 F10800.000
G1 X130.944 Y117.723
G1 Z0.200
G1 E0.80000 F2100.00000
G1 F1200
G1 X130.297 Y117.076 E0.02912
G1 X130.297 Y116.535 E0.01725
G1 X131.315 Y117.553 E0.04587
G1 X131.857 Y117.553 E0.01725
G1 X130.297 Y115.993 E0.07027
G1 X130.297 Y115.451 E0.01725
G1 X132.568 Y117.723 E0.10231
G1 F8640
G1 X130.297 Y115.451 E-0.74176
G1 X130.297 Y115.530 E-0.01824
G1 E-0.04000 F2100.00000
G1 Z0.800 F10800.000
G1 X131.824 Y113.400
G1 Z0.200
G1 E0.80000 F2100.00000
G1 F1200
G1 X134.376 Y113.400 E0.03156
G1 F8640
G1 X131.824 Y113.400 E-0.58908
G1 E-0.21092 F2100.00000
G1 Z0.800 F10800.000
G1 X136.073 Y109.852
G1 Z0.200
G1 E0.80000 F2100.00000
G1 F1200
G1 X135.468 Y109.247 E0.02726
G1 X134.926 Y109.247 E0.01725
G1 X135.903 Y110.224 E0.04401
G1 X135.903 Y110.766 E0.01725
G1 X134.384 Y109.247 E0.06841
G1 X133.843 Y109.247 E0.01725
G1 X135.903 Y111.307 E0.09280
G1 X135.903 Y111.849 E0.01725
G1 X134.847 Y110.793 E0.04757
G1 X134.847 Y111.335 E0.01725
G1 X135.903 Y112.391 E0.04757
G1 X135.903 Y112.932 E0.01725
G1 X134.847 Y111.876 E0.04757
G1 X134.847 Y112.418 E0.01725
G1 X135.903 Y113.474 E0.04757
G1 X135.903 Y114.016 E0.01725
G1 X134.847 Y112.960 E0.04757
G1 X134.847 Y113.501 E0.01725
G1 X135.903 Y114.557 E0.04757
G1 X135.903 Y115.099 E0.01725
G1 X134.847 Y114.043 E0.04757
G1 X134.847 Y114.585 E0.01725
G1 X135.903 Y115.641 E0.04757
G1 X135.903 Y116.182 E0.01725
G1 X134.847 Y115.126 E0.04757
G1 X134.847 Y115.668 E0.01725
G1 X135.903 Y116.724 E0.04757
G1 X135.903 Y117.266 E0.01725
G1 X134.847 Y116.210 E0.04757
G1 X134.847 Y116.497 E0.00915
G1 X134.593 Y116.497 E0.00810
G1 X135.649 Y117.553 E0.04757
G1 X135.107 Y117.553 E0.01725
G1 X134.051 Y116.497 E0.04757
G1 X133.509 Y116.497 E0.01725
G1 X134.565 Y117.553 E0.04757
G1 X134.024 Y117.553 E0.01725
G1 X132.968 Y116.497 E0.04757
G1 X132.426 Y116.497 E0.01725
G1 X133.482 Y117.553 E0.04757
G1 X132.940 Y117.553 E0.01725
G1 X131.884 Y116.497 E0.04757
G1 X131.353 Y116.497 E0.01692
G1 X131.353 Y115.966 E0.01692
G1 X126.747 Y111.360 E0.20746
G1 X126.747 Y110.818 E0.01725
G1 X131.353 Y115.424 E0.20746
G1 X131.353 Y114.882 E0.01725
G1 X125.718 Y109.247 E0.25381
G1 X126.259 Y109.247 E0.01725
G1 X131.353 Y114.341 E0.22942
G1 X131.353 Y113.799 E0.01725
G1 X126.801 Y109.247 E0.20502
G1 X127.343 Y109.247 E0.01725
G1 X131.353 Y113.257 E0.18063
G1 X131.353 Y112.716 E0.01725
G1 X127.884 Y109.247 E0.15623
G1 X128.426 Y109.247 E0.01725
G1 X131.353 Y112.174 E0.13183
G1 X131.353 Y111.632 E0.01725
G1 X128.968 Y109.247 E0.10744
G1 X129.509 Y109.247 E0.01725
G1 X131.353 Y111.091 E0.08304
G1 X131.353 Y110.549 E0.01725
G1 X130.051 Y109.247 E0.05865
G1 X130.593 Y109.247 E0.01725
G1 X131.649 Y110.303 E0.04757
G1 X132.190 Y110.303 E0.01725
G1 X131.134 Y109.247 E0.04757
G1 X131.676 Y109.247 E0.01725
G1 X132.732 Y110.303 E0.04757
G1 X133.274 Y110.303 E0.01725
G1 X132.218 Y109.247 E0.04757
G1 X132.759 Y109.247 E0.01725
G1 X133.815 Y110.303 E0.04757
G1 X134.357 Y110.303 E0.01725
G1 X133.131 Y109.077 E0.05521
G1 F8640
G1 X134.357 Y110.303 E-0.40028
G1 X133.815 Y110.303 E-0.12507
G1 X133.097 Y109.584 E-0.23465
G1 E-0.04000 F2100.00000
G1 Z0.800 F10800.000
G1 X126.402 Y110.473
G1 Z0.200
G1 E0.80000 F2100.00000
G1 F1200
G1 X125.176 Y109.247 E0.05521
G1 X124.634 Y109.247 E0.01725
G1 X125.690 Y110.303 E0.04757
G1 X125.149 Y110.303 E0.01725
G1 X124.093 Y109.247 E0.04757
G1 X123.551 Y109.247 E0.01725
G1 X124.607 Y110.303 E0.04757
G1 X124.065 Y110.303 E0.01725
G1 X123.009 Y109.247 E0.04757
G1 X122.468 Y109.247 E0.01725
G1 X123.524 Y110.303 E0.04757
G1 X122.982 Y110.303 E0.01725
G1 X121.926 Y109.247 E0.04757
G1 X121.384 Y109.247 E0.01725
G1 X122.441 Y110.303 E0.04757
G1 X121.899 Y110.303 E0.01725
G1 X120.843 Y109.247 E0.04757
G1 X120.301 Y109.247 E0.01725
G1 X121.357 Y110.303 E0.04757
G1 X120.816 Y110.303 E0.01725
G1 X119.759 Y109.247 E0.04757
G1 X119.218 Y109.247 E0.01725
G1 X120.274 Y110.303 E0.04757
G1 X119.732 Y110.303 E0.01725
G1 X118.676 Y109.247 E0.04757
G1 X118.134 Y109.247 E0.01725
G1 X119.191 Y110.303 E0.04757
G1 X118.649 Y110.303 E0.01725
G1 X117.593 Y109.247 E0.04757
G1 X117.051 Y109.247 E0.01725
G1 X118.107 Y110.303 E0.04757
G1 X117.566 Y110.303 E0.01725
G1 X116.509 Y109.247 E0.04757
G1 X115.968 Y109.247 E0.01725
G1 X117.024 Y110.303 E0.04757
G1 X116.482 Y110.303 E0.01725
G1 X115.426 Y109.247 E0.04757
G1 X114.884 Y109.247 E0.01725
G1 X115.941 Y110.303 E0.04757
G1 X115.399 Y110.303 E0.01725
G1 X114.343 Y109.247 E0.04757
G1 X114.097 Y109.247 E0.00783
G1 X114.097 Y109.543 E0.00942
G1 X115.153 Y110.599 E0.04757
G1 X115.153 Y111.141 E0.01725
G1 X114.097 Y110.084 E0.04757
G1 X114.097 Y110.626 E0.01725
G1 X115.153 Y111.682 E0.04757
G1 X115.153 Y112.224 E0.01725
G1 X114.097 Y111.168 E0.04757
G1 X114.097 Y111.709 E0.01725
G1 X115.153 Y112.766 E0.04757
G1 X115.153 Y113.307 E0.01725
G1 X114.097 Y112.251 E0.04757
G1 X114.097 Y112.793 E0.01725
G1 X116.157 Y114.853 E0.09280
G1 X116.699 Y114.853 E0.01725
G1 X115.643 Y113.797 E0.04757
G1 X116.185 Y113.797 E0.01725
G1 X117.241 Y114.853 E0.04757
G1 X117.782 Y114.853 E0.01725
G1 X116.726 Y113.797 E0.04757
G1 X117.268 Y113.797 E0.01725
G1 X118.324 Y114.853 E0.04757
G1 X118.866 Y114.853 E0.01725
G1 X117.809 Y113.797 E0.04757
G1 X118.351 Y113.797 E0.01725
G1 X119.407 Y114.853 E0.04757
G1 X119.949 Y114.853 E0.01725
G1 X118.893 Y113.797 E0.04757
G1 X119.434 Y113.797 E0.01725
G1 X120.491 Y114.853 E0.04757
G1 X121.032 Y114.853 E0.01725
G1 X119.976 Y113.797 E0.04757
G1 X120.518 Y113.797 E0.01725
G1 X121.574 Y114.853 E0.04757
G1 X122.116 Y114.853 E0.01725
G1 X121.059 Y113.797 E0.04757
G1 X121.601 Y113.797 E0.01725
G1 X122.657 Y114.853 E0.04757
G1 X123.199 Y114.853 E0.01725
G1 X122.143 Y113.797 E0.04757
G1 X122.684 Y113.797 E0.01725
G1 X123.741 Y114.853 E0.04757
G1 X124.282 Y114.853 E0.01725
G1 X123.226 Y113.797 E0.04757
G1 X123.768 Y113.797 E0.01725
G1 X124.824 Y114.853 E0.04757
G1 X125.366 Y114.853 E0.01725
G1 X124.309 Y113.797 E0.04757
G1 X124.851 Y113.797 E0.01725
G1 X125.907 Y114.853 E0.04757
G1 X126.449 Y114.853 E0.01725
G1 X125.393 Y113.797 E0.04757
G1 X125.934 Y113.797 E0.01725
G1 X126.991 Y114.853 E0.04757
G1 X127.532 Y114.853 E0.01725
G1 X126.476 Y113.797 E0.04757
G1 X126.747 Y113.797 E0.00863
G1 X126.747 Y113.526 E0.00862
G1 X128.074 Y114.853 E0.05976
G1 X128.615 Y114.853 E0.01725
G1 X126.747 Y112.985 E0.08416
G1 X126.747 Y112.443 E0.01725
G1 X129.157 Y114.853 E0.10855
G1 X129.699 Y114.853 E0.01725
G1 X126.577 Y111.732 E0.14059
G1 F8640
G1 X128.905 Y114.059 E-0.76000
G1 E-0.04000 F2100.00000
G1 Z0.800 F10800.000
G1 X123.650 Y110.774
G1 Z0.200
G1 E0.80000 F2100.00000
G1 F1200
G1 X123.650 Y113.326 E0.03156
G1 F8640
G1 X123.650 Y110.774 E-0.58908
G1 E-0.21092 F2100.00000
G1 Z0.800 F10800.000
G1 X120.950 Y113.326
G1 Z0.200
G1 E0.80000 F2100.00000
G1 F1200
G1 X120.950 Y110.774 E0.03156
G1 F8640
G1 X120.950 Y113.326 E-0.58908
G1 E-0.21092 F2100.00000
G1 Z0.800 F10800.000
G1 X118.250 Y110.774
G1 Z0.200
G1 E0.80000 F2100.00000
G1 F1200
G1 X118.250 Y113.326 E0.03156
G1 F8640
G1 X118.250 Y110.774 E-0.58908
G1 E-0.21092 F2100.00000
G1 Z0.800 F10800.000
G1 X115.785 Y115.023
G1 Z0.200
G1 E0.80000 F2100.00000
G1 F1200
G1 X114.097 Y113.334 E0.07604
G1 X114.097 Y113.876 E0.01725
G1 X115.074 Y114.853 E0.04400
G1 X114.532 Y114.853 E0.01725
G1 X113.927 Y114.248 E0.02725
G1 F8640
G1 X114.532 Y114.853 E-0.19757
G1 X115.074 Y114.853 E-0.12507
G1 X114.097 Y113.876 E-0.31904
G1 X114.097 Y113.364 E-0.11832
G1 E-0.04000 F2100.00000
G1 Z0.800 F10800.000
G1 X114.386 Y100.364
G1 Z0.200
G1 E0.80000 F2100.00000
G1 F1200
G1 X114.386 Y95.486 E0.15296
G1 X127.514 Y95.486 E0.41163
G1 X127.514 Y100.364 E0.15296
G1 X114.446 Y100.364 E0.40975
G1 X114.763 Y99.987 F10800.000
G1 F1200
G1 X114.763 Y95.863 E0.12931
G1 X127.137 Y95.863 E0.38798
G1 X127.137 Y99.987 E0.12931
G1 X114.823 Y99.987 E0.38610
G1 X115.140 Y99.610 F10800.000
G1 F1200
G1 X115.140 Y96.240 E0.10566
G1 X126.760 Y96.240 E0.36434
G1 X126.760 Y99.610 E0.10566
G1 X115.200 Y99.610 E0.36246
G1 X114.742 Y99.648 F10800.000
G1 F8640
G1 X115.141 Y96.319 E-0.76000
G1 E-0.04000 F2100.00000
G1 Z0.800 F10800.000
G1 X130.661 Y92.836
G1 Z0.200
G1 E0.80000 F2100.00000
M73 Q7 S13
G1 F1200
G1 X135.539 Y92.836 E0.15296
M73 P7 R13
G1 X135.539 Y100.364 E0.23605
