; generated by Slic3r Prusa Edition 1.41.0+win64 on 2018-10-10 at 22:31:46

; 

; external perimeters extrusion width = 0.45mm
; perimeters extrusion width = 0.45mm
; infill extrusion width = 0.45mm
; solid infill extrusion width = 0.45mm
; top infill extrusion width = 0.40mm
; first layer extrusion width = 0.42mm

M201 X1000 Y1000 Z1000 E5000 ; sets maximum accelerations, mm/sec^2
M203 X200 Y200 Z12 E120 ; sets maximum feedrates, mm/sec
M204 P1250 R1250 T1250 ; sets acceleration (P, T) and retract acceleration (R), mm/sec^2
M205 X8.00 Y8.00 Z0.40 E1.50 ; sets the jerk limits, mm/sec
M205 S0 T0 ; sets the minimum extruding and travel feed rate, mm/sec
M107
M115 U3.4.0 ; tell printer latest fw version
M83  ; extruder relative mode
M104 S215 ; set extruder temp
M140 S65 ; set bed temp
M190 S65 ; wait for bed temp
M109 S215 ; wait for extruder temp
G28 W ; home all without mesh bed level
G80 ; mesh bed leveling
G1 Y-3.0 F1000.0 ; go outside print area
G92 E0.0
G1 X60.0 E9.0  F1000.0 ; intro line
M73 Q0 S114
M73 P0 R114
G1 X100.0 E12.5  F1000.0 ; intro line
G92 E0.0
M221 S95
M900 K30; Filament gcode
G21 ; set units to millimeters
G90 ; use absolute coordinates
M83 ; use relative distances for extrusion
;BEFORE_LAYER_CHANGE
G92 E0.0
;0.2


G1 E-0.80000 F2100.00000
G1 Z0.600 F10800.000
;AFTER_LAYER_CHANGE
;0.2
G1 X116.777 Y98.571
G1 Z0.200
G1 E0.80000 F2100.00000
M204 S1000
G1 F1200
G1 X117.867 Y97.373 E0.05080
G1 X119.137 Y96.365 E0.05083
G1 X120.208 Y95.722 E0.03916
G1 X121.470 Y95.172 E0.04318
G1 X123.042 Y94.746 E0.05107
G1 X124.284 Y94.582 E0.03928
G1 X125.516 Y94.575 E0.03860
G1 X127.122 Y94.775 E0.05075
G1 X128.682 Y95.233 E0.05100
G1 X129.806 Y95.729 E0.03852
G1 X130.897 Y96.385 E0.03988
G1 X132.262 Y97.503 E0.05532
G1 X133.101 Y98.410 E0.03874
G1 X133.827 Y99.427 E0.03921
G1 X134.594 Y100.878 E0.05145
G1 X135.049 Y102.161 E0.04267
G1 X135.318 Y103.411 E0.04010
G1 X135.438 Y105.164 E0.05509
G1 X135.346 Y106.413 E0.03926
G1 X135.099 Y107.641 E0.03929
G1 X134.570 Y109.180 E0.05101
G1 X133.933 Y110.408 E0.04339
G1 X133.223 Y111.428 E0.03896
G1 X132.119 Y112.639 E0.05137
G1 X131.042 Y113.517 E0.04357
G1 X129.978 Y114.174 E0.03922
G1 X128.505 Y114.837 E0.05065
G1 X126.936 Y115.257 E0.05092
G1 X125.695 Y115.420 E0.03925
G1 X124.319 Y115.420 E0.04314
G1 X122.694 Y115.180 E0.05151
G1 X121.488 Y114.834 E0.03932
G1 X120.224 Y114.286 E0.04319
G1 X118.844 Y113.430 E0.05094
G1 X117.875 Y112.634 E0.03931
G1 X117.021 Y111.730 E0.03899
G1 X116.077 Y110.425 E0.05049
G1 X115.350 Y108.978 E0.05077
G1 X114.944 Y107.816 E0.03862
G1 X114.679 Y106.570 E0.03993
G1 X114.562 Y104.832 E0.05461
G1 X114.654 Y103.586 E0.03919
G1 X114.902 Y102.356 E0.03932
G1 X115.428 Y100.826 E0.05076
G1 X116.064 Y99.597 E0.04339
G1 X116.743 Y98.621 E0.03728
G1 X117.052 Y98.836 F10800.000
G1 F1200
G1 X118.125 Y97.648 E0.05020
G1 X119.335 Y96.686 E0.04847
G1 X120.377 Y96.059 E0.03812
G1 X121.603 Y95.525 E0.04191
G1 X123.101 Y95.119 E0.04867
G1 X124.311 Y94.958 E0.03827
G1 X125.515 Y94.952 E0.03777
G1 X127.173 Y95.174 E0.05243
G1 X128.364 Y95.513 E0.03885
G1 X129.469 Y95.986 E0.03767
G1 X130.800 Y96.773 E0.04848
G1 X131.988 Y97.762 E0.04847
G1 X132.809 Y98.648 E0.03786
G1 X133.516 Y99.640 E0.03819
G1 X134.246 Y101.022 E0.04901
G1 X134.687 Y102.268 E0.04144
G1 X134.947 Y103.482 E0.03893
G1 X135.061 Y105.146 E0.05228
G1 X134.973 Y106.362 E0.03825
G1 X134.731 Y107.559 E0.03829
G1 X134.226 Y109.025 E0.04861
G1 X133.610 Y110.214 E0.04199
G1 X132.915 Y111.211 E0.03809
G1 X131.865 Y112.360 E0.04883
G1 X130.823 Y113.210 E0.04216
G1 X129.786 Y113.850 E0.03822
G1 X128.378 Y114.482 E0.04838
G1 X126.883 Y114.883 E0.04853
G1 X125.673 Y115.043 E0.03825
G1 X124.338 Y115.044 E0.04188
G1 X122.794 Y114.816 E0.04894
G1 X121.618 Y114.480 E0.03833
G1 X120.388 Y113.947 E0.04205
G1 X119.076 Y113.133 E0.04841
G1 X118.131 Y112.358 E0.03832
G1 X117.297 Y111.474 E0.03812
G1 X116.399 Y110.229 E0.04813
G1 X115.705 Y108.851 E0.04838
G1 X115.307 Y107.713 E0.03778
G1 X115.050 Y106.504 E0.03875
G1 X114.939 Y104.851 E0.05197
G1 X115.028 Y103.637 E0.03817
G1 X115.270 Y102.438 E0.03833
G1 X115.774 Y100.977 E0.04848
G1 X116.388 Y99.791 E0.04186
G1 X117.018 Y98.885 E0.03460
G1 X117.327 Y99.101 F10800.000
G1 F1200
G1 X117.393 Y99.006 E0.00362
G1 X118.384 Y97.922 E0.04604
G1 X119.532 Y97.008 E0.04601
G1 X120.548 Y96.395 E0.03721
G1 X121.736 Y95.878 E0.04060
G1 X123.161 Y95.491 E0.04631
G1 X124.338 Y95.334 E0.03724
G1 X125.515 Y95.329 E0.03691
G1 X127.081 Y95.540 E0.04953
G1 X128.240 Y95.869 E0.03779
G1 X129.319 Y96.332 E0.03680
G1 X130.584 Y97.082 E0.04611
G1 X131.713 Y98.020 E0.04601
G1 X132.515 Y98.885 E0.03698
G1 X133.202 Y99.850 E0.03717
G1 X133.895 Y101.161 E0.04648
G1 X134.325 Y102.372 E0.04029
G1 X134.577 Y103.553 E0.03787
G1 X134.684 Y105.128 E0.04950
G1 X134.599 Y106.312 E0.03723
G1 X134.363 Y107.478 E0.03728
G1 X133.881 Y108.872 E0.04624
G1 X133.284 Y110.024 E0.04068
G1 X132.607 Y110.993 E0.03707
G1 X131.607 Y112.085 E0.04643
G1 X130.600 Y112.906 E0.04074
G1 X129.590 Y113.528 E0.03721
G1 X128.250 Y114.127 E0.04601
G1 X126.829 Y114.510 E0.04617
G1 X125.651 Y114.667 E0.03725
G1 X124.357 Y114.667 E0.04058
G1 X122.891 Y114.452 E0.04644
G1 X121.748 Y114.126 E0.03728
G1 X120.559 Y113.611 E0.04063
G1 X119.310 Y112.838 E0.04604
G1 X118.388 Y112.081 E0.03742
G1 X117.574 Y111.217 E0.03722
G1 X116.723 Y110.035 E0.04567
G1 X116.059 Y108.722 E0.04611
G1 X115.670 Y107.610 E0.03694
G1 X115.421 Y106.438 E0.03758
G1 X115.315 Y104.868 E0.04933
G1 X115.401 Y103.686 E0.03715
G1 X115.638 Y102.520 E0.03732
G1 X116.118 Y101.130 E0.04611
G1 X116.713 Y99.981 E0.04056
G1 X117.293 Y99.150 E0.03178
; PURGING FINISHED
G1 F8640
G1 X117.393 Y99.006 E-0.04049
G1 X118.384 Y97.922 E-0.33908
G1 X119.532 Y97.008 E-0.33886
G1 X119.686 Y96.915 E-0.04157
G1 E-0.04000 F2100.00000
G1 Z0.800 F10800.000
G1 X129.046 Y102.317
G1 Z0.200
G1 E0.80000 F2100.00000
G1 F1200
G1 X128.331 Y103.033 E0.03172
G1 X128.363 Y103.275 E0.00765
G1 X128.371 Y103.773 E0.01563
G1 X128.289 Y104.398 E0.01977
G1 X128.151 Y104.853 E0.01491
G1 X127.876 Y105.383 E0.01871
G1 X128.002 Y105.863 E0.01556
G1 X128.026 Y106.194 E0.01038
G1 X128.025 Y106.628 E0.01362
G1 X127.923 Y107.196 E0.01810
G1 X127.735 Y107.736 E0.01791
G1 X127.437 Y108.288 E0.01967
G1 X127.247 Y108.553 E0.01022
G1 X126.967 Y108.884 E0.01358
G1 X126.634 Y109.191 E0.01421
G1 X126.103 Y109.569 E0.02046
G1 X125.681 Y109.667 E0.01356
G1 X124.946 Y109.717 E0.02311
G1 X124.163 Y109.643 E0.02466
G1 X123.383 Y109.432 E0.02532
G1 X122.650 Y109.091 E0.02537
G1 X121.980 Y108.625 E0.02557
G1 X121.401 Y108.049 E0.02561
G1 X120.928 Y107.381 E0.02566
G1 X120.577 Y106.639 E0.02575
G1 X120.355 Y105.820 E0.02661
G1 X120.283 Y104.984 E0.02631
G1 X120.356 Y104.169 E0.02565
G1 X120.567 Y103.386 E0.02543
G1 X120.916 Y102.639 E0.02585
G1 X121.386 Y101.967 E0.02570
G1 X121.967 Y101.386 E0.02577
G1 X122.661 Y100.904 E0.02649
G1 X123.379 Y100.570 E0.02485
G1 X124.171 Y100.356 E0.02571
G1 X124.972 Y100.285 E0.02522
G1 X125.826 Y100.355 E0.02687
G1 X126.614 Y100.567 E0.02558
G1 X127.364 Y100.917 E0.02593
G1 X128.015 Y101.374 E0.02495
G1 X129.002 Y102.277 E0.04193
G1 X128.501 Y102.330 F10800.000
G1 F1200
G1 X127.915 Y102.916 E0.02598
G1 X127.987 Y103.303 E0.01236
G1 X127.994 Y103.752 E0.01407
G1 X127.919 Y104.318 E0.01793
G1 X127.800 Y104.711 E0.01286
G1 X127.551 Y105.192 E0.01698
G1 X127.453 Y105.314 E0.00491
G1 X127.487 Y105.384 E0.00246
G1 X127.628 Y105.926 E0.01755
G1 X127.649 Y106.207 E0.00885
G1 X127.648 Y106.594 E0.01212
G1 X127.557 Y107.100 E0.01615
G1 X127.389 Y107.583 E0.01603
G1 X127.117 Y108.088 E0.01796
G1 X126.949 Y108.321 E0.00899
G1 X126.695 Y108.622 E0.01238
G1 X126.396 Y108.897 E0.01273
G1 X125.945 Y109.219 E0.01738
G1 X125.626 Y109.293 E0.01026
G1 X124.951 Y109.338 E0.02120
G1 X124.230 Y109.270 E0.02271
G1 X123.514 Y109.077 E0.02326
G1 X122.838 Y108.762 E0.02337
G1 X122.223 Y108.334 E0.02352
G1 X121.689 Y107.805 E0.02355
G1 X121.255 Y107.190 E0.02360
G1 X120.932 Y106.508 E0.02367
G1 X120.727 Y105.754 E0.02450
G1 X120.661 Y104.985 E0.02421
G1 X120.729 Y104.236 E0.02358
G1 X120.923 Y103.516 E0.02338
G1 X121.243 Y102.828 E0.02379
G1 X121.676 Y102.211 E0.02363
G1 X122.210 Y101.677 E0.02368
G1 X122.850 Y101.233 E0.02442
G1 X123.509 Y100.925 E0.02282
G1 X124.237 Y100.728 E0.02365
G1 X124.973 Y100.663 E0.02317
G1 X125.761 Y100.728 E0.02479
G1 X126.484 Y100.923 E0.02348
G1 X127.174 Y101.245 E0.02387
G1 X127.779 Y101.669 E0.02315
G1 X128.456 Y102.289 E0.02881
G1 X127.955 Y102.342 F10800.000
G1 F1200
G1 X127.496 Y102.801 E0.02037
G1 X127.585 Y103.149 E0.01127
G1 X127.610 Y103.331 E0.00577
G1 X127.617 Y103.730 E0.01250
G1 X127.550 Y104.238 E0.01608
G1 X127.449 Y104.568 E0.01080
G1 X127.234 Y104.985 E0.01471
G1 X127.002 Y105.247 E0.01095
G1 X127.131 Y105.515 E0.00933
G1 X127.255 Y105.988 E0.01533
G1 X127.271 Y106.559 E0.01792
G1 X127.191 Y107.005 E0.01419
G1 X127.042 Y107.431 E0.01416
G1 X126.797 Y107.887 E0.01625
G1 X126.422 Y108.361 E0.01893
G1 X126.158 Y108.604 E0.01125
G1 X125.787 Y108.868 E0.01430
G1 X125.570 Y108.919 E0.00697
G1 X124.956 Y108.960 E0.01929
G1 X124.297 Y108.898 E0.02076
G1 X123.645 Y108.722 E0.02119
G1 X123.027 Y108.434 E0.02136
G1 X122.465 Y108.043 E0.02147
G1 X121.978 Y107.560 E0.02150
G1 X121.581 Y106.999 E0.02154
G1 X121.287 Y106.377 E0.02158
G1 X121.100 Y105.688 E0.02239
G1 X121.040 Y104.985 E0.02211
G1 X121.101 Y104.302 E0.02151
G1 X121.279 Y103.645 E0.02133
G1 X121.571 Y103.017 E0.02173
G1 X121.966 Y102.454 E0.02156
G1 X122.453 Y101.967 E0.02159
G1 X123.038 Y101.561 E0.02234
G1 X123.639 Y101.281 E0.02079
G1 X124.303 Y101.101 E0.02158
G1 X124.974 Y101.042 E0.02112
G1 X125.696 Y101.101 E0.02271
G1 X126.355 Y101.278 E0.02138
G1 X126.985 Y101.572 E0.02180
G1 X127.542 Y101.963 E0.02134
G1 X127.911 Y102.301 E0.01568
G1 X128.249 Y102.613 F10800.000
G1 F8640
G1 X127.496 Y102.801 E-0.15004
G1 X127.585 Y103.149 E-0.08297
G1 X127.610 Y103.331 E-0.04249
G1 X127.617 Y103.730 E-0.09203
G1 X127.550 Y104.238 E-0.11844
G1 X127.449 Y104.568 E-0.07954
G1 X127.234 Y104.985 E-0.10835
G1 X127.002 Y105.247 E-0.08068
G1 X127.013 Y105.268 E-0.00547
G1 E-0.04000 F2100.00000
G1 Z0.800 F10800.000
G1 X130.068 Y100.877
G1 Z0.200
G1 E0.80000 F2100.00000
G1 F1200
G1 X130.582 Y101.605 E0.02796
G1 X130.993 Y102.397 E0.02796
G1 X131.291 Y103.237 E0.02796
G1 X131.473 Y104.110 E0.02796
G1 X131.534 Y104.999 E0.02792
G1 X131.473 Y105.890 E0.02800
G1 X131.291 Y106.763 E0.02796
G1 X130.993 Y107.603 E0.02796
G1 X130.582 Y108.395 E0.02796
G1 X130.068 Y109.123 E0.02796
G1 X129.460 Y109.775 E0.02796
G1 X128.768 Y110.338 E0.02796
G1 X128.006 Y110.801 E0.02796
G1 X127.189 Y111.156 E0.02792
G1 X126.329 Y111.397 E0.02800
G1 X125.446 Y111.518 E0.02796
G1 X124.554 Y111.518 E0.02796
G1 X123.671 Y111.397 E0.02796
G1 X122.812 Y111.156 E0.02796
G1 X121.994 Y110.801 E0.02796
G1 X121.232 Y110.338 E0.02796
G1 X120.540 Y109.775 E0.02796
G1 X119.932 Y109.123 E0.02796
G1 X119.418 Y108.396 E0.02792
G1 X119.007 Y107.603 E0.02800
G1 X118.709 Y106.763 E0.02796
G1 X118.527 Y105.890 E0.02796
G1 X118.466 Y105.000 E0.02796
G1 X118.527 Y104.110 E0.02796
G1 X118.709 Y103.237 E0.02796
G1 X119.007 Y102.397 E0.02796
G1 X119.418 Y101.605 E0.02796
G1 X119.932 Y100.877 E0.02796
G1 X120.540 Y100.225 E0.02796
G1 X121.232 Y99.662 E0.02796
G1 X121.994 Y99.199 E0.02796
G1 X122.812 Y98.844 E0.02796
G1 X123.671 Y98.603 E0.02796
G1 X124.554 Y98.482 E0.02796
G1 X125.446 Y98.482 E0.02796
G1 X126.328 Y98.603 E0.02792
G1 X127.188 Y98.844 E0.02800
G1 X128.006 Y99.199 E0.02796
G1 X128.768 Y99.662 E0.02796
G1 X129.460 Y100.225 E0.02796
G1 X130.027 Y100.833 E0.02608
G1 X130.303 Y100.576 F10800.000
G1 F1200
G1 X130.905 Y101.409 E0.03224
G1 X131.339 Y102.246 E0.02958
G1 X131.655 Y103.135 E0.02958
G1 X131.847 Y104.059 E0.02958
G1 X131.911 Y104.999 E0.02954
G1 X131.847 Y105.941 E0.02962
G1 X131.655 Y106.865 E0.02958
G1 X131.339 Y107.754 E0.02958
G1 X130.905 Y108.591 E0.02958
G1 X130.361 Y109.362 E0.02958
G1 X129.718 Y110.051 E0.02958
G1 X128.986 Y110.647 E0.02958
G1 X128.180 Y111.137 E0.02958
G1 X127.316 Y111.512 E0.02954
G1 X126.406 Y111.767 E0.02962
G1 X125.472 Y111.895 E0.02958
G1 X124.528 Y111.895 E0.02958
G1 X123.594 Y111.767 E0.02958
G1 X122.685 Y111.512 E0.02958
G1 X121.820 Y111.137 E0.02958
G1 X121.014 Y110.647 E0.02958
G1 X120.282 Y110.051 E0.02958
G1 X119.639 Y109.362 E0.02958
G1 X119.095 Y108.592 E0.02954
G1 X118.661 Y107.754 E0.02962
G1 X118.345 Y106.865 E0.02958
G1 X118.153 Y105.941 E0.02958
G1 X118.088 Y105.000 E0.02958
G1 X118.153 Y104.059 E0.02958
G1 X118.345 Y103.135 E0.02958
G1 X118.661 Y102.246 E0.02958
G1 X119.095 Y101.409 E0.02958
G1 X119.639 Y100.638 E0.02958
G1 X120.282 Y99.949 E0.02958
G1 X121.014 Y99.353 E0.02958
G1 X121.820 Y98.863 E0.02958
G1 X122.685 Y98.488 E0.02958
G1 X123.594 Y98.233 E0.02958
G1 X124.528 Y98.105 E0.02958
G1 X125.472 Y98.105 E0.02958
G1 X126.405 Y98.233 E0.02954
G1 X127.315 Y98.488 E0.02962
G1 X128.180 Y98.863 E0.02958
G1 X128.986 Y99.353 E0.02958
G1 X129.718 Y99.949 E0.02958
G1 X130.262 Y100.532 E0.02501
G1 X130.537 Y100.274 F10800.000
G1 F1200
G1 X130.655 Y100.400 E0.00538
G1 X131.228 Y101.212 E0.03119
G1 X131.686 Y102.096 E0.03119
G1 X132.019 Y103.033 E0.03119
G1 X132.222 Y104.007 E0.03119
G1 X132.289 Y104.999 E0.03116
G1 X132.222 Y105.993 E0.03123
G1 X132.019 Y106.967 E0.03119
G1 X131.686 Y107.904 E0.03119
G1 X131.228 Y108.788 E0.03119
G1 X130.655 Y109.600 E0.03119
G1 X129.975 Y110.327 E0.03119
G1 X129.204 Y110.955 E0.03119
G1 X128.354 Y111.472 E0.03119
G1 X127.442 Y111.868 E0.03116
G1 X126.483 Y112.137 E0.03123
G1 X125.497 Y112.273 E0.03119
G1 X124.503 Y112.273 E0.03119
G1 X123.517 Y112.137 E0.03119
G1 X122.559 Y111.869 E0.03119
G1 X121.646 Y111.472 E0.03119
G1 X120.796 Y110.955 E0.03119
G1 X120.025 Y110.327 E0.03119
G1 X119.345 Y109.600 E0.03119
G1 X118.772 Y108.788 E0.03116
G1 X118.314 Y107.904 E0.03123
G1 X117.981 Y106.967 E0.03119
G1 X117.778 Y105.993 E0.03119
G1 X117.710 Y105.000 E0.03119
G1 X117.778 Y104.007 E0.03119
G1 X117.981 Y103.033 E0.03119
G1 X118.314 Y102.096 E0.03119
G1 X118.772 Y101.212 E0.03119
G1 X119.345 Y100.400 E0.03119
G1 X120.025 Y99.673 E0.03119
G1 X120.796 Y99.045 E0.03119
G1 X121.646 Y98.528 E0.03119
G1 X122.559 Y98.131 E0.03119
G1 X123.517 Y97.863 E0.03119
G1 X124.503 Y97.727 E0.03119
G1 X125.497 Y97.727 E0.03119
G1 X126.482 Y97.863 E0.03116
G1 X127.441 Y98.131 E0.03123
G1 X128.354 Y98.528 E0.03119
G1 X129.204 Y99.045 E0.03119
G1 X129.975 Y99.673 E0.03119
G1 X130.496 Y100.230 E0.02393
G1 X130.492 Y100.440 F10800.000
G1 F8640
G1 X130.655 Y100.400 E-0.05347
G1 X131.228 Y101.212 E-0.22973
G1 X131.686 Y102.096 E-0.22973
G1 X132.019 Y103.033 E-0.22973
G1 X132.034 Y103.107 E-0.01734
G1 E-0.04000 F2100.00000
G1 Z0.800 F10800.000
G1 X130.457 Y101.624
G1 Z0.200
G1 E0.80000 F2100.00000
G1 F1200
G1 X128.411 Y99.577 E0.09110
G1 F8640
G1 X130.457 Y101.624 E-0.66826
G1 E-0.13174 F2100.00000
G1 Z0.800 F10800.000
G1 X130.971 Y102.673
G1 Z0.200
G1 E0.80000 F2100.00000
G1 F1200
G1 X127.651 Y99.353 E0.14777
G1 X127.093 Y99.111 E0.01914
G1 X126.788 Y99.025 E0.00998
G1 X130.986 Y103.224 E0.18690
G1 X131.144 Y103.916 E0.02235
G1 X126.082 Y98.854 E0.22533
G1 X125.461 Y98.769 E0.01972
G1 X127.238 Y100.547 E0.07912
G1 X126.711 Y100.301 E0.01830
G1 X126.363 Y100.207 E0.01135
G1 X124.921 Y98.764 E0.06421
G1 X124.573 Y98.764 E0.01094
G1 X124.408 Y98.787 E0.00525
G1 X125.681 Y100.059 E0.05664
G1 X125.097 Y100.011 E0.01842
G1 X123.938 Y98.852 E0.05162
G1 X123.728 Y98.881 E0.00665
G1 X123.496 Y98.946 E0.00759
G1 X124.586 Y100.035 E0.04850
G1 X124.098 Y100.083 E0.01543
G1 X123.078 Y99.063 E0.04540
G1 X122.907 Y99.111 E0.00559
G1 X122.686 Y99.207 E0.00757
G1 X123.676 Y100.196 E0.04406
G1 X123.258 Y100.314 E0.01366
G1 X122.313 Y99.369 E0.04208
G1 X122.125 Y99.451 E0.00647
G1 X121.960 Y99.551 E0.00607
G1 X122.893 Y100.484 E0.04155
G1 X122.528 Y100.654 E0.01268
G1 X121.627 Y99.753 E0.04012
G1 X121.306 Y99.967 E0.01215
G1 X122.211 Y100.873 E0.04030
G1 X121.895 Y101.092 E0.01211
G1 X121.010 Y100.207 E0.03938
G1 X120.717 Y100.450 E0.01197
G1 X121.610 Y101.343 E0.03975
G1 X121.343 Y101.611 E0.01192
