; generated by Slic3r Prusa Edition 1.41.0+win64 on 2018-10-13 at 09:31:29

; 

; external perimeters extrusion width = 0.45mm
; perimeters extrusion width = 0.45mm
; infill extrusion width = 0.45mm
; solid infill extrusion width = 0.45mm
; top infill extrusion width = 0.40mm
; support material extrusion width = 0.35mm
; first layer extrusion width = 0.42mm

M201 X1000 Y1000 Z1000 E5000 ; sets maximum accelerations, mm/sec^2
M203 X200 Y200 Z12 E120 ; sets maximum feedrates, mm/sec
M204 P1250 R1250 T1250 ; sets acceleration (P, T) and retract acceleration (R), mm/sec^2
M205 X8.00 Y8.00 Z0.40 E1.50 ; sets the jerk limits, mm/sec
M205 S0 T0 ; sets the minimum extruding and travel feed rate, mm/sec
M107
M115 U3.4.0 ; tell printer latest fw version
M83  ; extruder relative mode
M104 S215 ; set extruder temp
M140 S65 ; set bed temp
M190 S65 ; wait for bed temp
M109 S215 ; wait for extruder temp
G28 W ; home all without mesh bed level
G80 ; mesh bed leveling
G1 Y-3.0 F1000.0 ; go outside print area
G92 E0.0
G1 X60.0 E9.0  F1000.0 ; intro line
M73 Q0 S104
M73 P0 R103
G1 X100.0 E12.5  F1000.0 ; intro line
G92 E0.0
M221 S95
M900 K30; Filament gcode
G21 ; set units to millimeters
G90 ; use absolute coordinates
M83 ; use relative distances for extrusion
;BEFORE_LAYER_CHANGE
G92 E0.0
;0.2


G1 E-0.80000 F2100.00000
G1 Z0.600 F10800.000
;AFTER_LAYER_CHANGE
;0.2
G1 X117.121 Y79.667
G1 Z0.200
G1 E0.80000 F2100.00000
M204 S1000
G1 F1200
G1 X117.799 Y79.207 E0.02570
G1 X120.674 Y78.014 E0.09759
G1 X121.647 Y77.824 E0.03107
G1 X122.511 Y77.977 E0.02753
G1 X125.518 Y79.224 E0.10205
G1 X126.137 Y79.645 E0.02349
G1 X126.610 Y80.231 E0.02361
G1 X131.940 Y89.924 E0.34683
G1 X134.749 Y98.853 E0.29347
G1 X135.039 Y100.582 E0.05499
G1 X135.069 Y122.386 E0.68362
G1 X135.023 Y123.290 E0.02840
G1 X134.743 Y124.886 E0.05081
G1 X134.258 Y126.315 E0.04729
G1 X133.503 Y127.748 E0.05079
G1 X132.538 Y129.030 E0.05033
G1 X131.371 Y130.150 E0.05070
G1 X130.042 Y131.069 E0.05066
G1 X128.584 Y131.763 E0.05063
G1 X127.026 Y132.216 E0.05087
G1 X125.485 Y132.409 E0.04871
G1 X123.772 Y132.345 E0.05376
G1 X122.011 Y131.960 E0.05650
G1 X120.689 Y131.449 E0.04444
G1 X119.443 Y130.740 E0.04495
G1 X118.055 Y129.637 E0.05560
G1 X116.949 Y128.390 E0.05225
G1 X116.017 Y126.876 E0.05575
G1 X115.400 Y125.348 E0.05167
G1 X115.069 Y123.971 E0.04441
G1 X114.944 Y122.535 E0.04518
G1 X114.938 Y101.350 E0.66425
G1 X115.204 Y83.911 E0.54683
G1 X115.351 Y83.358 E0.01795
G1 X116.546 Y80.474 E0.09788
G1 X117.087 Y79.716 E0.02919
G1 X117.375 Y79.947 F10800.000
G1 F1200
G1 X117.968 Y79.544 E0.02247
G1 X120.814 Y78.364 E0.09660
G1 X121.644 Y78.201 E0.02653
G1 X122.396 Y78.336 E0.02394
G1 X125.346 Y79.560 E0.10015
G1 X125.883 Y79.924 E0.02032
G1 X126.291 Y80.432 E0.02044
G1 X131.591 Y90.067 E0.34479
G1 X134.387 Y98.958 E0.29224
G1 X134.662 Y100.607 E0.05242
G1 X134.692 Y122.379 E0.68266
G1 X134.650 Y123.236 E0.02688
G1 X134.387 Y124.762 E0.04856
G1 X133.913 Y126.162 E0.04635
G1 X133.187 Y127.542 E0.04889
G1 X132.258 Y128.777 E0.04846
G1 X131.136 Y129.855 E0.04880
G1 X129.853 Y130.743 E0.04890
G1 X128.450 Y131.410 E0.04873
G1 X126.950 Y131.846 E0.04897
G1 X125.460 Y132.032 E0.04708
G1 X123.822 Y131.972 E0.05140
G1 X122.152 Y131.610 E0.05359
G1 X120.851 Y131.109 E0.04370
G1 X119.639 Y130.417 E0.04376
G1 X118.311 Y129.361 E0.05319
G1 X117.253 Y128.168 E0.04999
G1 X116.361 Y126.723 E0.05325
G1 X115.766 Y125.258 E0.04960
G1 X115.441 Y123.910 E0.04345
G1 X115.321 Y122.510 E0.04405
G1 X115.315 Y101.351 E0.66344
G1 X115.574 Y83.983 E0.54463
G1 X115.703 Y83.493 E0.01589
G1 X116.885 Y80.641 E0.09678
G1 X117.340 Y79.996 E0.02476
; PURGING FINISHED
G1 F8640
G1 X117.968 Y79.544 E-0.17854
G1 X120.294 Y78.580 E-0.58146
G1 E-0.04000 F2100.00000
G1 Z0.800 F10800.000
G1 X119.766 Y95.676
G1 Z0.200
G1 E0.80000 F2100.00000
G1 F1200
G1 X119.766 Y90.907 E0.14954
G1 X120.520 Y90.907 E0.02365
G1 X120.520 Y94.845 E0.12347
G1 X121.274 Y94.409 E0.02731
G1 X121.274 Y90.907 E0.10981
G1 X122.029 Y90.907 E0.02365
G1 X122.029 Y94.056 E0.09875
G1 X122.783 Y93.770 E0.02529
G1 X122.783 Y90.907 E0.08979
G1 X123.537 Y90.907 E0.02365
G1 X123.537 Y93.613 E0.08486
G1 X124.033 Y93.512 E0.01588
G1 X124.291 Y93.499 E0.00809
G1 X124.291 Y90.907 E0.08127
G1 X125.045 Y90.907 E0.02365
G1 X125.045 Y93.468 E0.08032
G1 X125.339 Y93.459 E0.00922
G1 X125.799 Y93.515 E0.01454
G1 X125.799 Y90.907 E0.08178
G1 X126.554 Y90.907 E0.02365
G1 X126.554 Y93.607 E0.08465
G1 X127.308 Y93.820 E0.02457
G1 X127.308 Y90.907 E0.09133
G1 X128.062 Y90.907 E0.02365
G1 X128.062 Y94.085 E0.09963
G1 X128.816 Y94.442 E0.02617
G1 X128.816 Y90.907 E0.11085
G1 X129.570 Y90.907 E0.02365
G1 X129.570 Y95.138 E0.13266
G1 F8640
G1 X129.570 Y91.846 E-0.76000
G1 E-0.04000 F2100.00000
G1 Z0.800 F10800.000
G1 X128.796 Y97.573
G1 Z0.200
G1 E0.80000 F2100.00000
G1 F1200
G1 X128.796 Y99.795 E0.06966
G1 X130.367 Y101.366 E0.06966
G1 X128.796 Y102.937 E0.06966
G1 X128.796 Y105.158 E0.06966
G1 X126.575 Y105.158 E0.06966
G1 X125.004 Y106.729 E0.06966
G1 X123.433 Y105.158 E0.06966
G1 X121.211 Y105.158 E0.06966
G1 X121.211 Y102.937 E0.06966
G1 X119.640 Y101.366 E0.06966
G1 X121.211 Y99.795 E0.06966
G1 X121.211 Y97.573 E0.06966
G1 X123.433 Y97.573 E0.06966
G1 X125.004 Y96.002 E0.06966
G1 X126.575 Y97.573 E0.06966
G1 X128.736 Y97.573 E0.06778
G1 X128.419 Y97.950 F10800.000
G1 F1200
G1 X128.419 Y99.951 E0.06273
G1 X129.834 Y101.366 E0.06273
G1 X128.419 Y102.780 E0.06273
G1 X128.419 Y104.781 E0.06273
G1 X126.418 Y104.781 E0.06273
G1 X125.004 Y106.196 E0.06273
G1 X123.589 Y104.781 E0.06273
G1 X121.588 Y104.781 E0.06273
G1 X121.588 Y102.780 E0.06273
G1 X120.173 Y101.366 E0.06273
G1 X121.588 Y99.951 E0.06273
G1 X121.588 Y97.950 E0.06273
G1 X123.589 Y97.950 E0.06273
G1 X125.004 Y96.535 E0.06273
G1 X126.418 Y97.950 E0.06273
G1 X128.359 Y97.950 E0.06085
G1 X128.042 Y98.327 F10800.000
G1 F1200
G1 X128.042 Y100.107 E0.05581
G1 X129.301 Y101.366 E0.05581
G1 X128.042 Y102.624 E0.05581
G1 X128.042 Y104.404 E0.05581
G1 X126.262 Y104.404 E0.05581
G1 X125.004 Y105.663 E0.05581
G1 X123.745 Y104.404 E0.05581
G1 X121.965 Y104.404 E0.05581
G1 X121.965 Y102.624 E0.05581
G1 X120.707 Y101.366 E0.05581
G1 X121.965 Y100.107 E0.05581
G1 X121.965 Y98.327 E0.05581
G1 X123.745 Y98.327 E0.05581
G1 X125.004 Y97.069 E0.05581
G1 X126.262 Y98.327 E0.05581
G1 X127.982 Y98.327 E0.05393
G1 X128.439 Y98.379 F10800.000
G1 F8640
G1 X128.042 Y100.107 E-0.41121
G1 X129.110 Y101.175 E-0.34879
G1 E-0.04000 F2100.00000
G1 Z0.800 F10800.000
G1 X129.893 Y97.034
G1 Z0.200
G1 E0.80000 F2100.00000
G1 F1200
G1 X130.525 Y97.874 E0.03296
G1 X131.014 Y98.805 E0.03296
G1 X131.347 Y99.802 E0.03296
G1 X131.518 Y100.857 E0.03350
G1 X131.539 Y101.365 E0.01594
G1 X131.518 Y101.872 E0.01593
G1 X131.347 Y102.929 E0.03357
G1 X131.014 Y103.926 E0.03296
G1 X130.525 Y104.857 E0.03296
G1 X129.895 Y105.696 E0.03288
G1 X129.135 Y106.426 E0.03305
G1 X128.270 Y107.023 E0.03296
G1 X127.319 Y107.474 E0.03299
G1 X126.310 Y107.766 E0.03294
G1 X125.267 Y107.893 E0.03296
G1 X124.216 Y107.851 E0.03297
G1 X123.184 Y107.640 E0.03301
G1 X122.203 Y107.268 E0.03290
G1 X121.295 Y106.743 E0.03288
G1 X120.478 Y106.077 E0.03305
G1 X119.781 Y105.290 E0.03296
G1 X119.219 Y104.402 E0.03296
G1 X118.807 Y103.434 E0.03296
G1 X118.556 Y102.414 E0.03296
G1 X118.471 Y101.368 E0.03288
G1 X118.556 Y100.318 E0.03305
G1 X118.807 Y99.297 E0.03296
G1 X119.219 Y98.330 E0.03296
G1 X119.781 Y97.441 E0.03296
G1 X120.477 Y96.656 E0.03288
G1 X121.293 Y95.989 E0.03305
G1 X122.203 Y95.464 E0.03296
G1 X123.186 Y95.091 E0.03296
G1 X124.216 Y94.881 E0.03296
G1 X125.267 Y94.838 E0.03296
G1 X126.308 Y94.965 E0.03288
G1 X127.320 Y95.258 E0.03305
G1 X128.270 Y95.708 E0.03296
G1 X129.135 Y96.305 E0.03296
G1 X129.850 Y96.992 E0.03108
G1 X130.111 Y96.720 F10800.000
G1 F1200
G1 X130.177 Y96.783 E0.00284
G1 X130.845 Y97.672 E0.03487
G1 X131.362 Y98.657 E0.03487
G1 X131.714 Y99.712 E0.03487
G1 X131.894 Y100.819 E0.03516
G1 X131.916 Y101.364 E0.01713
G1 X131.894 Y101.910 E0.01712
G1 X131.714 Y103.020 E0.03524
G1 X131.362 Y104.075 E0.03487
G1 X130.845 Y105.059 E0.03487
G1 X130.178 Y105.946 E0.03479
G1 X129.374 Y106.719 E0.03496
G1 X128.459 Y107.351 E0.03487
G1 X127.453 Y107.828 E0.03490
G1 X126.386 Y108.137 E0.03484
G1 X125.282 Y108.271 E0.03487
G1 X124.170 Y108.226 E0.03489
G1 X123.079 Y108.003 E0.03492
G1 X122.041 Y107.609 E0.03481
G1 X121.080 Y107.055 E0.03479
G1 X120.216 Y106.350 E0.03496
G1 X119.479 Y105.517 E0.03487
G1 X118.884 Y104.577 E0.03487
G1 X118.448 Y103.554 E0.03487
G1 X118.182 Y102.474 E0.03487
G1 X118.093 Y101.368 E0.03479
G1 X118.182 Y100.257 E0.03496
G1 X118.448 Y99.177 E0.03487
G1 X118.884 Y98.154 E0.03487
G1 X119.479 Y97.214 E0.03487
G1 X120.214 Y96.383 E0.03479
G1 X121.078 Y95.678 E0.03496
G1 X122.041 Y95.122 E0.03487
G1 X123.081 Y94.728 E0.03487
G1 X124.171 Y94.505 E0.03487
G1 X125.282 Y94.460 E0.03487
G1 X126.383 Y94.594 E0.03479
G1 X127.454 Y94.904 E0.03496
G1 X128.459 Y95.381 E0.03487
G1 X129.374 Y96.012 E0.03487
G1 X130.068 Y96.679 E0.03016
G1 X130.329 Y96.407 F10800.000
G1 F1200
G1 X130.460 Y96.532 E0.00567
G1 X131.165 Y97.470 E0.03678
G1 X131.710 Y98.509 E0.03678
G1 X132.081 Y99.621 E0.03678
G1 X132.270 Y100.781 E0.03683
G1 X132.293 Y101.364 E0.01832
G1 X132.270 Y101.948 E0.01832
G1 X132.081 Y103.110 E0.03691
G1 X131.710 Y104.223 E0.03678
G1 X131.165 Y105.262 E0.03678
G1 X130.461 Y106.197 E0.03669
G1 X129.614 Y107.012 E0.03687
G1 X128.648 Y107.678 E0.03678
G1 X127.588 Y108.182 E0.03681
G1 X126.462 Y108.508 E0.03675
G1 X125.297 Y108.649 E0.03678
G1 X124.125 Y108.602 E0.03680
G1 X122.974 Y108.367 E0.03683
G1 X121.879 Y107.951 E0.03672
G1 X120.865 Y107.366 E0.03669
G1 X119.954 Y106.623 E0.03687
G1 X119.176 Y105.745 E0.03678
G1 X118.549 Y104.753 E0.03678
G1 X118.089 Y103.674 E0.03678
G1 X117.809 Y102.535 E0.03678
G1 X117.715 Y101.368 E0.03669
G1 X117.809 Y100.196 E0.03687
G1 X118.089 Y99.057 E0.03678
G1 X118.549 Y97.978 E0.03678
G1 X119.176 Y96.987 E0.03678
G1 X119.952 Y96.111 E0.03669
G1 X120.863 Y95.367 E0.03687
G1 X121.879 Y94.780 E0.03678
G1 X122.976 Y94.364 E0.03678
G1 X124.125 Y94.130 E0.03678
G1 X125.297 Y94.082 E0.03678
G1 X126.459 Y94.223 E0.03669
G1 X127.589 Y94.550 E0.03687
G1 X128.648 Y95.053 E0.03678
G1 X129.614 Y95.719 E0.03678
G1 X130.286 Y96.365 E0.02923
G1 X130.291 Y96.583 F10800.000
G1 F8640
G1 X130.460 Y96.532 E-0.05562
G1 X131.165 Y97.470 E-0.27087
G1 X131.710 Y98.509 E-0.27087
G1 X131.933 Y99.177 E-0.16264
G1 E-0.04000 F2100.00000
G1 Z0.800 F10800.000
G1 X130.468 Y98.010
G1 Z0.200
G1 E0.80000 F2100.00000
G1 F1200
G1 X128.381 Y95.922 E0.09288
G1 F8640
G1 X130.468 Y98.010 E-0.68173
G1 E-0.11827 F2100.00000
G1 Z0.800 F10800.000
G1 X130.977 Y99.054
G1 Z0.200
G1 E0.80000 F2100.00000
G1 F1200
G1 X127.651 Y95.728 E0.14798
G1 X127.220 Y95.523 E0.01502
G1 X126.786 Y95.397 E0.01421
G1 X128.679 Y97.290 E0.08421
G1 X128.144 Y97.290 E0.01683
G1 X126.075 Y95.221 E0.09205
G1 X125.466 Y95.147 E0.01930
G1 X127.609 Y97.290 E0.09534
G1 X127.074 Y97.290 E0.01683
G1 X124.919 Y95.135 E0.09587
G1 X124.405 Y95.156 E0.01619
G1 X124.927 Y95.679 E0.02325
G1 X124.660 Y95.946 E0.01190
G1 X123.939 Y95.226 E0.03205
G1 X123.495 Y95.316 E0.01427
G1 X124.392 Y96.214 E0.03992
G1 X124.125 Y96.481 E0.01190
G1 X123.078 Y95.434 E0.04657
G1 X122.690 Y95.582 E0.01305
G1 X123.857 Y96.749 E0.05193
G1 X123.590 Y97.016 E0.01190
G1 X122.305 Y95.732 E0.05716
G1 X121.966 Y95.927 E0.01232
G1 X123.322 Y97.284 E0.06035
G1 X122.793 Y97.290 E0.01663
G1 X121.626 Y96.123 E0.05192
G1 X121.454 Y96.223 E0.00626
G1 X121.309 Y96.341 E0.00588
G1 X122.258 Y97.290 E0.04223
G1 X121.723 Y97.290 E0.01683
G1 X121.015 Y96.582 E0.03153
G1 X120.720 Y96.822 E0.01196
G1 X121.188 Y97.290 E0.02082
G1 X120.928 Y97.290 E0.00818
G1 X120.928 Y97.565 E0.00865
G1 X120.462 Y97.099 E0.02074
G1 X120.211 Y97.383 E0.01192
G1 X120.928 Y98.100 E0.03192
G1 X120.928 Y98.635 E0.01683
G1 X119.968 Y97.675 E0.04273
G1 X119.761 Y98.003 E0.01220
G1 X120.928 Y99.170 E0.05195
G1 X120.928 Y99.678 E0.01596
G1 X120.914 Y99.692 E0.00062
G1 X119.553 Y98.330 E0.06055
G1 X119.470 Y98.462 E0.00488
G1 X119.375 Y98.687 E0.00770
G1 X120.647 Y99.959 E0.05660
G1 X120.379 Y100.227 E0.01190
G1 X119.215 Y99.062 E0.05181
G1 X119.062 Y99.444 E0.01295
G1 X120.112 Y100.494 E0.04670
G1 X119.844 Y100.762 E0.01190
G1 X118.956 Y99.874 E0.03951
G1 X118.850 Y100.303 E0.01391
G1 X119.577 Y101.029 E0.03231
G1 X119.309 Y101.297 E0.01190
G1 X118.801 Y100.789 E0.02259
G1 X118.762 Y101.284 E0.01563
G1 X120.928 Y103.451 E0.09639
G1 X120.928 Y103.986 E0.01683
G1 X118.794 Y101.851 E0.09496
G1 X118.855 Y102.448 E0.01886
G1 X120.928 Y104.521 E0.09223
G1 X120.928 Y105.056 E0.01683
G1 X119.030 Y103.158 E0.08444
G1 X119.076 Y103.345 E0.00605
G1 X119.369 Y104.032 E0.02349
G1 X122.363 Y107.026 E0.13322
G1 X123.225 Y107.353 E0.02900
G1 X121.314 Y105.441 E0.08506
G1 X121.849 Y105.441 E0.01683
G1 X123.906 Y107.499 E0.09155
G1 X124.250 Y107.569 E0.01104
G1 X124.523 Y107.580 E0.00858
G1 X122.384 Y105.441 E0.09516
G1 X122.919 Y105.441 E0.01683
G1 X125.080 Y107.603 E0.09616
G1 X125.255 Y107.610 E0.00551
G1 X125.583 Y107.570 E0.01037
G1 X125.073 Y107.060 E0.02268
G1 X125.340 Y106.793 E0.01190
G1 X126.060 Y107.512 E0.03200
G1 X126.254 Y107.488 E0.00615
G1 X126.500 Y107.417 E0.00806
G1 X125.608 Y106.525 E0.03969
G1 X125.875 Y106.258 E0.01190
G1 X126.915 Y107.297 E0.04624
G1 X127.219 Y107.209 E0.00996
G1 X127.316 Y107.163 E0.00337
G1 X126.143 Y105.990 E0.05218
G1 X126.410 Y105.722 E0.01190
G1 X127.679 Y106.991 E0.05642
G1 X128.041 Y106.819 E0.01264
G1 X126.678 Y105.455 E0.06067
G1 X126.692 Y105.441 E0.00062
G1 X127.199 Y105.441 E0.01596
G1 X128.369 Y106.611 E0.05206
G1 X128.686 Y106.393 E0.01210
G1 X127.734 Y105.441 E0.04234
G1 X128.269 Y105.441 E0.01683
G1 X128.996 Y106.168 E0.03233
G1 X129.269 Y105.906 E0.01190
G1 X128.804 Y105.441 E0.02066
G1 X129.079 Y105.441 E0.00865
G1 X129.079 Y105.181 E0.00818
G1 X129.541 Y105.643 E0.02057
G1 X129.683 Y105.507 E0.00617
G1 X129.793 Y105.360 E0.00579
G1 X129.079 Y104.646 E0.03178
G1 X129.079 Y104.111 E0.01683
G1 X130.023 Y105.055 E0.04199
G1 X130.252 Y104.749 E0.01202
G1 X129.079 Y103.576 E0.05220
G1 X129.086 Y103.047 E0.01663
G1 X130.443 Y104.405 E0.06040
G1 X130.627 Y104.054 E0.01247
G1 X129.353 Y102.780 E0.05669
G1 X129.621 Y102.512 E0.01190
G1 X130.795 Y103.687 E0.05227
G1 X130.929 Y103.286 E0.01330
G1 X129.888 Y102.245 E0.04632
G1 X130.156 Y101.977 E0.01190
G1 X131.063 Y102.885 E0.04038
G1 X131.071 Y102.861 E0.00078
G1 X131.141 Y102.428 E0.01380
G1 X130.423 Y101.710 E0.03196
G1 X130.691 Y101.442 E0.01190
G1 X131.216 Y101.968 E0.02338
G1 X131.251 Y101.468 E0.01576
G1 X129.079 Y99.296 E0.09665
G1 X129.079 Y98.760 E0.01683
G1 X131.237 Y100.919 E0.09602
G1 X131.138 Y100.285 E0.02019
G1 X129.079 Y98.225 E0.09162
G1 X129.079 Y97.690 E0.01683
G1 X131.240 Y99.851 E0.09613
G1 F8640
G1 X129.079 Y97.690 E-0.70563
G1 X129.079 Y97.926 E-0.05437
G1 E-0.04000 F2100.00000
G1 Z0.800 F10800.000
G1 X121.579 Y106.777
G1 Z0.200
G1 E0.80000 F2100.00000
G1 F1200
G1 X119.609 Y104.807 E0.08763
G1 F8640
G1 X121.579 Y106.777 E-0.64323
G1 E-0.15677 F2100.00000
G1 Z0.800 F10800.000
G1 X119.766 Y116.666
G1 Z0.200
G1 E0.80000 F2100.00000
G1 F1200
G1 X119.766 Y111.896 E0.14954
G1 X120.520 Y111.896 E0.02365
G1 X120.520 Y115.834 E0.12347
G1 X121.274 Y115.399 E0.02731
G1 X121.274 Y111.896 E0.10981
G1 X122.029 Y111.896 E0.02365
G1 X122.029 Y115.046 E0.09875
G1 X122.783 Y114.760 E0.02529
G1 X122.783 Y111.896 E0.08979
G1 X123.537 Y111.896 E0.02365
G1 X123.537 Y114.603 E0.08486
G1 X124.033 Y114.501 E0.01588
G1 X124.291 Y114.488 E0.00809
G1 X124.291 Y111.896 E0.08127
G1 X125.045 Y111.896 E0.02365
G1 X125.045 Y114.458 E0.08032
G1 X125.339 Y114.449 E0.00922
G1 X125.799 Y114.505 E0.01454
G1 X125.799 Y111.896 E0.08178
G1 X126.554 Y111.896 E0.02365
G1 X126.554 Y114.596 E0.08465
G1 X127.308 Y114.809 E0.02457
G1 X127.308 Y111.896 E0.09133
G1 X128.062 Y111.896 E0.02365
G1 X128.062 Y115.074 E0.09963
G1 X128.816 Y115.432 E0.02617
G1 X128.816 Y111.896 E0.11085
G1 X129.570 Y111.896 E0.02365
G1 X129.570 Y116.127 E0.13266
G1 F8640
G1 X129.570 Y112.836 E-0.76000
G1 E-0.04000 F2100.00000
