; generated by Slic3r Prusa Edition 1.41.0+win64 on 2018-10-13 at 16:44:49

; 

; external perimeters extrusion width = 0.45mm
; perimeters extrusion width = 0.45mm
; infill extrusion width = 0.45mm
; solid infill extrusion width = 0.45mm
; top infill extrusion width = 0.40mm
; first layer extrusion width = 0.42mm

M201 X1000 Y1000 Z1000 E5000 ; sets maximum accelerations, mm/sec^2
M203 X200 Y200 Z12 E120 ; sets maximum feedrates, mm/sec
M204 P1250 R1250 T1250 ; sets acceleration (P, T) and retract acceleration (R), mm/sec^2
M205 X8.00 Y8.00 Z0.40 E1.50 ; sets the jerk limits, mm/sec
M205 S0 T0 ; sets the minimum extruding and travel feed rate, mm/sec
M107
M115 U3.4.0 ; tell printer latest fw version
M83  ; extruder relative mode
M104 S215 ; set extruder temp
M140 S65 ; set bed temp
M190 S65 ; wait for bed temp
M109 S215 ; wait for extruder temp
G28 W ; home all without mesh bed level
G80 ; mesh bed leveling
G1 Y-3.0 F1000.0 ; go outside print area
G92 E0.0
G1 X60.0 E9.0  F1000.0 ; intro line
M73 Q0 S389
M73 P0 R380
G1 X100.0 E12.5  F1000.0 ; intro line
G92 E0.0
M221 S95
M900 K30; Filament gcode
G21 ; set units to millimeters
G90 ; use absolute coordinates
M83 ; use relative distances for extrusion
;BEFORE_LAYER_CHANGE
G92 E0.0
;0.2


G1 E-0.80000 F2100.00000
G1 Z0.600 F10800.000
;AFTER_LAYER_CHANGE
;0.2
G1 X54.319 Y52.920
G1 Z0.200
G1 E0.80000 F2100.00000
M204 S1000
G1 F1200
G1 X54.994 Y52.811 E0.02146
G1 X195.004 Y52.811 E4.38990
G1 X195.834 Y52.976 E0.02653
G1 X196.539 Y53.444 E0.02653
G1 X197.014 Y54.144 E0.02653
G1 X197.188 Y54.972 E0.02653
G1 X197.188 Y155.018 E3.13687
G1 X197.126 Y155.521 E0.01589
G1 X196.947 Y155.999 E0.01601
G1 X196.662 Y156.423 E0.01601
G1 X196.290 Y156.768 E0.01589
G1 X195.681 Y157.080 E0.02146
G1 X195.006 Y157.189 E0.02146
G1 X54.993 Y157.189 E4.39001
G1 X54.486 Y157.127 E0.01601
G1 X54.004 Y156.949 E0.01612
G1 X53.579 Y156.665 E0.01601
G1 X53.232 Y156.290 E0.01601
G1 X52.921 Y155.685 E0.02134
G1 X52.811 Y155.010 E0.02146
G1 X52.812 Y54.989 E3.13607
G1 X52.874 Y54.482 E0.01601
G1 X53.051 Y54.004 E0.01601
G1 X53.335 Y53.579 E0.01601
G1 X53.710 Y53.232 E0.01601
G1 X54.265 Y52.948 E0.01957
; PURGING FINISHED
G1 F8640
G1 X54.994 Y52.811 E-0.17123
G1 X57.544 Y52.811 E-0.58877
G1 E-0.04000 F2100.00000
G1 Z0.800 F10800.000
G1 X180.913 Y138.971
G1 Z0.200
G1 E0.80000 F2100.00000
G1 F1200
G1 X180.709 Y140.521 E0.04900
G1 X177.301 Y140.956 E0.10774
G1 X171.893 Y141.537 E0.17055
G1 X165.929 Y142.051 E0.18767
G1 X159.483 Y142.493 E0.20259
G1 X152.629 Y142.856 E0.21519
G1 X145.449 Y143.138 E0.22531
G1 X138.027 Y143.333 E0.23280
G1 X130.451 Y143.441 E0.23757
G1 X122.810 Y143.461 E0.23957
G1 X115.195 Y143.390 E0.23877
G1 X107.696 Y143.232 E0.23517
G1 X100.402 Y142.987 E0.22883
G1 X93.399 Y142.658 E0.21982
G1 X86.769 Y142.249 E0.20827
G1 X80.590 Y141.765 E0.19432
G1 X74.935 Y141.212 E0.17816
G1 X69.296 Y140.525 E0.17814
G1 X69.087 Y138.971 E0.04915
G1 X117.810 Y119.036 E1.65062
G1 X132.190 Y119.036 E0.45085
G1 X180.858 Y138.949 E1.64874
G1 X180.501 Y139.210 F10800.000
G1 F1200
G1 X180.373 Y140.184 E0.03078
G1 X177.257 Y140.581 E0.09851
G1 X171.856 Y141.162 E0.17031
G1 X165.900 Y141.675 E0.18744
G1 X159.460 Y142.116 E0.20240
G1 X152.612 Y142.480 E0.21502
G1 X145.437 Y142.761 E0.22515
G1 X138.019 Y142.956 E0.23265
G1 X130.447 Y143.064 E0.23743
G1 X122.811 Y143.083 E0.23943
G1 X115.201 Y143.013 E0.23863
G1 X107.706 Y142.855 E0.23503
G1 X100.417 Y142.610 E0.22868
G1 X93.419 Y142.281 E0.21966
G1 X86.795 Y141.873 E0.20808
G1 X80.623 Y141.390 E0.19410
G1 X74.976 Y140.837 E0.17790
G1 X69.630 Y140.186 E0.16886
G1 X69.499 Y139.210 E0.03087
G1 X117.885 Y119.413 E1.63916
G1 X132.115 Y119.413 E0.44620
G1 X180.446 Y139.188 E1.63730
G1 X180.090 Y139.449 F10800.000
G1 F1200
G1 X180.037 Y139.846 E0.01256
G1 X177.213 Y140.207 E0.08928
G1 X171.820 Y140.786 E0.17006
G1 X165.871 Y141.299 E0.18722
G1 X159.437 Y141.740 E0.20220
G1 X152.594 Y142.103 E0.21485
G1 X145.424 Y142.384 E0.22499
G1 X138.011 Y142.579 E0.23250
G1 X130.444 Y142.687 E0.23729
G1 X122.812 Y142.706 E0.23929
G1 X115.206 Y142.636 E0.23849
G1 X107.717 Y142.478 E0.23488
G1 X100.432 Y142.233 E0.22853
G1 X93.440 Y141.905 E0.21949
G1 X86.822 Y141.497 E0.20790
G1 X80.657 Y141.014 E0.19389
G1 X75.018 Y140.462 E0.17765
G1 X69.965 Y139.847 E0.15958
G1 X69.912 Y139.449 E0.01260
G1 X117.959 Y119.790 E1.62769
M73 Q0 S388
M73 P0 R379
G1 X132.041 Y119.790 E0.44155
G1 X180.034 Y139.426 E1.62586
G1 X180.482 Y139.524 F10800.000
G1 F8640
G1 X180.037 Y139.846 E-0.09695
G1 X177.213 Y140.207 E-0.65752
G1 X177.189 Y140.210 E-0.00553
G1 E-0.04000 F2100.00000
G1 Z0.800 F10800.000
G1 X113.137 Y106.234
G1 Z0.200
G1 E0.80000 F2100.00000
G1 F1200
G1 X112.890 Y106.586 E0.01349
G1 X112.586 Y106.890 E0.01349
G1 X112.234 Y107.137 E0.01349
G1 X111.860 Y107.312 E0.01295
G1 X111.433 Y107.430 E0.01389
G1 X111.000 Y107.468 E0.01361
G1 X110.571 Y107.430 E0.01349
G1 X110.172 Y107.323 E0.01295
G1 X109.769 Y107.140 E0.01389
G1 X109.414 Y106.890 E0.01361
G1 X109.110 Y106.586 E0.01349
G1 X108.863 Y106.234 E0.01349
G1 X108.681 Y105.844 E0.01349
G1 X108.570 Y105.429 E0.01349
G1 X108.532 Y105.000 E0.01349
G1 X108.570 Y104.571 E0.01349
G1 X108.681 Y104.156 E0.01349
G1 X108.863 Y103.766 E0.01349
G1 X109.110 Y103.414 E0.01349
G1 X109.414 Y103.110 E0.01349
G1 X109.766 Y102.863 E0.01349
G1 X110.156 Y102.681 E0.01349
G1 X110.571 Y102.570 E0.01349
G1 X110.983 Y102.534 E0.01295
G1 X111.425 Y102.569 E0.01389
G1 X111.844 Y102.681 E0.01361
G1 X112.234 Y102.863 E0.01349
G1 X112.586 Y103.110 E0.01349
G1 X112.890 Y103.414 E0.01349
G1 X113.137 Y103.766 E0.01349
G1 X113.319 Y104.156 E0.01349
G1 X113.430 Y104.571 E0.01349
G1 X113.468 Y105.000 E0.01349
G1 X113.430 Y105.429 E0.01349
G1 X113.319 Y105.844 E0.01349
G1 X113.163 Y106.180 E0.01161
G1 X112.821 Y106.020 F10800.000
G1 F1200
G1 X112.601 Y106.343 E0.01225
G1 X112.343 Y106.601 E0.01142
G1 X112.045 Y106.809 E0.01142
G1 X111.729 Y106.957 E0.01093
G1 X111.365 Y107.057 E0.01182
G1 X111.000 Y107.089 E0.01150
G1 X110.637 Y107.058 E0.01142
G1 X110.300 Y106.967 E0.01093
G1 X109.957 Y106.811 E0.01182
G1 X109.657 Y106.601 E0.01150
G1 X109.399 Y106.343 E0.01142
G1 X109.191 Y106.045 E0.01142
G1 X109.037 Y105.715 E0.01142
G1 X108.942 Y105.363 E0.01142
G1 X108.911 Y105.000 E0.01142
G1 X108.942 Y104.637 E0.01142
G1 X109.037 Y104.285 E0.01142
G1 X109.191 Y103.955 E0.01142
G1 X109.399 Y103.657 E0.01142
G1 X109.657 Y103.399 E0.01142
G1 X109.955 Y103.191 E0.01142
G1 X110.285 Y103.037 E0.01142
G1 X110.637 Y102.942 E0.01142
G1 X110.985 Y102.912 E0.01093
G1 X111.360 Y102.942 E0.01182
G1 X111.715 Y103.037 E0.01150
G1 X112.045 Y103.191 E0.01142
G1 X112.343 Y103.399 E0.01142
G1 X112.601 Y103.657 E0.01142
G1 X112.809 Y103.955 E0.01142
G1 X112.963 Y104.285 E0.01142
G1 X113.058 Y104.637 E0.01142
G1 X113.089 Y105.000 E0.01142
G1 X113.058 Y105.363 E0.01142
G1 X112.963 Y105.715 E0.01142
G1 X112.846 Y105.966 E0.00869
G1 X112.482 Y105.855 F10800.000
G1 F1200
G1 X112.311 Y106.100 E0.00935
G1 X112.100 Y106.311 E0.00935
G1 X111.855 Y106.482 E0.00935
G1 X111.598 Y106.602 E0.00891
G1 X111.298 Y106.685 E0.00975
G1 X111.000 Y106.711 E0.00938
G1 X110.703 Y106.685 E0.00935
G1 X110.428 Y106.611 E0.00891
G1 X110.145 Y106.482 E0.00975
G1 X109.900 Y106.311 E0.00938
G1 X109.689 Y106.100 E0.00935
G1 X109.518 Y105.855 E0.00935
G1 X109.392 Y105.585 E0.00935
G1 X109.315 Y105.297 E0.00935
G1 X109.289 Y105.000 E0.00935
G1 X109.315 Y104.703 E0.00935
G1 X109.392 Y104.415 E0.00935
G1 X109.518 Y104.145 E0.00935
G1 X109.689 Y103.900 E0.00935
G1 X109.900 Y103.689 E0.00935
G1 X110.145 Y103.518 E0.00935
G1 X110.415 Y103.392 E0.00935
G1 X110.703 Y103.315 E0.00935
G1 X110.986 Y103.290 E0.00891
G1 X111.296 Y103.315 E0.00975
G1 X111.585 Y103.392 E0.00938
G1 X111.855 Y103.518 E0.00935
G1 X112.100 Y103.689 E0.00935
G1 X112.311 Y103.900 E0.00935
G1 X112.482 Y104.145 E0.00935
G1 X112.608 Y104.415 E0.00935
G1 X112.685 Y104.703 E0.00935
G1 X112.711 Y105.000 E0.00935
G1 X112.685 Y105.297 E0.00935
G1 X112.608 Y105.585 E0.00935
G1 X112.507 Y105.801 E0.00747
G1 X112.631 Y106.114 F10800.000
G1 F8640
G1 X112.311 Y106.100 E-0.08254
G1 X112.100 Y106.311 E-0.06886
G1 X111.855 Y106.482 E-0.06886
G1 X111.598 Y106.602 E-0.06564
G1 X111.298 Y106.685 E-0.07183
G1 X111.000 Y106.711 E-0.06906
G1 X110.703 Y106.685 E-0.06886
G1 X110.428 Y106.611 E-0.06564
G1 X110.145 Y106.482 E-0.07183
G1 X109.900 Y106.311 E-0.06906
G1 X109.723 Y106.133 E-0.05783
G1 E-0.04000 F2100.00000
G1 Z0.800 F10800.000
G1 X136.532 Y105.000
G1 Z0.200
G1 E0.80000 F2100.00000
G1 F1200
G1 X136.570 Y104.571 E0.01349
G1 X136.681 Y104.156 E0.01349
G1 X136.863 Y103.766 E0.01349
G1 X137.110 Y103.414 E0.01349
G1 X137.414 Y103.110 E0.01349
G1 X137.766 Y102.863 E0.01349
G1 X138.156 Y102.681 E0.01349
G1 X138.571 Y102.570 E0.01349
G1 X138.983 Y102.534 E0.01295
G1 X139.425 Y102.569 E0.01389
G1 X139.844 Y102.681 E0.01361
G1 X140.234 Y102.863 E0.01349
G1 X140.586 Y103.110 E0.01349
G1 X140.890 Y103.414 E0.01349
G1 X141.127 Y103.752 E0.01295
G1 X141.318 Y104.152 E0.01389
G1 X141.430 Y104.571 E0.01361
G1 X141.468 Y105.000 E0.01349
G1 X141.430 Y105.429 E0.01349
G1 X141.319 Y105.844 E0.01349
G1 X141.144 Y106.218 E0.01295
G1 X140.893 Y106.583 E0.01389
G1 X140.586 Y106.890 E0.01361
G1 X140.234 Y107.137 E0.01349
G1 X139.844 Y107.319 E0.01349
G1 X139.429 Y107.430 E0.01349
G1 X139.000 Y107.468 E0.01349
G1 X138.571 Y107.430 E0.01349
G1 X138.156 Y107.319 E0.01349
G1 X137.766 Y107.137 E0.01349
G1 X137.414 Y106.890 E0.01349
G1 X137.122 Y106.598 E0.01295
G1 X136.864 Y106.238 E0.01389
G1 X136.681 Y105.844 E0.01361
G1 X136.570 Y105.429 E0.01349
G1 X136.537 Y105.060 E0.01161
G1 X136.913 Y105.027 F10800.000
G1 F1200
G1 X136.942 Y104.637 E0.01225
G1 X137.037 Y104.285 E0.01142
G1 X137.191 Y103.955 E0.01142
G1 X137.399 Y103.657 E0.01142
G1 X137.657 Y103.399 E0.01142
G1 X137.955 Y103.191 E0.01142
G1 X138.285 Y103.037 E0.01142
G1 X138.637 Y102.942 E0.01142
G1 X138.985 Y102.912 E0.01093
G1 X139.360 Y102.942 E0.01182
G1 X139.715 Y103.037 E0.01150
G1 X140.045 Y103.191 E0.01142
G1 X140.343 Y103.399 E0.01142
G1 X140.601 Y103.657 E0.01142
G1 X140.800 Y103.943 E0.01093
G1 X140.963 Y104.283 E0.01182
G1 X141.058 Y104.637 E0.01150
G1 X141.089 Y105.000 E0.01142
G1 X141.058 Y105.363 E0.01142
G1 X140.963 Y105.715 E0.01142
G1 X140.816 Y106.031 E0.01093
G1 X140.602 Y106.341 E0.01182
G1 X140.343 Y106.601 E0.01150
G1 X140.045 Y106.809 E0.01142
G1 X139.715 Y106.963 E0.01142
G1 X139.363 Y107.058 E0.01142
G1 X139.000 Y107.089 E0.01142
G1 X138.637 Y107.058 E0.01142
G1 X138.285 Y106.963 E0.01142
G1 X137.955 Y106.809 E0.01142
G1 X137.657 Y106.601 E0.01142
G1 X137.410 Y106.354 E0.01093
G1 X137.192 Y106.047 E0.01182
G1 X137.037 Y105.715 E0.01150
G1 X136.942 Y105.363 E0.01142
G1 X136.918 Y105.087 E0.00869
G1 X137.289 Y105.000 F10800.000
G1 F1200
G1 X137.315 Y104.703 E0.00935
G1 X137.392 Y104.415 E0.00935
G1 X137.518 Y104.145 E0.00935
G1 X137.689 Y103.900 E0.00935
G1 X137.900 Y103.689 E0.00935
G1 X138.145 Y103.518 E0.00935
G1 X138.415 Y103.392 E0.00935
G1 X138.703 Y103.315 E0.00935
G1 X138.986 Y103.290 E0.00891
G1 X139.296 Y103.315 E0.00975
G1 X139.585 Y103.392 E0.00938
G1 X139.855 Y103.518 E0.00935
G1 X140.100 Y103.689 E0.00935
G1 X140.311 Y103.900 E0.00935
G1 X140.474 Y104.133 E0.00891
G1 X140.607 Y104.414 E0.00975
G1 X140.685 Y104.703 E0.00938
G1 X140.711 Y105.000 E0.00935
G1 X140.685 Y105.297 E0.00935
G1 X140.608 Y105.585 E0.00935
G1 X140.487 Y105.843 E0.00891
G1 X140.311 Y106.099 E0.00975
G1 X140.100 Y106.311 E0.00938
G1 X139.855 Y106.482 E0.00935
G1 X139.585 Y106.608 E0.00935
G1 X139.297 Y106.685 E0.00935
G1 X139.000 Y106.711 E0.00935
G1 X138.703 Y106.685 E0.00935
G1 X138.415 Y106.608 E0.00935
G1 X138.145 Y106.482 E0.00935
G1 X137.900 Y106.311 E0.00935
G1 X137.699 Y106.110 E0.00891
G1 X137.519 Y105.856 E0.00975
G1 X137.392 Y105.585 E0.00938
G1 X137.315 Y105.297 E0.00935
G1 X137.294 Y105.060 E0.00747
G1 X137.031 Y104.851 F10800.000
G1 F8640
G1 X137.315 Y104.703 E-0.08254
G1 X137.392 Y104.415 E-0.06886
G1 X137.518 Y104.145 E-0.06886
G1 X137.689 Y103.900 E-0.06886
G1 X137.900 Y103.689 E-0.06886
G1 X138.145 Y103.518 E-0.06886
G1 X138.415 Y103.392 E-0.06886
G1 X138.703 Y103.315 E-0.06886
G1 X138.986 Y103.290 E-0.06564
G1 X139.296 Y103.315 E-0.07184
G1 X139.539 Y103.380 E-0.05799
G1 E-0.04000 F2100.00000
G1 Z0.800 F10800.000
G1 X180.709 Y69.479
G1 Z0.200
G1 E0.80000 F2100.00000
G1 F1200
G1 X180.913 Y71.029 E0.04900
G1 X132.190 Y90.964 E1.65062
G1 X117.810 Y90.964 E0.45085
G1 X69.087 Y71.029 E1.65062
G1 X69.296 Y69.475 E0.04915
G1 X74.935 Y68.788 E0.17814
G1 X80.590 Y68.235 E0.17816
G1 X86.769 Y67.751 E0.19432
G1 X93.399 Y67.342 E0.20827
G1 X100.402 Y67.013 E0.21982
G1 X107.696 Y66.768 E0.22884
G1 X115.449 Y66.607 E0.24312
G1 X122.810 Y66.539 E0.23082
G1 X130.451 Y66.559 E0.23957
G1 X138.027 Y66.667 E0.23757
G1 X145.449 Y66.862 E0.23280
G1 X152.629 Y67.144 E0.22531
G1 X159.483 Y67.507 E0.21519
G1 X165.929 Y67.949 E0.20259
G1 X171.893 Y68.463 E0.18767
G1 X177.301 Y69.044 E0.17055
G1 X180.650 Y69.472 E0.10586
G1 X180.373 Y69.816 F10800.000
G1 F1200
G1 X180.501 Y70.790 E0.03078
G1 X132.115 Y90.587 E1.63918
G1 X117.885 Y90.587 E0.44620
G1 X69.499 Y70.790 E1.63916
G1 X69.630 Y69.814 E0.03087
G1 X74.976 Y69.163 E0.16886
G1 X80.623 Y68.610 E0.17790
G1 X86.795 Y68.127 E0.19410
G1 X93.419 Y67.719 E0.20808
G1 X100.417 Y67.390 E0.21966
G1 X107.707 Y67.145 E0.22868
G1 X115.454 Y66.984 E0.24297
G1 X122.811 Y66.917 E0.23068
G1 X130.447 Y66.936 E0.23943
G1 X138.019 Y67.044 E0.23743
G1 X145.437 Y67.239 E0.23265
G1 X152.612 Y67.520 E0.22515
G1 X159.460 Y67.884 E0.21502
G1 X165.900 Y68.325 E0.20240
G1 X171.856 Y68.838 E0.18744
G1 X177.257 Y69.419 E0.17031
G1 X180.314 Y69.809 E0.09663
G1 X180.037 Y70.154 F10800.000
G1 F1200
G1 X180.090 Y70.551 E0.01256
G1 X132.041 Y90.210 E1.62775
G1 X117.959 Y90.210 E0.44155
G1 X69.912 Y70.551 E1.62769
G1 X69.965 Y70.153 E0.01260
G1 X75.018 Y69.538 E0.15958
G1 X80.657 Y68.986 E0.17765
G1 X86.822 Y68.503 E0.19389
G1 X93.440 Y68.095 E0.20790
G1 X100.432 Y67.767 E0.21949
G1 X107.717 Y67.522 E0.22853
G1 X115.460 Y67.361 E0.24283
G1 X122.812 Y67.294 E0.23054
G1 X130.444 Y67.313 E0.23929
G1 X138.011 Y67.421 E0.23729
G1 X145.424 Y67.616 E0.23250
G1 X152.594 Y67.897 E0.22499
G1 X159.437 Y68.260 E0.21485
G1 X165.871 Y68.701 E0.20220
G1 X171.820 Y69.214 E0.18722
G1 X177.213 Y69.793 E0.17006
G1 X179.978 Y70.146 E0.08740
G1 X180.437 Y70.134 F10800.000
G1 F8640
G1 X180.090 Y70.551 E-0.09695
G1 X177.432 Y71.638 E-0.66305
G1 E-0.04000 F2100.00000
G1 Z0.800 F10800.000
G1 X194.036 Y57.330
G1 Z0.200
G1 E0.80000 F2100.00000
G1 F1200
G1 X194.036 Y152.670 E2.98930
G1 X192.489 Y151.977 E0.05315
G1 X189.844 Y151.178 E0.08662
G1 X186.467 Y150.429 E0.10846
G1 X182.380 Y149.729 E0.13000
G1 X177.624 Y149.083 E0.15051
G1 X172.250 Y148.498 E0.16951
G1 X166.319 Y147.979 E0.18666
G1 X159.901 Y147.533 E0.20172
G1 X153.070 Y147.164 E0.21447
G1 X145.908 Y146.878 E0.22475
G1 X138.499 Y146.676 E0.23240
G1 X130.929 Y146.563 E0.23735
G1 X123.290 Y146.538 E0.23953
G1 X115.671 Y146.603 E0.23890
G1 X108.162 Y146.756 E0.23548
G1 X100.853 Y146.995 E0.22931
G1 X93.829 Y147.319 E0.22047
G1 X87.173 Y147.723 E0.20907
G1 X80.964 Y148.202 E0.19526
G1 X75.274 Y148.751 E0.17923
G1 X70.169 Y149.365 E0.16122
G1 X65.706 Y150.036 E0.14150
G1 X61.933 Y150.758 E0.12046
G1 X58.882 Y151.529 E0.09868
G1 X56.574 Y152.351 E0.07682
G1 X55.964 Y152.677 E0.02167
G1 X55.964 Y57.323 E2.98977
M73 Q0 S387
M73 P0 R378
G1 X56.585 Y57.654 E0.02207
G1 X58.897 Y58.476 E0.07694
G1 X61.953 Y59.246 E0.09880
G1 X65.730 Y59.968 E0.12058
G1 X70.169 Y60.635 E0.14074
G1 X75.274 Y61.249 E0.16122
G1 X80.964 Y61.798 E0.17923
G1 X87.173 Y62.277 E0.19526
G1 X93.905 Y62.684 E0.21146
G1 X100.853 Y63.005 E0.21808
G1 X108.162 Y63.244 E0.22931
G1 X115.671 Y63.397 E0.23548
G1 X123.290 Y63.462 E0.23890
G1 X130.929 Y63.437 E0.23953
G1 X138.499 Y63.324 E0.23735
G1 X145.988 Y63.119 E0.23491
G1 X153.070 Y62.836 E0.22224
G1 X159.901 Y62.467 E0.21447
G1 X166.319 Y62.021 E0.20172
G1 X172.250 Y61.502 E0.18666
G1 X177.624 Y60.917 E0.16951
G1 X182.404 Y60.268 E0.15125
G1 X186.487 Y59.567 E0.12989
