; generated by Slic3r Prusa Edition 1.41.0+win64 on 2018-10-10 at 22:31:21

; 

; external perimeters extrusion width = 0.45mm
; perimeters extrusion width = 0.45mm
; infill extrusion width = 0.45mm
; solid infill extrusion width = 0.45mm
; top infill extrusion width = 0.40mm
; first layer extrusion width = 0.42mm

M201 X1000 Y1000 Z1000 E5000 ; sets maximum accelerations, mm/sec^2
M203 X200 Y200 Z12 E120 ; sets maximum feedrates, mm/sec
M204 P1250 R1250 T1250 ; sets acceleration (P, T) and retract acceleration (R), mm/sec^2
M205 X8.00 Y8.00 Z0.40 E1.50 ; sets the jerk limits, mm/sec
M205 S0 T0 ; sets the minimum extruding and travel feed rate, mm/sec
M107
M115 U3.4.0 ; tell printer latest fw version
M83  ; extruder relative mode
M104 S215 ; set extruder temp
M140 S65 ; set bed temp
M190 S65 ; wait for bed temp
M109 S215 ; wait for extruder temp
G28 W ; home all without mesh bed level
G80 ; mesh bed leveling
G1 Y-3.0 F1000.0 ; go outside print area
G92 E0.0
G1 X60.0 E9.0  F1000.0 ; intro line
M73 Q0 S26
M73 P0 R26
G1 X100.0 E12.5  F1000.0 ; intro line
G92 E0.0
M221 S95
M900 K30; Filament gcode
G21 ; set units to millimeters
G90 ; use absolute coordinates
M83 ; use relative distances for extrusion
;BEFORE_LAYER_CHANGE
G92 E0.0
;0.2


G1 E-0.80000 F2100.00000
G1 Z0.600 F10800.000
;AFTER_LAYER_CHANGE
;0.2
G1 X118.725 Y96.166
G1 Z0.200
G1 E0.80000 F2100.00000
M204 S1000
G1 F1200
G1 X121.071 Y94.898 E0.08363
G1 X123.551 Y94.256 E0.08031
G1 X125.973 Y94.216 E0.07595
G1 X126.717 Y94.309 E0.02352
G1 X128.690 Y94.815 E0.06385
G1 X129.274 Y95.048 E0.01972
G1 X131.416 Y96.268 E0.07730
G1 X133.253 Y97.985 E0.07883
G1 X134.620 Y100.057 E0.07784
G1 X134.922 Y100.701 E0.02227
G1 X135.638 Y103.034 E0.07652
G1 X135.797 Y105.565 E0.07952
G1 X135.375 Y107.985 E0.07704
G1 X135.146 Y108.671 E0.02268
G1 X134.070 Y110.859 E0.07645
G1 X132.344 Y112.908 E0.08400
G1 X130.288 Y114.404 E0.07972
G1 X128.024 Y115.342 E0.07682
G1 X127.341 Y115.516 E0.02210
G1 X124.798 Y115.781 E0.08018
G1 X122.386 Y115.464 E0.07626
G1 X120.106 Y114.602 E0.07645
G1 X119.498 Y114.267 E0.02176
G1 X117.509 Y112.769 E0.07805
G1 X115.915 Y110.835 E0.07858
G1 X114.829 Y108.617 E0.07745
G1 X114.636 Y108.027 E0.01945
G1 X114.252 Y106.027 E0.06385
G1 X114.203 Y105.286 E0.02329
G1 X114.391 Y102.879 E0.07571
G1 X115.100 Y100.639 E0.07366
G1 X115.360 Y100.090 E0.01906
G1 X116.447 Y98.376 E0.06363
G1 X116.929 Y97.796 E0.02362
G1 X118.680 Y96.206 E0.07418
G1 X118.929 Y96.483 F10800.000
G1 F1200
G1 X121.099 Y95.292 E0.07763
G1 X123.590 Y94.631 E0.08082
G1 X125.973 Y94.593 E0.07471
G1 X126.625 Y94.674 E0.02061
G1 X128.580 Y95.176 E0.06328
G1 X129.107 Y95.386 E0.01780
G1 X131.191 Y96.570 E0.07513
G1 X132.971 Y98.235 E0.07642
G1 X134.298 Y100.254 E0.07577
G1 X134.565 Y100.823 E0.01971
G1 X135.266 Y103.095 E0.07454
G1 X135.420 Y105.547 E0.07704
G1 X135.006 Y107.904 E0.07503
G1 X134.805 Y108.511 E0.02005
G1 X133.757 Y110.648 E0.07463
G1 X132.089 Y112.630 E0.08122
G1 X130.100 Y114.076 E0.07711
G1 X127.895 Y114.988 E0.07483
G1 X127.287 Y115.143 E0.01965
G1 X124.816 Y115.404 E0.07793
G1 X122.478 Y115.098 E0.07391
G1 X120.250 Y114.253 E0.07471
G1 X119.713 Y113.958 E0.01921
G1 X117.776 Y112.503 E0.07596
G1 X116.232 Y110.631 E0.07608
G1 X115.177 Y108.471 E0.07540
G1 X115.002 Y107.939 E0.01753
G1 X114.622 Y105.957 E0.06328
G1 X114.580 Y105.304 E0.02053
G1 X114.762 Y102.950 E0.07403
G1 X115.452 Y100.776 E0.07151
G1 X115.686 Y100.280 E0.01719
G1 X116.763 Y98.582 E0.06305
G1 X117.187 Y98.071 E0.02081
G1 X118.884 Y96.524 E0.07202
; PURGING FINISHED
G1 F8640
G1 X121.099 Y95.292 E-0.58514
G1 X121.831 Y95.098 E-0.17486
G1 E-0.04000 F2100.00000
G1 Z0.800 F10800.000
G1 X121.129 Y99.644
G1 Z0.200
G1 E0.80000 F2100.00000
G1 F1200
G1 X122.576 Y98.849 E0.05176
G1 X124.175 Y98.438 E0.05176
G1 X125.825 Y98.438 E0.05176
G1 X127.424 Y98.849 E0.05176
G1 X128.871 Y99.644 E0.05176
G1 X130.074 Y100.774 E0.05176
G1 X130.959 Y102.168 E0.05176
G1 X131.469 Y103.738 E0.05176
G1 X131.572 Y105.385 E0.05176
G1 X131.263 Y107.006 E0.05176
G1 X130.560 Y108.500 E0.05176
G1 X129.508 Y109.772 E0.05176
G1 X128.172 Y110.742 E0.05176
G1 X126.638 Y111.350 E0.05176
G1 X125.000 Y111.557 E0.05176
G1 X123.362 Y111.350 E0.05176
G1 X121.828 Y110.742 E0.05176
G1 X120.492 Y109.772 E0.05176
G1 X119.440 Y108.500 E0.05176
G1 X118.737 Y107.006 E0.05176
G1 X118.428 Y105.385 E0.05176
G1 X118.531 Y103.738 E0.05176
G1 X119.041 Y102.168 E0.05176
G1 X119.926 Y100.774 E0.05176
G1 X121.086 Y99.685 E0.04988
G1 X120.743 Y99.489 F10800.000
G1 F1200
G1 X120.439 Y98.943 E0.01960
G1 X120.440 Y98.878 E0.00203
G1 X120.491 Y98.787 E0.00327
G1 X120.547 Y98.753 E0.00207
G1 X120.627 Y98.751 E0.00250
G1 X120.684 Y98.781 E0.00203
G1 X121.102 Y99.229 E0.01920
G1 X122.277 Y98.583 E0.04204
G1 X122.092 Y98.063 E0.01730
G1 X122.102 Y97.921 E0.00445
G1 X122.195 Y97.850 E0.00366
G1 X122.311 Y97.858 E0.00364
G1 X122.360 Y97.903 E0.00207
G1 X122.652 Y98.440 E0.01917
G1 X123.911 Y98.117 E0.04076
G1 X123.908 Y97.505 E0.01917
G1 X123.958 Y97.415 E0.00324
G1 X124.024 Y97.374 E0.00245
G1 X124.105 Y97.383 E0.00254
G1 X124.198 Y97.455 E0.00369
G1 X124.350 Y98.061 E0.01959
G1 X125.650 Y98.061 E0.04076
G1 X125.802 Y97.455 E0.01959
G1 X125.906 Y97.377 E0.00408
G1 X125.971 Y97.380 E0.00203
G1 X126.070 Y97.443 E0.00369
G1 X126.092 Y97.504 E0.00203
G1 X126.090 Y98.117 E0.01920
G1 X127.388 Y98.450 E0.04204
G1 X127.610 Y97.945 E0.01730
G1 X127.713 Y97.848 E0.00444
G1 X127.843 Y97.864 E0.00408
G1 X127.889 Y97.911 E0.00207
G1 X127.915 Y98.011 E0.00324
G1 X127.760 Y98.603 E0.01917
G1 X128.899 Y99.229 E0.04076
G1 X129.324 Y98.771 E0.01960
G1 X129.386 Y98.751 E0.00203
G1 X129.488 Y98.772 E0.00327
G1 X129.538 Y98.815 E0.00207
G1 X129.561 Y98.943 E0.00408
G1 X129.257 Y99.489 E0.01959
G1 X130.235 Y100.407 E0.04206
G1 X130.672 Y100.071 E0.01730
G1 X130.797 Y100.038 E0.00404
G1 X130.900 Y100.090 E0.00364
G1 X130.933 Y100.203 E0.00366
G1 X130.877 Y100.318 E0.00403
G1 X130.464 Y100.685 E0.01730
G1 X131.183 Y101.817 E0.04206
G1 X131.763 Y101.626 E0.01917
G1 X131.865 Y101.645 E0.00324
G1 X131.915 Y101.688 E0.00207
G1 X131.938 Y101.803 E0.00367
G1 X131.911 Y101.879 E0.00255
G1 X131.371 Y102.218 E0.01997
G1 X131.773 Y103.454 E0.04076
G1 X132.397 Y103.412 E0.01959
G1 X132.493 Y103.477 E0.00366
G1 X132.521 Y103.577 E0.00324
G1 X132.506 Y103.640 E0.00206
G1 X132.451 Y103.699 E0.00250
G1 X131.856 Y103.889 E0.01959
G1 X131.938 Y105.186 E0.04076
G1 X132.552 Y105.300 E0.01959
G1 X132.636 Y105.399 E0.00408
G1 X132.638 Y105.465 E0.00207
G1 X132.581 Y105.567 E0.00366
G1 X132.521 Y105.592 E0.00203
G1 X131.910 Y105.629 E0.01920
G1 X131.666 Y106.905 E0.04073
G1 X132.221 Y107.162 E0.01917
G1 X132.281 Y107.246 E0.00324
G1 X132.288 Y107.312 E0.00207
G1 X132.218 Y107.421 E0.00408
G1 X132.143 Y107.446 E0.00249
G1 X131.529 Y107.326 E0.01959
G1 X130.976 Y108.502 E0.04076
G1 X131.460 Y108.898 E0.01960
G1 X131.485 Y109.012 E0.00367
G1 X131.465 Y109.074 E0.00206
G1 X131.368 Y109.140 E0.00367
G1 X131.303 Y109.145 E0.00205
G1 X130.739 Y108.876 E0.01959
G1 X129.910 Y109.877 E0.04076
G1 X130.280 Y110.381 E0.01959
G1 X130.274 Y110.511 E0.00408
G1 X130.230 Y110.560 E0.00207
G1 X130.172 Y110.591 E0.00207
G1 X130.056 Y110.572 E0.00367
G1 X129.588 Y110.180 E0.01915
G1 X128.536 Y110.944 E0.04076
G1 X128.764 Y111.511 E0.01917
G1 X128.751 Y111.614 E0.00324
G1 X128.664 Y111.692 E0.00366
G1 X128.585 Y111.698 E0.00249
G1 X128.513 Y111.665 E0.00249
G1 X128.148 Y111.157 E0.01959
G1 X126.940 Y111.636 E0.04076
G1 X127.019 Y112.242 E0.01917
G1 X126.981 Y112.338 E0.00324
G1 X126.930 Y112.379 E0.00206
G1 X126.800 Y112.379 E0.00408
G1 X126.738 Y112.328 E0.00250
G1 X126.511 Y111.746 E0.01959
G1 X125.221 Y111.909 E0.04076
G1 X125.148 Y112.516 E0.01917
G1 X125.110 Y112.589 E0.00257
G1 X124.986 Y112.625 E0.00404
G1 X124.923 Y112.608 E0.00206
G1 X124.852 Y112.515 E0.00367
G1 X124.779 Y111.909 E0.01915
G1 X123.489 Y111.746 E0.04076
G1 X123.267 Y112.316 E0.01917
G1 X123.187 Y112.381 E0.00324
G1 X123.122 Y112.393 E0.00206
G1 X123.009 Y112.330 E0.00408
G1 X122.979 Y112.255 E0.00250
G1 X123.060 Y111.636 E0.01959
G1 X121.852 Y111.157 E0.04076
G1 X121.487 Y111.665 E0.01959
G1 X121.415 Y111.698 E0.00250
G1 X121.301 Y111.672 E0.00367
G1 X121.253 Y111.627 E0.00206
G1 X121.236 Y111.511 E0.00367
G1 X121.464 Y110.944 E0.01915
G1 X120.412 Y110.180 E0.04076
G1 X119.943 Y110.572 E0.01917
G1 X119.842 Y110.591 E0.00324
G1 X119.740 Y110.533 E0.00366
G1 X119.710 Y110.460 E0.00249
G1 X119.753 Y110.325 E0.00442
G1 X120.116 Y109.908 E0.01733
G1 X119.261 Y108.876 E0.04203
G1 X118.709 Y109.139 E0.01917
G1 X118.644 Y109.146 E0.00207
G1 X118.545 Y109.083 E0.00367
G1 X118.514 Y109.025 E0.00205
G1 X118.540 Y108.898 E0.00408
G1 X119.024 Y108.502 E0.01959
G1 X118.471 Y107.326 E0.04076
G1 X117.857 Y107.446 E0.01959
G1 X117.753 Y107.393 E0.00366
G1 X117.710 Y107.325 E0.00252
G1 X117.719 Y107.246 E0.00249
G1 X117.779 Y107.162 E0.00324
G1 X118.334 Y106.905 E0.01917
G1 X118.090 Y105.628 E0.04076
G1 X117.480 Y105.593 E0.01917
G1 X117.393 Y105.537 E0.00324
G1 X117.368 Y105.491 E0.00164
G1 X117.373 Y105.374 E0.00365
G1 X117.436 Y105.302 E0.00300
G1 X118.062 Y105.186 E0.01997
G1 X118.144 Y103.889 E0.04076
G1 X117.562 Y103.703 E0.01917
G1 X117.509 Y103.663 E0.00207
G1 X117.480 Y103.550 E0.00367
G1 X117.497 Y103.487 E0.00205
G1 X117.544 Y103.440 E0.00207
G1 X117.669 Y103.410 E0.00403
G1 X118.214 Y103.494 E0.01730
G1 X118.629 Y102.218 E0.04206
G1 X118.099 Y101.886 E0.01959
G1 X118.057 Y101.763 E0.00408
G1 X118.114 Y101.661 E0.00366
G1 X118.224 Y101.621 E0.00366
G1 X118.817 Y101.817 E0.01959
G1 X119.514 Y100.720 E0.04076
G1 X119.093 Y100.276 E0.01917
G1 X119.068 Y100.176 E0.00324
G1 X119.111 Y100.083 E0.00324
G1 X119.165 Y100.044 E0.00206
G1 X119.260 Y100.035 E0.00300
G1 X119.796 Y100.379 E0.01997
G1 X120.699 Y99.530 E0.03887
G1 X120.271 Y99.415 F10800.000
G1 F1200
G1 X120.080 Y99.073 E0.01227
G1 X120.062 Y99.002 E0.00231
G1 X120.063 Y98.812 E0.00596
G1 X120.125 Y98.639 E0.00577
G1 X120.240 Y98.498 E0.00571
G1 X120.404 Y98.399 E0.00600
G1 X120.475 Y98.378 E0.00231
G1 X120.675 Y98.372 E0.00629
G1 X120.747 Y98.388 E0.00231
G1 X120.916 Y98.476 E0.00596
G1 X121.178 Y98.757 E0.01203
G1 X121.814 Y98.407 E0.02278
G1 X121.720 Y98.143 E0.00876
G1 X121.704 Y97.954 E0.00596
G1 X121.753 Y97.767 E0.00605
G1 X121.789 Y97.703 E0.00231
G1 X121.920 Y97.566 E0.00596
G1 X122.085 Y97.484 E0.00577
G1 X122.266 Y97.462 E0.00571
G1 X122.453 Y97.504 E0.00600
G1 X122.518 Y97.538 E0.00231
G1 X122.661 Y97.666 E0.00600
G1 X122.843 Y98.001 E0.01199
G1 X123.532 Y97.824 E0.02232
G1 X123.530 Y97.442 E0.01199
G1 X123.591 Y97.270 E0.00572
G1 X123.705 Y97.128 E0.00572
G1 X123.868 Y97.028 E0.00600
G1 X124.029 Y96.993 E0.00518
G1 X124.218 Y97.018 E0.00596
G1 X124.382 Y97.101 E0.00577
G1 X124.513 Y97.240 E0.00600
G1 X124.549 Y97.304 E0.00231
G1 X124.644 Y97.684 E0.01227
G1 X125.356 Y97.684 E0.02232
G1 X125.451 Y97.304 E0.01227
G1 X125.487 Y97.240 E0.00231
G1 X125.618 Y97.101 E0.00600
G1 X125.789 Y97.014 E0.00600
G1 X125.861 Y96.998 E0.00231
G1 X126.051 Y97.005 E0.00596
G1 X126.222 Y97.074 E0.00577
G1 X126.365 Y97.200 E0.00600
G1 X126.406 Y97.261 E0.00231
G1 X126.469 Y97.441 E0.00596
G1 X126.468 Y97.824 E0.01203
G1 X127.171 Y98.005 E0.02278
G1 X127.283 Y97.749 E0.00876
G1 X127.402 Y97.599 E0.00601
G1 X127.563 Y97.497 E0.00596
G1 X127.635 Y97.475 E0.00236
G1 X127.826 Y97.465 E0.00600
G1 X128.008 Y97.520 E0.00596
G1 X128.072 Y97.559 E0.00236
G1 X128.205 Y97.696 E0.00600
G1 X128.280 Y97.863 E0.00572
G1 X128.296 Y98.044 E0.00572
G1 X128.199 Y98.414 E0.01199
G1 X128.823 Y98.757 E0.02232
G1 X129.089 Y98.470 E0.01227
G1 X129.151 Y98.431 E0.00231
G1 X129.332 Y98.372 E0.00596
G1 X129.516 Y98.378 E0.00577
G1 X129.686 Y98.444 E0.00571
G1 X129.831 Y98.570 E0.00600
G1 X129.872 Y98.630 E0.00231
G1 X129.937 Y98.811 E0.00600
G1 X129.938 Y99.002 E0.00600
G1 X129.920 Y99.073 E0.00231
G1 X129.729 Y99.415 E0.01227
G1 X130.259 Y99.913 E0.02278
G1 X130.480 Y99.742 E0.00876
G1 X130.655 Y99.668 E0.00596
G1 X130.839 Y99.657 E0.00577
G1 X131.014 Y99.708 E0.00571
G1 X131.168 Y99.819 E0.00596
G1 X131.216 Y99.877 E0.00236
G1 X131.297 Y100.050 E0.00600
G1 X131.314 Y100.232 E0.00572
G1 X131.270 Y100.409 E0.00572
G1 X131.163 Y100.568 E0.00600
G1 X130.954 Y100.754 E0.00876
G1 X131.344 Y101.367 E0.02278
G1 X131.707 Y101.247 E0.01199
G1 X131.889 Y101.251 E0.00572
G1 X132.059 Y101.316 E0.00572
G1 X132.205 Y101.440 E0.00600
G1 X132.248 Y101.500 E0.00231
G1 X132.314 Y101.679 E0.00596
G1 X132.316 Y101.862 E0.00577
G1 X132.255 Y102.042 E0.00595
G1 X132.209 Y102.113 E0.00265
G1 X132.152 Y102.173 E0.00259
G1 X131.821 Y102.381 E0.01227
G1 X132.041 Y103.058 E0.02232
G1 X132.431 Y103.031 E0.01227
G1 X132.504 Y103.045 E0.00231
G1 X132.677 Y103.127 E0.00600
G1 X132.806 Y103.256 E0.00572
G1 X132.884 Y103.421 E0.00572
G1 X132.903 Y103.602 E0.00572
G1 X132.858 Y103.787 E0.00596
G1 X132.823 Y103.854 E0.00236
G1 X132.686 Y104.000 E0.00628
G1 X132.624 Y104.040 E0.00231
G1 X132.251 Y104.159 E0.01227
G1 X132.296 Y104.869 E0.02232
G1 X132.680 Y104.940 E0.01227
G1 X132.747 Y104.972 E0.00231
G1 X132.894 Y105.095 E0.00600
G1 X132.992 Y105.259 E0.00600
G1 X133.012 Y105.330 E0.00231
G1 X133.016 Y105.522 E0.00600
G1 X132.959 Y105.695 E0.00572
G1 X132.842 Y105.846 E0.00600
G1 X132.783 Y105.891 E0.00231
G1 X132.608 Y105.965 E0.00596
G1 X132.225 Y105.988 E0.01203
G1 X132.092 Y106.687 E0.02231
G1 X132.438 Y106.848 E0.01199
G1 X132.569 Y106.975 E0.00572
G1 X132.648 Y107.139 E0.00572
G1 X132.670 Y107.329 E0.00600
G1 X132.659 Y107.402 E0.00231
G1 X132.585 Y107.579 E0.00600
G1 X132.456 Y107.720 E0.00600
G1 X132.394 Y107.760 E0.00231
G1 X132.203 Y107.823 E0.00629
G1 X132.130 Y107.828 E0.00231
G1 X131.745 Y107.752 E0.01227
G1 X131.442 Y108.396 E0.02232
G1 X131.745 Y108.644 E0.01227
G1 X131.789 Y108.704 E0.00231
G1 X131.858 Y108.881 E0.00596
G1 X131.864 Y109.065 E0.00577
G1 X131.806 Y109.247 E0.00600
G1 X131.766 Y109.309 E0.00231
G1 X131.627 Y109.439 E0.00596
G1 X131.459 Y109.512 E0.00577
G1 X131.268 Y109.525 E0.00600
G1 X131.195 Y109.511 E0.00231
G1 X130.842 Y109.343 E0.01227
G1 X130.388 Y109.891 E0.02232
G1 X130.620 Y110.206 E0.01227
G1 X130.647 Y110.275 E0.00231
G1 X130.670 Y110.465 E0.00600
G1 X130.629 Y110.652 E0.00600
G1 X130.595 Y110.718 E0.00231
G1 X130.467 Y110.860 E0.00600
G1 X130.299 Y110.952 E0.00600
G1 X130.227 Y110.969 E0.00231
G1 X130.037 Y110.967 E0.00596
G1 X129.865 Y110.903 E0.00577
G1 X129.571 Y110.658 E0.01198
G1 X128.996 Y111.076 E0.02232
G1 X129.138 Y111.431 E0.01199
G1 X129.146 Y111.613 E0.00572
G1 X129.092 Y111.787 E0.00572
G1 X128.982 Y111.933 E0.00572
G1 X128.823 Y112.040 E0.00600
G1 X128.753 Y112.064 E0.00231
G1 X128.553 Y112.079 E0.00629
G1 X128.481 Y112.066 E0.00231
G1 X128.299 Y111.981 E0.00629
G1 X128.242 Y111.934 E0.00231
G1 X128.014 Y111.616 E0.01227
G1 X127.352 Y111.878 E0.02232
G1 X127.402 Y112.257 E0.01198
G1 X127.364 Y112.436 E0.00572
G1 X127.268 Y112.591 E0.00572
G1 X127.120 Y112.710 E0.00596
G1 X127.051 Y112.741 E0.00236
G1 X126.863 Y112.773 E0.00600
G1 X126.676 Y112.740 E0.00596
G1 X126.607 Y112.708 E0.00236
G1 X126.452 Y112.581 E0.00628
G1 X126.409 Y112.522 E0.00231
G1 X126.266 Y112.157 E0.01227
G1 X125.560 Y112.246 E0.02232
G1 X125.514 Y112.626 E0.01199
G1 X125.429 Y112.797 E0.00600
G1 X125.310 Y112.912 E0.00518
G1 X125.137 Y112.990 E0.00596
G1 X124.954 Y113.006 E0.00577
G1 X124.769 Y112.958 E0.00600
G1 X124.705 Y112.922 E0.00231
G1 X124.568 Y112.790 E0.00596
G1 X124.486 Y112.625 E0.00577
G1 X124.440 Y112.246 E0.01198
G1 X123.734 Y112.157 E0.02232
G1 X123.595 Y112.513 E0.01199
G1 X123.475 Y112.651 E0.00572
G1 X123.317 Y112.741 E0.00572
G1 X123.130 Y112.774 E0.00596
G1 X123.055 Y112.768 E0.00236
G1 X122.874 Y112.705 E0.00600
G1 X122.726 Y112.586 E0.00596
G1 X122.681 Y112.526 E0.00236
G1 X122.606 Y112.340 E0.00628
G1 X122.597 Y112.266 E0.00231
G1 X122.648 Y111.878 E0.01227
G1 X121.986 Y111.616 E0.02232
G1 X121.758 Y111.934 E0.01227
G1 X121.701 Y111.981 E0.00231
G1 X121.519 Y112.066 E0.00629
G1 X121.447 Y112.079 E0.00231
G1 X121.257 Y112.065 E0.00596
G1 X121.089 Y111.990 E0.00577
G1 X120.950 Y111.859 E0.00600
G1 X120.911 Y111.796 E0.00231
