; generated by Slic3r Prusa Edition 1.41.0+win64 on 2019-02-10 at 22:36:10

; 

; external perimeters extrusion width = 0.45mm
; perimeters extrusion width = 0.45mm
; infill extrusion width = 0.45mm
; solid infill extrusion width = 0.45mm
; top infill extrusion width = 0.40mm
; support material extrusion width = 0.35mm
; first layer extrusion width = 0.42mm

M201 X1000 Y1000 Z1000 E5000 ; sets maximum accelerations, mm/sec^2
M203 X200 Y200 Z12 E120 ; sets maximum feedrates, mm/sec
M204 P1250 R1250 T1250 ; sets acceleration (P, T) and retract acceleration (R), mm/sec^2
M205 X8.00 Y8.00 Z0.40 E1.50 ; sets the jerk limits, mm/sec
M205 S0 T0 ; sets the minimum extruding and travel feed rate, mm/sec
M107
M115 U3.4.1 ; tell printer latest fw version
M83  ; extruder relative mode
M104 S215 ; set extruder temp
M140 S60 ; set bed temp
M190 S60 ; wait for bed temp
M109 S215 ; wait for extruder temp
G28 W ; home all without mesh bed level
G80 ; mesh bed leveling
G1 Y-3.0 F1000.0 ; go outside print area
G92 E0.0
G1 X60.0 E9.0  F1000.0 ; intro line
M73 Q0 S387
M73 P0 R379
G1 X100.0 E12.5  F1000.0 ; intro line
G92 E0.0
M221 S95
M900 K30; Filament gcode
G21 ; set units to millimeters
G90 ; use absolute coordinates
M83 ; use relative distances for extrusion
;BEFORE_LAYER_CHANGE
G92 E0.0
;0.2


G1 E-0.80000 F2100.00000
G1 Z0.600 F10800.000
;AFTER_LAYER_CHANGE
;0.2
G1 X40.312 Y41.150
G1 Z0.200
G1 E0.80000 F2100.00000
M204 S1000
G1 F1200
G1 X41.853 Y39.679 E0.06679
G1 X43.196 Y38.622 E0.05358
G1 X44.623 Y37.682 E0.05358
G1 X46.125 Y36.867 E0.05358
G1 X47.690 Y36.181 E0.05358
G1 X49.308 Y35.630 E0.05358
G1 X50.967 Y35.218 E0.05358
G1 X52.654 Y34.948 E0.05358
G1 X54.358 Y34.822 E0.05358
G1 X195.011 Y34.811 E4.41007
G1 X196.862 Y34.898 E0.05810
G1 X198.709 Y35.155 E0.05845
G1 X200.513 Y35.579 E0.05810
G1 X202.281 Y36.170 E0.05845
G1 X203.977 Y36.917 E0.05810
G1 X205.606 Y37.822 E0.05845
G1 X207.137 Y38.867 E0.05810
G1 X208.573 Y40.055 E0.05845
G1 X209.886 Y41.363 E0.05810
G1 X211.081 Y42.794 E0.05845
G1 X212.138 Y44.329 E0.05845
G1 X213.044 Y45.946 E0.05810
G1 X213.799 Y47.639 E0.05810
G1 X214.397 Y49.404 E0.05845
G1 X214.829 Y51.206 E0.05810
G1 X215.094 Y53.051 E0.05845
G1 X215.189 Y54.991 E0.06088
G1 X215.154 Y156.187 E3.17293
G1 X214.932 Y158.206 E0.06367
G1 X214.512 Y160.181 E0.06332
G1 X213.897 Y162.104 E0.06332
G1 X213.088 Y163.967 E0.06367
G1 X212.096 Y165.738 E0.06367
G1 X210.938 Y167.392 E0.06332
G1 X209.620 Y168.923 E0.06332
G1 X208.147 Y170.321 E0.06367
G1 X206.804 Y171.378 E0.05358
G1 X205.377 Y172.318 E0.05358
G1 X203.875 Y173.133 E0.05358
G1 X202.310 Y173.819 E0.05358
G1 X200.692 Y174.370 E0.05358
G1 X199.033 Y174.782 E0.05358
G1 X197.346 Y175.052 E0.05358
G1 X195.642 Y175.178 E0.05358
G1 X54.744 Y175.187 E4.41775
G1 X52.607 Y175.046 E0.06714
G1 X50.497 Y174.680 E0.06714
G1 X48.438 Y174.092 E0.06714
G1 X46.453 Y173.290 E0.06714
G1 X44.564 Y172.282 E0.06714
G1 X42.792 Y171.079 E0.06714
G1 X41.157 Y169.695 E0.06714
G1 X39.679 Y168.147 E0.06714
G1 X38.641 Y166.831 E0.05254
G1 X37.711 Y165.424 E0.05289
G1 X36.906 Y163.954 E0.05254
G1 X36.221 Y162.412 E0.05289
G1 X35.671 Y160.829 E0.05254
G1 X35.252 Y159.196 E0.05289
G1 X34.972 Y157.543 E0.05254
G1 X34.830 Y155.863 E0.05289
G1 X34.814 Y54.656 E3.17327
G1 X34.963 Y52.531 E0.06679
G1 X35.335 Y50.433 E0.06679
G1 X35.925 Y48.386 E0.06679
G1 X36.729 Y46.413 E0.06679
G1 X37.735 Y44.536 E0.06679
G1 X38.934 Y42.775 E0.06679
G1 X40.273 Y41.196 E0.06491
; PURGING FINISHED
G1 F8640
G1 X41.853 Y39.679 E-0.50567
G1 X42.718 Y38.998 E-0.25433
G1 E-0.04000 F2100.00000
G1 Z0.800 F10800.000
G1 X67.821 Y56.480
G1 Z0.200
G1 E0.80000 F2100.00000
G1 F1200
G1 X67.821 Y58.908 E0.07614
G1 X68.575 Y59.011 E0.02387
G1 X68.575 Y56.649 E0.07406
G1 X69.329 Y56.649 E0.02365
G1 X69.329 Y59.114 E0.07727
G1 X70.083 Y59.216 E0.02386
G1 X70.083 Y56.649 E0.08048
G1 X70.837 Y56.649 E0.02365
G1 X70.837 Y59.318 E0.08369
G1 X71.592 Y59.420 E0.02386
G1 X71.592 Y56.649 E0.08688
G1 X72.346 Y56.649 E0.02365
G1 X72.346 Y59.523 E0.09009
G1 X73.100 Y59.610 E0.02380
G1 X73.100 Y56.649 E0.09283
G1 X73.854 Y56.649 E0.02365
G1 X73.854 Y59.863 E0.10076
G1 F8640
G1 X73.854 Y56.649 E-0.74205
G1 X73.776 Y56.649 E-0.01795
G1 E-0.04000 F2100.00000
G1 Z0.800 F10800.000
G1 X72.346 Y70.307
G1 Z0.200
G1 E0.80000 F2100.00000
G1 F1200
G1 X72.346 Y70.873 E0.01776
G1 X73.100 Y71.182 E0.02555
G1 X73.100 Y70.387 E0.02494
G1 X73.854 Y70.306 E0.02378
G1 X73.854 Y71.674 E0.04291
G1 F8640
G1 X73.854 Y70.306 E-0.31598
G1 X73.100 Y70.387 E-0.17514
G1 X73.100 Y71.182 E-0.18368
G1 X72.758 Y71.042 E-0.08520
G1 E-0.04000 F2100.00000
G1 Z0.800 F10800.000
G1 X72.346 Y138.943
G1 Z0.200
G1 E0.80000 F2100.00000
G1 F1200
G1 X72.346 Y139.522 E0.01815
G1 X73.100 Y139.613 E0.02382
G1 X73.100 Y138.818 E0.02494
G1 X73.854 Y138.509 E0.02555
G1 X73.854 Y139.865 E0.04251
G1 F8640
G1 X73.854 Y138.509 E-0.31305
G1 X73.100 Y138.818 E-0.18815
G1 X73.100 Y139.613 E-0.18369
G1 X72.777 Y139.574 E-0.07511
G1 E-0.04000 F2100.00000
G1 Z0.800 F10800.000
G1 X66.312 Y151.179
G1 Z0.200
G1 E0.80000 F2100.00000
G1 F1200
G1 X66.312 Y154.862 E0.11550
G1 X67.067 Y154.862 E0.02365
G1 X67.067 Y151.221 E0.11417
G1 X67.821 Y151.092 E0.02399
G1 X67.821 Y154.862 E0.11821
G1 X68.575 Y154.862 E0.02365
G1 X68.575 Y150.989 E0.12145
G1 X69.329 Y150.886 E0.02386
G1 X69.329 Y154.862 E0.12466
G1 X70.083 Y154.862 E0.02365
G1 X70.083 Y150.784 E0.12787
G1 X70.837 Y150.682 E0.02386
G1 X70.837 Y154.862 E0.13108
G1 X71.592 Y154.862 E0.02365
G1 X71.592 Y150.579 E0.13428
G1 X72.346 Y150.477 E0.02386
G1 X72.346 Y154.862 E0.13750
G1 X73.100 Y154.862 E0.02365
G1 X73.100 Y150.390 E0.14023
G1 X73.854 Y150.308 E0.02379
G1 X73.854 Y155.032 E0.14812
G1 F8640
G1 X73.854 Y151.740 E-0.76000
G1 E-0.04000 F2100.00000
G1 Z0.800 F10800.000
G1 X174.911 Y149.990
G1 Z0.200
G1 E0.80000 F2100.00000
G1 F1200
G1 X174.911 Y154.862 E0.15275
G1 X175.665 Y154.862 E0.02365
G1 X175.665 Y150.252 E0.14455
G1 X176.420 Y150.343 E0.02382
G1 X176.420 Y154.862 E0.14171
G1 X177.174 Y154.862 E0.02365
G1 X177.174 Y150.433 E0.13887
G1 X177.928 Y150.524 E0.02382
G1 X177.928 Y154.862 E0.13603
G1 X178.682 Y154.862 E0.02365
G1 X178.682 Y150.614 E0.13319
G1 X179.436 Y150.705 E0.02382
G1 X179.436 Y154.862 E0.13035
G1 X180.190 Y154.862 E0.02365
G1 X180.190 Y150.812 E0.12700
G1 X180.945 Y150.925 E0.02391
G1 X180.945 Y154.862 E0.12345
G1 X181.699 Y154.862 E0.02365
G1 X181.699 Y151.038 E0.11989
G1 X182.453 Y151.152 E0.02391
G1 X182.453 Y155.032 E0.12166
G1 F8640
G1 X182.453 Y151.740 E-0.76000
G1 E-0.04000 F2100.00000
G1 Z0.800 F10800.000
G1 X177.928 Y139.646
G1 Z0.200
G1 E0.80000 F2100.00000
G1 F1200
G1 X177.928 Y139.238 E0.01278
G1 X177.174 Y138.930 E0.02555
G1 X177.174 Y139.567 E0.01998
G1 X176.420 Y139.659 E0.02382
G1 X176.420 Y138.621 E0.03253
G1 X175.665 Y138.313 E0.02555
G1 X175.665 Y139.751 E0.04509
G1 X174.911 Y139.843 E0.02382
G1 X174.911 Y137.821 E0.06339
G1 F8640
G1 X174.911 Y139.843 E-0.46682
G1 X175.665 Y139.751 E-0.17542
G1 X175.665 Y139.241 E-0.11776
G1 E-0.04000 F2100.00000
G1 Z0.800 F10800.000
G1 X177.928 Y70.945
G1 Z0.200
G1 E0.80000 F2100.00000
G1 F1200
G1 X177.928 Y70.525 E0.01317
G1 X177.174 Y70.433 E0.02382
G1 X177.174 Y71.070 E0.01998
G1 X176.420 Y71.379 E0.02555
G1 X176.420 Y70.341 E0.03253
G1 X175.665 Y70.249 E0.02382
G1 X175.665 Y71.687 E0.04509
G1 X174.911 Y71.996 E0.02555
G1 X174.911 Y69.987 E0.06299
G1 F8640
G1 X174.911 Y71.996 E-0.46385
G1 X175.665 Y71.687 E-0.18815
G1 X175.665 Y71.220 E-0.10800
G1 E-0.04000 F2100.00000
G1 Z0.800 F10800.000
G1 X174.911 Y60.010
G1 Z0.200
G1 E0.80000 F2100.00000
G1 F1200
G1 X174.911 Y56.649 E0.10536
G1 X175.665 Y56.649 E0.02365
G1 X175.665 Y59.748 E0.09716
G1 X176.420 Y59.657 E0.02382
G1 X176.420 Y56.649 E0.09432
G1 X177.174 Y56.649 E0.02365
G1 X177.174 Y59.567 E0.09148
G1 X177.928 Y59.476 E0.02382
G1 X177.928 Y56.649 E0.08864
G1 X178.682 Y56.649 E0.02365
G1 X178.682 Y59.386 E0.08580
G1 X179.436 Y59.295 E0.02382
G1 X179.436 Y56.649 E0.08296
G1 X180.190 Y56.649 E0.02365
G1 X180.190 Y59.188 E0.07961
G1 X180.945 Y59.075 E0.02391
G1 X180.945 Y56.649 E0.07605
G1 X181.699 Y56.649 E0.02365
G1 X181.699 Y59.133 E0.07788
G1 F8640
G1 X181.699 Y56.649 E-0.57354
G1 X180.945 Y56.649 E-0.17414
G1 X180.945 Y56.703 E-0.01232
G1 E-0.04000 F2100.00000
G1 Z0.800 F10800.000
G1 X180.913 Y138.971
G1 Z0.200
G1 E0.80000 F2100.00000
G1 F1200
G1 X180.704 Y140.525 E0.04915
G1 X175.065 Y141.212 E0.17814
G1 X169.410 Y141.765 E0.17816
G1 X163.231 Y142.249 E0.19432
G1 X156.601 Y142.658 E0.20827
G1 X149.598 Y142.987 E0.21982
G1 X142.304 Y143.232 E0.22883
G1 X134.805 Y143.390 E0.23517
G1 X127.190 Y143.461 E0.23877
G1 X119.549 Y143.441 E0.23957
G1 X111.973 Y143.333 E0.23757
G1 X104.551 Y143.138 E0.23280
G1 X97.371 Y142.856 E0.22531
G1 X90.517 Y142.493 E0.21519
G1 X84.071 Y142.051 E0.20259
G1 X78.107 Y141.537 E0.18767
G1 X72.699 Y140.956 E0.17055
G1 X69.291 Y140.521 E0.10774
G1 X69.087 Y138.971 E0.04900
G1 X117.810 Y119.036 E1.65062
M73 Q0 S386
G1 X132.190 Y119.036 E0.45085
G1 X180.858 Y138.949 E1.64874
M73 P0 R378
G1 X180.501 Y139.210 F10800.000
G1 F1200
G1 X180.370 Y140.186 E0.03087
G1 X175.024 Y140.837 E0.16886
G1 X169.377 Y141.390 E0.17790
G1 X163.205 Y141.873 E0.19410
G1 X156.581 Y142.281 E0.20808
G1 X149.583 Y142.610 E0.21966
G1 X142.294 Y142.855 E0.22868
G1 X134.799 Y143.013 E0.23503
G1 X127.189 Y143.083 E0.23863
G1 X119.553 Y143.064 E0.23943
G1 X111.981 Y142.956 E0.23743
G1 X104.563 Y142.761 E0.23265
G1 X97.388 Y142.480 E0.22515
G1 X90.540 Y142.116 E0.21502
G1 X84.100 Y141.675 E0.20240
G1 X78.144 Y141.162 E0.18744
G1 X72.743 Y140.581 E0.17031
G1 X69.627 Y140.184 E0.09851
G1 X69.499 Y139.210 E0.03078
G1 X117.885 Y119.413 E1.63918
G1 X132.115 Y119.413 E0.44620
G1 X180.445 Y139.187 E1.63728
G1 X180.088 Y139.449 F10800.000
G1 F1200
G1 X180.035 Y139.847 E0.01260
G1 X174.982 Y140.462 E0.15958
G1 X169.343 Y141.014 E0.17765
G1 X163.178 Y141.497 E0.19389
G1 X156.560 Y141.905 E0.20790
G1 X149.568 Y142.233 E0.21949
G1 X142.283 Y142.478 E0.22853
G1 X134.794 Y142.636 E0.23488
G1 X127.188 Y142.706 E0.23849
G1 X119.556 Y142.687 E0.23929
G1 X111.989 Y142.579 E0.23729
G1 X104.576 Y142.384 E0.23250
G1 X97.406 Y142.103 E0.22499
G1 X90.563 Y141.740 E0.21485
G1 X84.129 Y141.299 E0.20220
G1 X78.180 Y140.786 E0.18722
G1 X72.787 Y140.207 E0.17006
G1 X69.963 Y139.846 E0.08928
G1 X69.910 Y139.449 E0.01256
G1 X117.959 Y119.790 E1.62775
G1 X132.041 Y119.790 E0.44155
G1 X180.033 Y139.426 E1.62581
G1 X180.481 Y139.525 F10800.000
G1 F8640
G1 X180.035 Y139.847 E-0.09719
G1 X177.185 Y140.194 E-0.66281
G1 E-0.04000 F2100.00000
G1 Z0.800 F10800.000
G1 X113.137 Y106.234
G1 Z0.200
G1 E0.80000 F2100.00000
G1 F1200
G1 X112.890 Y106.586 E0.01349
G1 X112.586 Y106.890 E0.01349
G1 X112.234 Y107.137 E0.01349
G1 X111.844 Y107.319 E0.01349
G1 X111.429 Y107.430 E0.01349
G1 X111.000 Y107.468 E0.01349
G1 X110.571 Y107.430 E0.01349
G1 X110.156 Y107.319 E0.01349
G1 X109.766 Y107.137 E0.01349
G1 X109.414 Y106.890 E0.01349
G1 X109.110 Y106.586 E0.01349
G1 X108.863 Y106.234 E0.01349
G1 X108.681 Y105.844 E0.01349
G1 X108.570 Y105.429 E0.01349
G1 X108.532 Y105.000 E0.01349
G1 X108.570 Y104.571 E0.01349
G1 X108.681 Y104.156 E0.01349
G1 X108.863 Y103.766 E0.01349
G1 X109.110 Y103.414 E0.01349
G1 X109.414 Y103.110 E0.01349
G1 X109.766 Y102.863 E0.01349
G1 X110.156 Y102.681 E0.01349
G1 X110.571 Y102.570 E0.01349
G1 X110.983 Y102.534 E0.01295
G1 X111.425 Y102.569 E0.01389
G1 X111.844 Y102.681 E0.01361
G1 X112.234 Y102.863 E0.01349
G1 X112.586 Y103.110 E0.01349
G1 X112.890 Y103.414 E0.01349
G1 X113.137 Y103.766 E0.01349
G1 X113.319 Y104.156 E0.01349
G1 X113.430 Y104.571 E0.01349
G1 X113.468 Y105.000 E0.01349
G1 X113.430 Y105.429 E0.01349
G1 X113.319 Y105.844 E0.01349
G1 X113.163 Y106.180 E0.01161
G1 X112.821 Y106.020 F10800.000
G1 F1200
G1 X112.601 Y106.343 E0.01225
G1 X112.343 Y106.601 E0.01142
G1 X112.045 Y106.809 E0.01142
G1 X111.715 Y106.963 E0.01142
G1 X111.363 Y107.058 E0.01142
G1 X111.000 Y107.089 E0.01142
G1 X110.637 Y107.058 E0.01142
G1 X110.285 Y106.963 E0.01142
G1 X109.955 Y106.809 E0.01142
G1 X109.657 Y106.601 E0.01142
G1 X109.399 Y106.343 E0.01142
G1 X109.191 Y106.045 E0.01142
G1 X109.037 Y105.715 E0.01142
G1 X108.942 Y105.363 E0.01142
G1 X108.911 Y105.000 E0.01142
G1 X108.942 Y104.637 E0.01142
G1 X109.037 Y104.285 E0.01142
G1 X109.191 Y103.955 E0.01142
G1 X109.399 Y103.657 E0.01142
G1 X109.657 Y103.399 E0.01142
G1 X109.955 Y103.191 E0.01142
G1 X110.285 Y103.037 E0.01142
G1 X110.637 Y102.942 E0.01142
G1 X110.985 Y102.912 E0.01093
G1 X111.360 Y102.942 E0.01182
G1 X111.715 Y103.037 E0.01150
G1 X112.045 Y103.191 E0.01142
G1 X112.343 Y103.399 E0.01142
G1 X112.601 Y103.657 E0.01142
G1 X112.809 Y103.955 E0.01142
G1 X112.963 Y104.285 E0.01142
G1 X113.058 Y104.637 E0.01142
G1 X113.089 Y105.000 E0.01142
G1 X113.058 Y105.363 E0.01142
G1 X112.963 Y105.715 E0.01142
G1 X112.846 Y105.966 E0.00869
G1 X112.482 Y105.855 F10800.000
G1 F1200
G1 X112.311 Y106.100 E0.00935
G1 X112.100 Y106.311 E0.00935
G1 X111.855 Y106.482 E0.00935
G1 X111.585 Y106.608 E0.00935
G1 X111.297 Y106.685 E0.00935
G1 X111.000 Y106.711 E0.00935
G1 X110.703 Y106.685 E0.00935
G1 X110.415 Y106.608 E0.00935
G1 X110.145 Y106.482 E0.00935
G1 X109.900 Y106.311 E0.00935
G1 X109.689 Y106.100 E0.00935
G1 X109.518 Y105.855 E0.00935
G1 X109.392 Y105.585 E0.00935
G1 X109.315 Y105.297 E0.00935
G1 X109.289 Y105.000 E0.00935
G1 X109.315 Y104.703 E0.00935
G1 X109.392 Y104.415 E0.00935
G1 X109.518 Y104.145 E0.00935
G1 X109.689 Y103.900 E0.00935
G1 X109.900 Y103.689 E0.00935
G1 X110.145 Y103.518 E0.00935
G1 X110.415 Y103.392 E0.00935
G1 X110.703 Y103.315 E0.00935
G1 X110.986 Y103.290 E0.00891
G1 X111.296 Y103.315 E0.00975
G1 X111.585 Y103.392 E0.00938
G1 X111.855 Y103.518 E0.00935
G1 X112.100 Y103.689 E0.00935
G1 X112.311 Y103.900 E0.00935
G1 X112.482 Y104.145 E0.00935
G1 X112.608 Y104.415 E0.00935
G1 X112.685 Y104.703 E0.00935
G1 X112.711 Y105.000 E0.00935
G1 X112.685 Y105.297 E0.00935
G1 X112.608 Y105.585 E0.00935
G1 X112.507 Y105.801 E0.00747
G1 X112.631 Y106.114 F10800.000
G1 F8640
G1 X112.311 Y106.100 E-0.08254
G1 X112.100 Y106.311 E-0.06886
G1 X111.855 Y106.482 E-0.06886
G1 X111.585 Y106.608 E-0.06886
G1 X111.297 Y106.685 E-0.06886
G1 X111.000 Y106.711 E-0.06886
G1 X110.703 Y106.685 E-0.06886
G1 X110.415 Y106.608 E-0.06886
G1 X110.145 Y106.482 E-0.06886
G1 X109.900 Y106.311 E-0.06886
G1 X109.724 Y106.134 E-0.05774
G1 E-0.04000 F2100.00000
G1 Z0.800 F10800.000
G1 X136.532 Y105.000
G1 Z0.200
G1 E0.80000 F2100.00000
G1 F1200
G1 X136.570 Y104.571 E0.01349
G1 X136.681 Y104.156 E0.01349
G1 X136.863 Y103.766 E0.01349
G1 X137.110 Y103.414 E0.01349
G1 X137.414 Y103.110 E0.01349
G1 X137.766 Y102.863 E0.01349
G1 X138.156 Y102.681 E0.01349
G1 X138.571 Y102.570 E0.01349
G1 X138.983 Y102.534 E0.01295
G1 X139.425 Y102.569 E0.01389
G1 X139.844 Y102.681 E0.01361
G1 X140.234 Y102.863 E0.01349
G1 X140.586 Y103.110 E0.01349
G1 X140.890 Y103.414 E0.01349
G1 X141.137 Y103.766 E0.01349
G1 X141.319 Y104.156 E0.01349
G1 X141.430 Y104.571 E0.01349
G1 X141.468 Y105.000 E0.01349
G1 X141.430 Y105.429 E0.01349
G1 X141.319 Y105.844 E0.01349
G1 X141.144 Y106.218 E0.01295
G1 X140.893 Y106.583 E0.01389
G1 X140.586 Y106.890 E0.01361
G1 X140.234 Y107.137 E0.01349
G1 X139.844 Y107.319 E0.01349
G1 X139.429 Y107.430 E0.01349
G1 X139.000 Y107.468 E0.01349
G1 X138.571 Y107.430 E0.01349
G1 X138.156 Y107.319 E0.01349
G1 X137.766 Y107.137 E0.01349
G1 X137.428 Y106.900 E0.01295
G1 X137.112 Y106.590 E0.01389
G1 X136.863 Y106.234 E0.01361
G1 X136.681 Y105.844 E0.01349
G1 X136.570 Y105.429 E0.01349
G1 X136.537 Y105.060 E0.01161
G1 X136.913 Y105.027 F10800.000
G1 F1200
G1 X136.942 Y104.637 E0.01225
G1 X137.037 Y104.285 E0.01142
G1 X137.191 Y103.955 E0.01142
G1 X137.399 Y103.657 E0.01142
G1 X137.657 Y103.399 E0.01142
G1 X137.955 Y103.191 E0.01142
G1 X138.285 Y103.037 E0.01142
G1 X138.637 Y102.942 E0.01142
G1 X138.985 Y102.912 E0.01093
G1 X139.360 Y102.942 E0.01182
G1 X139.715 Y103.037 E0.01150
G1 X140.045 Y103.191 E0.01142
G1 X140.343 Y103.399 E0.01142
G1 X140.601 Y103.657 E0.01142
G1 X140.809 Y103.955 E0.01142
G1 X140.963 Y104.285 E0.01142
