; generated by Slic3r Prusa Edition 1.41.0+win64 on 2018-11-18 at 20:17:58

; 

; external perimeters extrusion width = 0.45mm
; perimeters extrusion width = 0.45mm
; infill extrusion width = 0.45mm
; solid infill extrusion width = 0.45mm
; top infill extrusion width = 0.40mm
; support material extrusion width = 0.35mm
; first layer extrusion width = 0.42mm

M201 X1000 Y1000 Z1000 E5000 ; sets maximum accelerations, mm/sec^2
M203 X200 Y200 Z12 E120 ; sets maximum feedrates, mm/sec
M204 P1250 R1250 T1250 ; sets acceleration (P, T) and retract acceleration (R), mm/sec^2
M205 X8.00 Y8.00 Z0.40 E1.50 ; sets the jerk limits, mm/sec
M205 S0 T0 ; sets the minimum extruding and travel feed rate, mm/sec
M107
M115 U3.4.1 ; tell printer latest fw version
M83  ; extruder relative mode
M104 S215 ; set extruder temp
M140 S65 ; set bed temp
M190 S65 ; wait for bed temp
M109 S215 ; wait for extruder temp
G28 W ; home all without mesh bed level
G80 ; mesh bed leveling
G1 Y-3.0 F1000.0 ; go outside print area
G92 E0.0
G1 X60.0 E9.0  F1000.0 ; intro line
M73 Q0 S9
M73 P0 R9
G1 X100.0 E12.5  F1000.0 ; intro line
G92 E0.0
M221 S95
M900 K30; Filament gcode
G21 ; set units to millimeters
G90 ; use absolute coordinates
M83 ; use relative distances for extrusion
;BEFORE_LAYER_CHANGE
G92 E0.0
;0.1


G1 E-0.80000 F2100.00000
G1 Z0.600 F10800.000
;AFTER_LAYER_CHANGE
;0.1
G1 X115.905 Y91.714
G1 Z0.100
G1 E0.80000 F2100.00000
M204 S1000
G1 F1200
G1 X116.842 Y91.009 E0.01943
G1 X117.938 Y90.514 E0.01993
G1 X119.174 Y90.271 E0.02086
G1 X130.406 Y90.252 E0.18612
G1 X131.081 Y90.297 E0.01120
G1 X131.934 Y90.476 E0.01445
G1 X133.111 Y90.982 E0.02122
G1 X134.148 Y91.765 E0.02154
G1 X135.066 Y92.936 E0.02464
G1 X140.803 Y102.970 E0.19152
G1 X141.108 Y104.007 E0.01791
G1 X141.199 Y105.132 E0.01870
G1 X141.054 Y106.252 E0.01872
G1 X140.691 Y107.291 E0.01823
G1 X134.939 Y117.276 E0.19093
G1 X134.563 Y117.788 E0.01054
G1 X133.951 Y118.419 E0.01456
G1 X132.869 Y119.154 E0.02168
G1 X131.744 Y119.581 E0.01993
G1 X130.414 Y119.751 E0.02223
G1 X119.347 Y119.745 E0.18336
G1 X118.230 Y119.575 E0.01874
G1 X117.263 Y119.217 E0.01708
G1 X116.091 Y118.455 E0.02316
G1 X115.625 Y118.004 E0.01075
G1 X115.075 Y117.298 E0.01483
G1 X109.351 Y107.377 E0.18978
G1 X108.954 Y106.285 E0.01925
G1 X108.801 Y105.129 E0.01932
G1 X108.898 Y103.974 E0.01922
G1 X109.254 Y102.834 E0.01978
G1 X115.110 Y92.654 E0.19459
G1 X115.866 Y91.760 E0.01940
G1 F8640
G1 X116.842 Y91.009 E-0.28431
G1 X117.938 Y90.514 E-0.27780
G1 X118.779 Y90.348 E-0.19788
G1 E-0.04000 F2100.00000
G1 Z0.700 F10800.000
G1 X118.120 Y90.875
G1 Z0.100
G1 E0.80000 F2100.00000
G1 F1200
G1 X119.450 Y90.655 E0.02234
G1 X130.406 Y90.651 E0.18153
G1 X131.025 Y90.691 E0.01028
G1 X131.835 Y90.862 E0.01372
G1 X132.916 Y91.329 E0.01951
G1 X133.871 Y92.052 E0.01983
G1 X134.729 Y93.148 E0.02307
G1 X140.426 Y103.100 E0.19000
G1 X140.714 Y104.071 E0.01679
G1 X140.800 Y105.119 E0.01743
G1 X140.665 Y106.165 E0.01748
G1 X140.323 Y107.138 E0.01708
G1 X134.611 Y117.049 E0.18954
G1 X133.688 Y118.119 E0.02342
G1 X132.692 Y118.797 E0.01996
G1 X131.655 Y119.192 E0.01839
G1 X130.412 Y119.353 E0.02076
G1 X119.369 Y119.347 E0.18297
G1 X118.324 Y119.188 E0.01751
G1 X117.416 Y118.849 E0.01607
G1 X116.348 Y118.150 E0.02115
G1 X115.400 Y117.066 E0.02387
G1 X109.712 Y107.208 E0.18858
G1 X109.341 Y106.191 E0.01792
G1 X109.199 Y105.122 E0.01788
G1 X109.289 Y104.051 E0.01780
G1 X109.624 Y102.985 E0.01852
G1 X115.442 Y92.874 E0.19328
G1 X116.182 Y92.000 E0.01897
G1 X117.051 Y91.349 E0.01799
G1 X118.065 Y90.899 E0.01839
G1 X118.226 Y91.262 F10800.000
G1 F1200
G1 X119.492 Y91.052 E0.02127
G1 X130.406 Y91.049 E0.18084
G1 X131.485 Y91.180 E0.01801
G1 X132.718 Y91.675 E0.02201
G1 X133.591 Y92.335 E0.01814
G1 X134.387 Y93.353 E0.02142
G1 X140.050 Y103.233 E0.18869
G1 X140.325 Y104.153 E0.01591
G1 X140.402 Y105.121 E0.01608
G1 X140.275 Y106.082 E0.01607
G1 X139.955 Y106.983 E0.01584
G1 X134.282 Y116.825 E0.18822
G1 X133.421 Y117.823 E0.02185
G1 X132.513 Y118.441 E0.01820
G1 X131.559 Y118.805 E0.01692
G1 X130.406 Y118.954 E0.01927
G1 X119.389 Y118.949 E0.18254
G1 X118.416 Y118.800 E0.01632
G1 X117.559 Y118.476 E0.01517
G1 X116.602 Y117.843 E0.01902
G1 X115.725 Y116.835 E0.02214
G1 X110.065 Y107.026 E0.18764
G1 X109.727 Y106.093 E0.01644
G1 X109.597 Y105.109 E0.01644
G1 X109.680 Y104.128 E0.01632
G1 X109.991 Y103.140 E0.01716
G1 X115.775 Y93.093 E0.19208
G1 X116.457 Y92.289 E0.01747
G1 X117.256 Y91.690 E0.01655
G1 X118.171 Y91.286 E0.01657
; PURGING FINISHED
G1 F8640
G1 X119.492 Y91.052 E-0.30980
G1 X121.441 Y91.051 E-0.45020
G1 E-0.04000 F2100.00000
G1 Z0.700 F10800.000
G1 X124.311 Y103.438
G1 Z0.100
G1 E0.80000 F2100.00000
G1 F1200
G1 X124.548 Y103.352 E0.00417
G1 X124.772 Y103.306 E0.00379
G1 X125.000 Y103.291 E0.00379
G1 X125.228 Y103.306 E0.00379
G1 X125.452 Y103.352 E0.00379
G1 X125.668 Y103.427 E0.00379
G1 X125.872 Y103.530 E0.00379
G1 X126.060 Y103.659 E0.00379
G1 X126.230 Y103.812 E0.00379
G1 X126.377 Y103.987 E0.00379
G1 X126.500 Y104.180 E0.00379
G1 X126.596 Y104.387 E0.00379
G1 X126.664 Y104.605 E0.00379
G1 X126.702 Y104.830 E0.00379
G1 X126.710 Y105.059 E0.00379
G1 X126.687 Y105.286 E0.00379
G1 X126.634 Y105.508 E0.00379
G1 X126.552 Y105.722 E0.00379
G1 X126.442 Y105.922 E0.00379
G1 X126.306 Y106.106 E0.00379
G1 X126.147 Y106.270 E0.00379
G1 X125.968 Y106.412 E0.00379
G1 X125.771 Y106.528 E0.00379
G1 X125.561 Y106.617 E0.00379
G1 X125.341 Y106.678 E0.00379
G1 X125.114 Y106.708 E0.00379
G1 X124.886 Y106.708 E0.00379
G1 X124.659 Y106.678 E0.00379
G1 X124.439 Y106.617 E0.00379
G1 X124.229 Y106.528 E0.00379
G1 X124.032 Y106.412 E0.00379
G1 X123.853 Y106.270 E0.00379
G1 X123.694 Y106.106 E0.00379
G1 X123.558 Y105.922 E0.00379
G1 X123.448 Y105.722 E0.00379
G1 X123.366 Y105.508 E0.00379
G1 X123.313 Y105.286 E0.00379
G1 X123.290 Y105.059 E0.00379
G1 X123.298 Y104.830 E0.00379
G1 X123.336 Y104.605 E0.00379
G1 X123.404 Y104.387 E0.00379
G1 X123.500 Y104.180 E0.00379
G1 X123.623 Y103.987 E0.00379
G1 X123.770 Y103.812 E0.00379
G1 X123.940 Y103.659 E0.00379
G1 X124.258 Y103.465 E0.00617
G1 X124.334 Y103.187 F10800.000
G1 X124.036 Y103.038
G1 F1200
G1 X124.312 Y102.923 E0.00496
G1 X124.767 Y102.824 E0.00771
G1 X125.229 Y102.824 E0.00765
G1 X125.463 Y102.861 E0.00393
G1 X125.688 Y102.923 E0.00386
G1 X126.112 Y103.115 E0.00771
G1 X126.306 Y103.244 E0.00386
G1 X126.648 Y103.560 E0.00771
G1 X126.915 Y103.941 E0.00771
G1 X127.096 Y104.369 E0.00771
G1 X127.183 Y104.827 E0.00771
G1 X127.170 Y105.292 E0.00771
G1 X127.060 Y105.744 E0.00771
G1 X126.856 Y106.163 E0.00771
G1 X126.722 Y106.354 E0.00386
G1 X126.398 Y106.687 E0.00771
G1 X126.010 Y106.945 E0.00771
G1 X125.576 Y107.114 E0.00771
G1 X125.117 Y107.188 E0.00771
G1 X124.652 Y107.163 E0.00771
G1 X124.203 Y107.041 E0.00771
G1 X123.790 Y106.826 E0.00771
G1 X123.602 Y106.687 E0.00386
G1 X123.280 Y106.357 E0.00765
G1 X123.144 Y106.163 E0.00393
G1 X123.031 Y105.959 E0.00386
G1 X122.873 Y105.521 E0.00771
G1 X122.811 Y105.060 E0.00771
G1 X122.817 Y104.827 E0.00386
G1 X122.904 Y104.369 E0.00771
G1 X123.085 Y103.941 E0.00771
G1 X123.350 Y103.563 E0.00765
G1 X123.515 Y103.393 E0.00393
G1 X123.694 Y103.244 E0.00386
G1 X123.983 Y103.066 E0.00562
G1 X124.286 Y103.203 F10800.000
G1 X124.092 Y103.279
G1 F1200
G1 X124.483 Y103.123 E0.00139
G1 X124.793 Y103.064 E0.00104
G1 X125.203 Y103.064 E0.00136
G1 X125.517 Y103.123 E0.00106
G1 X125.805 Y103.227 E0.00101
G1 X125.991 Y103.322 E0.00069
G1 X126.206 Y103.470 E0.00086
G1 X126.466 Y103.719 E0.00119
G1 X126.709 Y104.062 E0.00139
G1 X126.865 Y104.439 E0.00135
G1 X126.940 Y104.809 E0.00125
G1 X126.949 Y105.054 E0.00081
G1 X126.931 Y105.260 E0.00069
G1 X126.860 Y105.581 E0.00109
G1 X126.753 Y105.854 E0.00097
G1 X126.645 Y106.048 E0.00074
G1 X126.490 Y106.258 E0.00086
G1 X126.243 Y106.501 E0.00114
G1 X125.882 Y106.740 E0.00143
G1 X125.513 Y106.881 E0.00130
G1 X125.128 Y106.947 E0.00129
G1 X124.896 Y106.948 E0.00076
G1 X124.690 Y106.925 E0.00069
G1 X124.363 Y106.843 E0.00111
G1 X124.101 Y106.731 E0.00094
G1 X123.899 Y106.610 E0.00078
G1 X123.695 Y106.449 E0.00086
G1 X123.470 Y106.208 E0.00109
G1 X123.247 Y105.854 E0.00138
G1 X123.108 Y105.464 E0.00137
G1 X123.051 Y105.069 E0.00132
G1 X123.061 Y104.804 E0.00088
G1 X123.135 Y104.439 E0.00123
G1 X123.289 Y104.067 E0.00133
G1 X123.432 Y103.843 E0.00088
G1 X123.679 Y103.570 E0.00122
G1 X123.838 Y103.437 E0.00068
G1 X124.039 Y103.307 E0.00079
G1 F8640
G1 X124.483 Y103.123 E-0.11094
G1 X124.793 Y103.064 E-0.07290
G1 X125.203 Y103.064 E-0.09480
G1 X125.517 Y103.123 E-0.07376
G1 X125.805 Y103.227 E-0.07070
G1 X125.991 Y103.322 E-0.04832
G1 X126.206 Y103.470 E-0.06015
G1 X126.466 Y103.719 E-0.08306
G1 X126.709 Y104.062 E-0.09709
G1 X126.789 Y104.255 E-0.04827
G1 E-0.04000 F2100.00000
G1 Z0.700 F10800.000
G1 X129.255 Y96.917
G1 Z0.100
G1 E0.80000 F2100.00000
G1 F1200
G1 X129.096 Y96.753 E0.00379
G1 X128.961 Y96.569 E0.00379
G1 X128.851 Y96.368 E0.00379
G1 X128.769 Y96.155 E0.00379
G1 X128.716 Y95.933 E0.00379
G1 X128.693 Y95.706 E0.00379
G1 X128.700 Y95.477 E0.00379
G1 X128.738 Y95.252 E0.00379
G1 X128.806 Y95.034 E0.00379
G1 X128.902 Y94.826 E0.00379
G1 X129.025 Y94.634 E0.00379
G1 X129.173 Y94.459 E0.00379
G1 X129.342 Y94.306 E0.00379
G1 X129.531 Y94.177 E0.00379
G1 X129.735 Y94.074 E0.00379
G1 X129.950 Y93.999 E0.00379
G1 X130.174 Y93.953 E0.00379
G1 X130.402 Y93.938 E0.00379
G1 X130.630 Y93.953 E0.00379
G1 X130.854 Y93.999 E0.00379
G1 X131.070 Y94.074 E0.00379
G1 X131.274 Y94.177 E0.00379
G1 X131.462 Y94.306 E0.00379
G1 X131.632 Y94.459 E0.00379
G1 X131.779 Y94.634 E0.00379
G1 X131.902 Y94.826 E0.00379
G1 X131.999 Y95.034 E0.00379
G1 X132.066 Y95.252 E0.00379
G1 X132.104 Y95.477 E0.00379
G1 X132.112 Y95.706 E0.00379
G1 X132.089 Y95.933 E0.00379
G1 X132.036 Y96.155 E0.00379
G1 X131.954 Y96.368 E0.00379
G1 X131.844 Y96.569 E0.00379
G1 X131.709 Y96.753 E0.00379
G1 X131.550 Y96.917 E0.00379
G1 X131.370 Y97.059 E0.00379
G1 X131.174 Y97.175 E0.00379
G1 X130.963 Y97.264 E0.00379
G1 X130.743 Y97.325 E0.00379
G1 X130.517 Y97.355 E0.00379
G1 X130.288 Y97.355 E0.00379
G1 X130.062 Y97.325 E0.00379
G1 X129.841 Y97.264 E0.00379
G1 X129.631 Y97.175 E0.00379
G1 X129.434 Y97.059 E0.00379
G1 X129.302 Y96.954 E0.00279
G1 X129.038 Y96.987 F10800.000
G1 X128.976 Y97.307
G1 F1200
G1 X128.683 Y97.004 E0.00700
G1 X128.546 Y96.810 E0.00393
G1 X128.433 Y96.606 E0.00386
G1 X128.275 Y96.168 E0.00771
G1 X128.213 Y95.707 E0.00771
G1 X128.220 Y95.474 E0.00386
G1 X128.306 Y95.016 E0.00771
G1 X128.487 Y94.587 E0.00771
G1 X128.752 Y94.210 E0.00765
G1 X128.917 Y94.039 E0.00393
G1 X129.291 Y93.762 E0.00771
G1 X129.715 Y93.570 E0.00771
G1 X130.170 Y93.471 E0.00771
G1 X130.631 Y93.471 E0.00765
G1 X130.865 Y93.508 E0.00393
G1 X131.090 Y93.570 E0.00386
G1 X131.514 Y93.762 E0.00771
G1 X131.888 Y94.039 E0.00771
G1 X132.050 Y94.206 E0.00386
G1 X132.318 Y94.587 E0.00771
G1 X132.499 Y95.016 E0.00771
G1 X132.585 Y95.474 E0.00771
G1 X132.573 Y95.939 E0.00771
G1 X132.462 Y96.391 E0.00771
G1 X132.259 Y96.810 E0.00771
G1 X132.125 Y97.001 E0.00386
G1 X131.971 Y97.176 E0.00386
G1 X131.613 Y97.473 E0.00771
G1 X131.200 Y97.688 E0.00771
G1 X130.751 Y97.810 E0.00771
G1 X130.286 Y97.835 E0.00771
G1 X129.826 Y97.761 E0.00771
G1 X129.393 Y97.591 E0.00771
G1 X129.021 Y97.346 E0.00737
G1 X129.046 Y96.914 F10800.000
G1 X129.168 Y97.155
G1 F1200
G1 X128.916 Y96.909 E0.00117
G1 X128.749 Y96.682 E0.00093
G1 X128.570 Y96.309 E0.00137
G1 X128.471 Y95.907 E0.00137
G1 X128.459 Y95.493 E0.00137
G1 X128.507 Y95.194 E0.00100
G1 X128.607 Y94.891 E0.00106
G1 X128.697 Y94.704 E0.00069
G1 X128.835 Y94.490 E0.00084
G1 X129.081 Y94.217 E0.00122
G1 X129.411 Y93.969 E0.00136
G1 X129.790 Y93.799 E0.00137
G1 X130.145 Y93.716 E0.00120
G1 X130.402 Y93.698 E0.00085
G1 X130.606 Y93.710 E0.00067
G1 X130.920 Y93.770 E0.00106
G1 X131.208 Y93.874 E0.00101
G1 X131.394 Y93.969 E0.00069
G1 X131.608 Y94.117 E0.00086
G1 X131.868 Y94.366 E0.00119
G1 X132.111 Y94.709 E0.00139
G1 X132.267 Y95.086 E0.00135
G1 X132.341 Y95.451 E0.00123
G1 X132.351 Y95.700 E0.00083
G1 X132.334 Y95.907 E0.00069
G1 X132.264 Y96.223 E0.00107
G1 X132.155 Y96.501 E0.00098
G1 X131.935 Y96.852 E0.00137
G1 X131.646 Y97.148 E0.00137
G1 X131.301 Y97.378 E0.00137
G1 X131.039 Y97.490 E0.00094
G1 X130.712 Y97.572 E0.00111
G1 X130.506 Y97.595 E0.00069
G1 X130.275 Y97.594 E0.00076
G1 X129.890 Y97.528 E0.00129
G1 X129.521 Y97.387 E0.00130
G1 X129.216 Y97.192 E0.00120
G1 F8640
G1 X128.916 Y96.909 E-0.09521
G1 X128.749 Y96.682 E-0.06488
G1 X128.570 Y96.309 E-0.09558
G1 X128.471 Y95.907 E-0.09564
G1 X128.459 Y95.493 E-0.09566
G1 X128.507 Y95.194 E-0.06986
G1 X128.607 Y94.891 E-0.07375
G1 X128.697 Y94.704 E-0.04791
G1 X128.835 Y94.490 E-0.05870
G1 X129.017 Y94.288 E-0.06282
G1 E-0.04000 F2100.00000
G1 Z0.700 F10800.000
G1 X134.745 Y103.659
G1 Z0.100
G1 E0.80000 F2100.00000
G1 F1200
G1 X134.933 Y103.530 E0.00379
G1 X135.137 Y103.427 E0.00379
G1 X135.353 Y103.352 E0.00379
G1 X135.577 Y103.306 E0.00379
G1 X135.805 Y103.291 E0.00379
G1 X136.033 Y103.306 E0.00379
G1 X136.257 Y103.352 E0.00379
G1 X136.472 Y103.427 E0.00379
G1 X136.676 Y103.530 E0.00379
G1 X136.865 Y103.659 E0.00379
G1 X137.034 Y103.812 E0.00379
G1 X137.182 Y103.987 E0.00379
G1 X137.305 Y104.180 E0.00379
G1 X137.401 Y104.387 E0.00379
G1 X137.469 Y104.605 E0.00379
G1 X137.507 Y104.830 E0.00379
G1 X137.514 Y105.059 E0.00379
G1 X137.491 Y105.286 E0.00379
G1 X137.438 Y105.508 E0.00379
G1 X137.356 Y105.722 E0.00379
G1 X137.246 Y105.922 E0.00379
G1 X137.111 Y106.106 E0.00379
G1 X136.952 Y106.270 E0.00379
G1 X136.773 Y106.412 E0.00379
G1 X136.576 Y106.528 E0.00379
G1 X136.366 Y106.617 E0.00379
G1 X136.145 Y106.678 E0.00379
G1 X135.919 Y106.708 E0.00379
G1 X135.690 Y106.708 E0.00379
G1 X135.464 Y106.678 E0.00379
G1 X135.244 Y106.617 E0.00379
G1 X135.033 Y106.528 E0.00379
G1 X134.837 Y106.412 E0.00379
G1 X134.657 Y106.270 E0.00379
G1 X134.498 Y106.106 E0.00379
G1 X134.363 Y105.922 E0.00379
G1 X134.253 Y105.722 E0.00379
G1 X134.171 Y105.508 E0.00379
G1 X134.118 Y105.286 E0.00379
G1 X134.095 Y105.059 E0.00379
G1 X134.103 Y104.830 E0.00379
G1 X134.141 Y104.605 E0.00379
G1 X134.209 Y104.387 E0.00379
G1 X134.305 Y104.180 E0.00379
G1 X134.428 Y103.987 E0.00379
G1 X134.575 Y103.812 E0.00379
G1 X134.700 Y103.699 E0.00279
G1 X134.712 Y103.433 F10800.000
G1 X134.394 Y103.331
G1 F1200
G1 X134.693 Y103.115 E0.00610
G1 X135.117 Y102.923 E0.00771
G1 X135.572 Y102.824 E0.00771
G1 X136.033 Y102.824 E0.00765
G1 X136.268 Y102.861 E0.00393
G1 X136.709 Y103.008 E0.00771
G1 X137.111 Y103.244 E0.00771
G1 X137.453 Y103.560 E0.00771
G1 X137.720 Y103.941 E0.00771
G1 X137.901 Y104.369 E0.00771
G1 X137.987 Y104.827 E0.00771
G1 X137.975 Y105.292 E0.00771
G1 X137.865 Y105.744 E0.00771
G1 X137.774 Y105.959 E0.00386
G1 X137.527 Y106.354 E0.00771
G1 X137.202 Y106.687 E0.00771
G1 X137.015 Y106.826 E0.00386
G1 X136.602 Y107.041 E0.00771
G1 X136.153 Y107.163 E0.00771
G1 X135.688 Y107.188 E0.00771
G1 X135.229 Y107.114 E0.00771
G1 X134.795 Y106.945 E0.00771
G1 X134.407 Y106.687 E0.00771
G1 X134.085 Y106.357 E0.00765
G1 X133.948 Y106.163 E0.00393
G1 X133.745 Y105.744 E0.00771
G1 X133.634 Y105.292 E0.00771
G1 X133.622 Y104.827 E0.00771
G1 X133.708 Y104.369 E0.00771
G1 X133.889 Y103.941 E0.00771
G1 X134.154 Y103.563 E0.00765
G1 X134.348 Y103.369 E0.00454
G1 X134.742 Y103.453 F10800.000
G1 X134.506 Y103.551
G1 F1200
G1 X134.815 Y103.322 E0.00127
G1 X135.193 Y103.152 E0.00137
G1 X135.598 Y103.064 E0.00137
G1 X136.008 Y103.064 E0.00136
G1 X136.417 Y103.152 E0.00138
G1 X136.795 Y103.322 E0.00137
G1 X137.015 Y103.474 E0.00088
G1 X137.271 Y103.719 E0.00117
G1 X137.510 Y104.057 E0.00137
G1 X137.624 Y104.304 E0.00090
G1 X137.719 Y104.641 E0.00116
G1 X137.753 Y105.069 E0.00142
G1 X137.697 Y105.464 E0.00132
G1 X137.572 Y105.825 E0.00126
G1 X137.457 Y106.036 E0.00079
G1 X137.337 Y106.205 E0.00069
G1 X137.114 Y106.445 E0.00108
G1 X136.882 Y106.626 E0.00097
G1 X136.686 Y106.740 E0.00075
G1 X136.446 Y106.842 E0.00086
G1 X136.115 Y106.925 E0.00113
G1 X135.701 Y106.948 E0.00137
G1 X135.292 Y106.881 E0.00137
G1 X134.928 Y106.743 E0.00129
