; generated by Slic3r Prusa Edition 1.41.0+win64 on 2018-11-18 at 20:51:17

; 

; external perimeters extrusion width = 0.45mm
; perimeters extrusion width = 0.45mm
; infill extrusion width = 0.45mm
; solid infill extrusion width = 0.45mm
; top infill extrusion width = 0.40mm
; support material extrusion width = 0.35mm
; first layer extrusion width = 0.42mm

M201 X1000 Y1000 Z1000 E5000 ; sets maximum accelerations, mm/sec^2
M203 X200 Y200 Z12 E120 ; sets maximum feedrates, mm/sec
M204 P1250 R1250 T1250 ; sets acceleration (P, T) and retract acceleration (R), mm/sec^2
M205 X8.00 Y8.00 Z0.40 E1.50 ; sets the jerk limits, mm/sec
M205 S0 T0 ; sets the minimum extruding and travel feed rate, mm/sec
M107
M115 U3.4.1 ; tell printer latest fw version
M83  ; extruder relative mode
M104 S215 ; set extruder temp
M140 S65 ; set bed temp
M190 S65 ; wait for bed temp
M109 S215 ; wait for extruder temp
G28 W ; home all without mesh bed level
G80 ; mesh bed leveling
G1 Y-3.0 F1000.0 ; go outside print area
G92 E0.0
G1 X60.0 E9.0  F1000.0 ; intro line
M73 Q1 S4
M73 P1 R4
G1 X100.0 E12.5  F1000.0 ; intro line
G92 E0.0
M221 S95
M900 K30; Filament gcode
G21 ; set units to millimeters
G90 ; use absolute coordinates
M83 ; use relative distances for extrusion
;BEFORE_LAYER_CHANGE
G92 E0.0
;0.2


G1 E-0.80000 F2100.00000
G1 Z0.600 F10800.000
;AFTER_LAYER_CHANGE
;0.2
G1 X109.959 Y92.535
G1 Z0.200
G1 E0.80000 F2100.00000
M204 S1000
G1 F1200
G1 X110.909 Y91.489 E0.04432
G1 X111.795 Y90.697 E0.03725
G1 X112.810 Y89.954 E0.03944
G1 X113.870 Y89.334 E0.03850
G1 X114.919 Y88.849 E0.03625
G1 X116.107 Y88.433 E0.03946
G1 X117.289 Y88.148 E0.03812
G1 X118.482 Y87.982 E0.03777
G1 X119.606 Y87.929 E0.03528
G1 X121.201 Y88.036 E0.05013
G1 X122.719 Y88.331 E0.04847
G1 X124.187 Y88.812 E0.04844
G1 X125.706 Y89.544 E0.05285
G1 X142.461 Y99.222 E0.60670
G1 X143.435 Y99.910 E0.03737
G1 X144.313 Y100.666 E0.03634
G1 X145.143 Y101.530 E0.03756
G1 X145.802 Y102.356 E0.03313
G1 X146.552 Y103.509 E0.04315
G1 X147.091 Y104.563 E0.03709
G1 X147.545 Y105.718 E0.03893
G1 X147.851 Y106.785 E0.03481
G1 X148.075 Y107.967 E0.03773
G1 X148.179 Y109.031 E0.03352
G1 X148.185 Y110.189 E0.03630
G1 X148.065 Y111.474 E0.04046
G1 X147.849 Y112.580 E0.03533
G1 X147.491 Y113.796 E0.03975
G1 X147.034 Y114.914 E0.03786
G1 X146.448 Y116.021 E0.03927
G1 X145.775 Y117.033 E0.03810
G1 X145.015 Y117.963 E0.03766
G1 X144.119 Y118.864 E0.03987
G1 X143.200 Y119.617 E0.03723
G1 X141.848 Y120.493 E0.05051
G1 X140.325 Y121.211 E0.05279
G1 X138.583 Y121.752 E0.05721
G1 X136.909 Y122.015 E0.05312
G1 X135.819 Y122.068 E0.03422
G1 X113.351 Y122.037 E0.70445
G1 X111.951 Y121.862 E0.04425
G1 X110.705 Y121.564 E0.04015
G1 X109.427 Y121.113 E0.04250
G1 X108.234 Y120.539 E0.04150
G1 X107.085 Y119.824 E0.04245
G1 X106.055 Y119.019 E0.04099
G1 X105.106 Y118.098 E0.04147
G1 X104.270 Y117.094 E0.04095
G1 X103.277 Y115.530 E0.05809
G1 X102.565 Y113.951 E0.05433
G1 X102.091 Y112.323 E0.05314
G1 X101.835 Y110.523 E0.05701
G1 X101.830 Y108.884 E0.05139
G1 X102.050 Y107.236 E0.05214
G1 X102.547 Y105.452 E0.05807
G1 X103.225 Y103.913 E0.05271
G1 X109.100 Y93.739 E0.36839
G1 X109.924 Y92.584 E0.04447
G1 F8640
G1 X110.909 Y91.489 E-0.34014
G1 X111.795 Y90.697 E-0.27436
G1 X112.304 Y90.325 E-0.14551
G1 E-0.04000 F2100.00000
G1 Z0.800 F10800.000
G1 X131.478 Y98.464
G1 Z0.200
G1 E0.80000 F2100.00000
G1 F1200
G1 X132.710 Y98.065 E0.04059
G1 X133.995 Y97.797 E0.04115
G1 X135.842 Y97.660 E0.05806
G1 X137.692 Y97.809 E0.05821
G1 X139.152 Y98.135 E0.04689
G1 X140.401 Y98.573 E0.04151
G1 X141.479 Y99.084 E0.03740
G1 X142.491 Y99.692 E0.03701
G1 X143.433 Y100.392 E0.03681
G1 X144.300 Y101.178 E0.03671
G1 X145.136 Y102.106 E0.03914
G1 X145.853 Y103.087 E0.03810
G1 X146.456 Y104.115 E0.03737
G1 X146.954 Y105.198 E0.03737
G1 X147.348 Y106.341 E0.03791
G1 X147.625 Y107.518 E0.03790
G1 X147.780 Y108.698 E0.03732
G1 X147.818 Y109.909 E0.03797
G1 X147.734 Y111.107 E0.03768
G1 X147.530 Y112.297 E0.03783
G1 X147.209 Y113.458 E0.03778
G1 X146.770 Y114.587 E0.03800
G1 X146.214 Y115.675 E0.03830
G1 X145.550 Y116.703 E0.03838
G1 X144.776 Y117.668 E0.03878
G1 X143.931 Y118.526 E0.03774
G1 X142.993 Y119.303 E0.03821
G1 X141.899 Y120.029 E0.04114
G1 X140.475 Y120.746 E0.05000
G1 X139.209 Y121.198 E0.04215
G1 X138.012 Y121.486 E0.03862
G1 X136.786 Y121.650 E0.03877
G1 X135.547 Y121.688 E0.03888
G1 X134.401 Y121.608 E0.03600
G1 X133.251 Y121.416 E0.03655
G1 X132.131 Y121.115 E0.03638
G1 X131.117 Y120.739 E0.03391
G1 X130.396 Y120.385 E0.02518
G1 X129.711 Y120.729 E0.02406
G1 X128.552 Y121.153 E0.03869
G1 X127.342 Y121.460 E0.03914
G1 X126.037 Y121.646 E0.04133
G1 X124.890 Y121.690 E0.03597
G1 X123.748 Y121.625 E0.03589
G1 X122.548 Y121.438 E0.03806
G1 X121.384 Y121.133 E0.03775
G1 X120.252 Y120.712 E0.03787
G1 X119.591 Y120.386 E0.02310
G1 X118.938 Y120.715 E0.02291
G1 X117.716 Y121.163 E0.04083
G1 X116.439 Y121.479 E0.04124
G1 X115.193 Y121.649 E0.03943
G1 X113.949 Y121.688 E0.03902
G1 X112.744 Y121.603 E0.03787
G1 X111.562 Y121.399 E0.03761
G1 X110.425 Y121.083 E0.03702
G1 X109.375 Y120.681 E0.03524
G1 X108.369 Y120.183 E0.03520
G1 X107.314 Y119.525 E0.03899
G1 X106.340 Y118.767 E0.03868
G1 X105.444 Y117.908 E0.03891
G1 X104.643 Y116.964 E0.03884
G1 X103.911 Y115.888 E0.04079
G1 X103.353 Y114.852 E0.03690
G1 X102.903 Y113.778 E0.03652
G1 X102.496 Y112.411 E0.04471
G1 X102.256 Y111.026 E0.04408
G1 X102.180 Y109.566 E0.04584
G1 X102.231 Y108.573 E0.03117
G1 X102.365 Y107.572 E0.03166
G1 X102.732 Y106.074 E0.04838
G1 X103.097 Y105.072 E0.03342
G1 X103.548 Y104.106 E0.03342
G1 X104.152 Y103.080 E0.03734
G1 X104.845 Y102.129 E0.03690
G1 X105.732 Y101.146 E0.04150
G1 X106.674 Y100.305 E0.03958
G1 X107.612 Y99.619 E0.03645
G1 X107.626 Y99.295 E0.01018
G1 X107.800 Y98.044 E0.03959
G1 X108.089 Y96.872 E0.03786
G1 X108.483 Y95.757 E0.03707
G1 X108.995 Y94.670 E0.03767
G1 X109.626 Y93.618 E0.03848
G1 X110.363 Y92.635 E0.03853
G1 X111.178 Y91.750 E0.03772
G1 X112.083 Y90.946 E0.03795
G1 X113.074 Y90.232 E0.03830
G1 X114.129 Y89.623 E0.03817
G1 X115.229 Y89.129 E0.03783
G1 X116.362 Y88.750 E0.03746
G1 X117.527 Y88.482 E0.03748
G1 X120.138 Y88.314 E0.08204
G1 X121.702 Y88.491 E0.04935
G1 X122.941 Y88.781 E0.03990
G1 X124.138 Y89.197 E0.03973
G1 X125.236 Y89.711 E0.03800
G1 X126.293 Y90.345 E0.03865
G1 X127.319 Y91.116 E0.04022
G1 X128.192 Y91.925 E0.03734
G1 X128.958 Y92.788 E0.03618
G1 X129.638 Y93.722 E0.03621
G1 X130.236 Y94.737 E0.03695
G1 X130.744 Y95.834 E0.03790
G1 X131.140 Y96.985 E0.03816
G1 X131.465 Y98.405 E0.04569
G1 X131.153 Y99.027 F10800.000
G1 F1200
G1 X131.631 Y98.811 E0.01645
G1 X132.797 Y98.432 E0.03842
G1 X134.059 Y98.169 E0.04044
G1 X135.854 Y98.037 E0.05643
G1 X137.648 Y98.184 E0.05643
G1 X139.058 Y98.501 E0.04532
G1 X140.248 Y98.919 E0.03955
G1 X141.309 Y99.421 E0.03680
G1 X142.288 Y100.010 E0.03583
G1 X143.200 Y100.689 E0.03565
G1 X144.040 Y101.451 E0.03555
G1 X144.837 Y102.336 E0.03736
G1 X145.533 Y103.287 E0.03691
G1 X146.118 Y104.282 E0.03619
G1 X146.601 Y105.330 E0.03619
G1 X146.983 Y106.437 E0.03673
G1 X147.252 Y107.577 E0.03672
G1 X147.403 Y108.720 E0.03614
G1 X147.441 Y109.892 E0.03678
G1 X147.361 Y111.053 E0.03649
G1 X147.164 Y112.206 E0.03665
G1 X146.854 Y113.330 E0.03659
G1 X146.429 Y114.425 E0.03681
G1 X145.892 Y115.479 E0.03709
G1 X145.238 Y116.490 E0.03777
G1 X144.488 Y117.424 E0.03756
G1 X143.669 Y118.254 E0.03655
G1 X142.775 Y118.995 E0.03640
G1 X141.719 Y119.697 E0.03977
G1 X140.337 Y120.395 E0.04855
G1 X139.111 Y120.834 E0.04083
G1 X137.933 Y121.117 E0.03799
G1 X136.746 Y121.275 E0.03755
G1 X135.563 Y121.311 E0.03710
G1 X134.436 Y121.233 E0.03542
G1 X133.323 Y121.046 E0.03540
G1 X132.254 Y120.759 E0.03470
G1 X131.258 Y120.389 E0.03333
G1 X130.394 Y119.963 E0.03017
G1 X129.570 Y120.379 E0.02894
G1 X128.431 Y120.796 E0.03804
G1 X127.279 Y121.088 E0.03729
G1 X126.012 Y121.269 E0.04011
G1 X124.903 Y121.313 E0.03481
G1 X123.778 Y121.249 E0.03531
G1 X122.616 Y121.067 E0.03688
G1 X121.489 Y120.771 E0.03656
G1 X120.393 Y120.363 E0.03667
G1 X119.589 Y119.964 E0.02812
G1 X118.798 Y120.365 E0.02780
G1 X117.596 Y120.806 E0.04015
G1 X116.359 Y121.111 E0.03995
G1 X115.171 Y121.273 E0.03757
G1 X113.966 Y121.311 E0.03781
G1 X112.799 Y121.229 E0.03668
G1 X111.654 Y121.033 E0.03643
G1 X110.551 Y120.728 E0.03587
G1 X109.534 Y120.339 E0.03412
G1 X108.545 Y119.849 E0.03463
G1 X107.522 Y119.210 E0.03780
G1 X106.580 Y118.476 E0.03747
G1 X105.726 Y117.657 E0.03710
G1 X104.949 Y116.743 E0.03760
G1 X104.238 Y115.700 E0.03956
G1 X103.697 Y114.698 E0.03571
G1 X103.255 Y113.641 E0.03591
G1 X102.866 Y112.336 E0.04273
G1 X102.632 Y110.994 E0.04268
G1 X102.557 Y109.575 E0.04455
G1 X102.607 Y108.600 E0.03062
G1 X102.737 Y107.632 E0.03062
G1 X103.090 Y106.193 E0.04648
G1 X103.442 Y105.224 E0.03232
G1 X103.878 Y104.290 E0.03233
G1 X104.462 Y103.294 E0.03619
G1 X105.132 Y102.374 E0.03569
G1 X105.991 Y101.421 E0.04023
G1 X106.918 Y100.593 E0.03896
G1 X107.764 Y99.975 E0.03284
G1 X107.980 Y99.846 E0.00791
G1 X108.001 Y99.337 E0.01598
G1 X108.169 Y98.124 E0.03838
G1 X108.447 Y96.988 E0.03667
G1 X108.829 Y95.909 E0.03590
G1 X109.323 Y94.856 E0.03648
G1 X109.934 Y93.836 E0.03727
G1 X110.647 Y92.883 E0.03733
G1 X111.436 Y92.025 E0.03653
G1 X112.312 Y91.246 E0.03675
G1 X113.271 Y90.553 E0.03710
G1 X114.292 Y89.963 E0.03698
G1 X115.358 Y89.483 E0.03665
G1 X116.456 Y89.116 E0.03630
G1 X117.597 Y88.853 E0.03671
G1 X120.113 Y88.691 E0.07905
G1 X121.628 Y88.861 E0.04779
G1 X122.827 Y89.141 E0.03862
G1 X124.005 Y89.550 E0.03911
G1 X125.067 Y90.049 E0.03677
G1 X126.091 Y90.663 E0.03745
G1 X127.070 Y91.399 E0.03839
G1 X127.929 Y92.195 E0.03674
G1 X128.670 Y93.031 E0.03502
G1 X129.328 Y93.936 E0.03508
G1 X129.907 Y94.920 E0.03580
G1 X130.397 Y95.983 E0.03672
G1 X130.781 Y97.099 E0.03698
G1 X131.047 Y98.234 E0.03657
G1 X131.145 Y98.967 E0.02319
G1 X130.846 Y99.583 F10800.000
G1 F1200
G1 X131.759 Y99.166 E0.03147
G1 X132.904 Y98.794 E0.03775
G1 X134.124 Y98.541 E0.03907
G1 X135.867 Y98.414 E0.05480
G1 X137.604 Y98.558 E0.05464
G1 X138.964 Y98.866 E0.04374
G1 X140.096 Y99.264 E0.03761
G1 X141.139 Y99.757 E0.03619
G1 X142.085 Y100.328 E0.03465
G1 X142.967 Y100.986 E0.03450
G1 X143.779 Y101.724 E0.03440
G1 X144.539 Y102.567 E0.03559
G1 X145.213 Y103.486 E0.03573
G1 X145.779 Y104.449 E0.03502
G1 X146.248 Y105.462 E0.03501
G1 X146.618 Y106.533 E0.03554
G1 X146.880 Y107.636 E0.03554
G1 X147.027 Y108.742 E0.03496
G1 X147.064 Y109.876 E0.03560
G1 X146.988 Y111.000 E0.03531
G1 X146.798 Y112.115 E0.03546
G1 X146.499 Y113.203 E0.03540
G1 X146.089 Y114.263 E0.03561
G1 X145.570 Y115.282 E0.03587
G1 X144.927 Y116.277 E0.03715
G1 X144.200 Y117.180 E0.03634
G1 X143.408 Y117.982 E0.03536
G1 X142.558 Y118.687 E0.03460
G1 X141.539 Y119.366 E0.03840
G1 X140.198 Y120.044 E0.04710
G1 X139.012 Y120.470 E0.03951
G1 X137.873 Y120.745 E0.03675
G1 X136.724 Y120.899 E0.03633
G1 X135.580 Y120.934 E0.03591
G1 X134.490 Y120.859 E0.03426
G1 X133.394 Y120.676 E0.03483
G1 X132.377 Y120.402 E0.03303
G1 X131.398 Y120.039 E0.03274
G1 X130.392 Y119.541 E0.03518
G1 X129.430 Y120.028 E0.03382
G1 X128.311 Y120.439 E0.03738
G1 X127.215 Y120.716 E0.03545
G1 X125.988 Y120.893 E0.03888
G1 X124.897 Y120.936 E0.03421
G1 X123.810 Y120.873 E0.03416
G1 X122.685 Y120.696 E0.03571
G1 X121.594 Y120.409 E0.03537
G1 X120.534 Y120.013 E0.03548
G1 X119.587 Y119.542 E0.03316
G1 X118.657 Y120.015 E0.03270
G1 X117.476 Y120.448 E0.03946
G1 X116.278 Y120.742 E0.03866
G1 X115.130 Y120.898 E0.03633
G1 X113.982 Y120.934 E0.03601
G1 X112.853 Y120.856 E0.03549
G1 X111.745 Y120.666 E0.03526
G1 X110.677 Y120.373 E0.03472
G1 X109.678 Y119.990 E0.03355
G1 X108.721 Y119.516 E0.03349
G1 X107.746 Y118.907 E0.03603
G1 X106.833 Y118.196 E0.03626
G1 X106.006 Y117.405 E0.03590
G1 X105.255 Y116.522 E0.03636
G1 X104.565 Y115.513 E0.03833
G1 X104.033 Y114.527 E0.03510
G1 X103.607 Y113.506 E0.03471
G1 X103.230 Y112.239 E0.04144
G1 X103.008 Y110.963 E0.04060
G1 X102.934 Y109.585 E0.04328
G1 X102.982 Y108.643 E0.02957
G1 X103.109 Y107.693 E0.03006
G1 X103.448 Y106.312 E0.04458
G1 X103.787 Y105.376 E0.03123
G1 X104.208 Y104.472 E0.03124
G1 X104.773 Y103.508 E0.03503
G1 X105.431 Y102.604 E0.03508
G1 X106.264 Y101.681 E0.03898
G1 X107.148 Y100.892 E0.03714
G1 X107.978 Y100.286 E0.03224
G1 X108.349 Y100.067 E0.01350
G1 X108.376 Y99.379 E0.02159
G1 X108.537 Y98.204 E0.03718
G1 X108.806 Y97.105 E0.03549
G1 X109.174 Y96.060 E0.03472
G1 X109.652 Y95.041 E0.03529
G1 X110.242 Y94.054 E0.03607
G1 X110.932 Y93.131 E0.03613
G1 X111.694 Y92.300 E0.03534
G1 X112.541 Y91.546 E0.03556
G1 X113.469 Y90.875 E0.03590
G1 X114.456 Y90.303 E0.03578
G1 X115.487 Y89.838 E0.03545
G1 X116.567 Y89.476 E0.03571
G1 X117.666 Y89.224 E0.03537
G1 X120.088 Y89.068 E0.07607
G1 X121.553 Y89.231 E0.04623
G1 X122.732 Y89.505 E0.03795
G1 X123.872 Y89.903 E0.03785
G1 X124.897 Y90.386 E0.03555
G1 X125.888 Y90.981 E0.03625
G1 X126.820 Y91.682 E0.03656
G1 X127.666 Y92.465 E0.03614
G1 X128.381 Y93.274 E0.03386
G1 X129.007 Y94.135 E0.03338
G1 X129.577 Y95.103 E0.03522
G1 X130.044 Y96.115 E0.03494
G1 X130.421 Y97.212 E0.03638
G1 X130.678 Y98.311 E0.03537
G1 X130.838 Y99.524 E0.03837
G1 X130.465 Y100.174 F10800.000
G1 F1200
G1 X131.886 Y99.521 E0.04902
G1 X133.010 Y99.156 E0.03707
G1 X134.164 Y98.916 E0.03695
G1 X135.850 Y98.791 E0.05302
G1 X137.559 Y98.933 E0.05375
G1 X138.870 Y99.231 E0.04215
G1 X139.943 Y99.609 E0.03568
G1 X140.969 Y100.094 E0.03558
G1 X141.882 Y100.646 E0.03346
G1 X142.734 Y101.282 E0.03334
G1 X143.518 Y101.996 E0.03324
G1 X144.241 Y102.798 E0.03384
G1 X144.893 Y103.686 E0.03455
G1 X145.441 Y104.616 E0.03384
G1 X145.895 Y105.595 E0.03383
G1 X146.254 Y106.630 E0.03435
G1 X146.507 Y107.696 E0.03435
G1 X146.650 Y108.764 E0.03378
G1 X146.687 Y109.861 E0.03441
G1 X146.614 Y110.946 E0.03411
G1 X146.428 Y112.042 E0.03486
G1 X146.138 Y113.094 E0.03420
G1 X145.741 Y114.117 E0.03442
G1 X145.239 Y115.102 E0.03467
G1 X144.616 Y116.064 E0.03592
G1 X143.913 Y116.936 E0.03512
G1 X143.146 Y117.710 E0.03416
G1 X142.325 Y118.390 E0.03342
G1 X141.358 Y119.035 E0.03644
G1 X140.060 Y119.693 E0.04565
G1 X138.914 Y120.106 E0.03818
G1 X137.813 Y120.372 E0.03552
G1 X136.703 Y120.522 E0.03512
G1 X135.596 Y120.557 E0.03472
G1 X134.525 Y120.484 E0.03366
G1 X133.466 Y120.305 E0.03367
G1 X132.484 Y120.040 E0.03190
G1 X131.539 Y119.689 E0.03161
G1 X130.390 Y119.119 E0.04020
G1 X129.290 Y119.678 E0.03870
G1 X128.190 Y120.081 E0.03671
G1 X127.132 Y120.348 E0.03422
G1 X125.963 Y120.517 E0.03705
G1 X124.910 Y120.559 E0.03305
G1 X123.841 Y120.497 E0.03357
G1 X122.753 Y120.325 E0.03452
G1 X121.699 Y120.047 E0.03418
G1 X120.675 Y119.663 E0.03428
G1 X119.585 Y119.120 E0.03820
G1 X118.517 Y119.665 E0.03760
G1 X117.356 Y120.090 E0.03877
G1 X116.199 Y120.374 E0.03736
G1 X115.108 Y120.521 E0.03450
G1 X113.998 Y120.558 E0.03482
G1 X112.907 Y120.483 E0.03431
G1 X111.835 Y120.300 E0.03408
G1 X110.803 Y120.017 E0.03357
G1 X109.837 Y119.648 E0.03241
G1 X108.896 Y119.182 E0.03291
G1 X107.955 Y118.592 E0.03484
G1 X107.073 Y117.905 E0.03506
G1 X106.287 Y117.153 E0.03411
G1 X105.560 Y116.301 E0.03512
G1 X104.892 Y115.324 E0.03709
G1 X104.378 Y114.373 E0.03390
G1 X103.959 Y113.370 E0.03410
G1 X103.600 Y112.163 E0.03948
G1 X103.384 Y110.931 E0.03921
G1 X103.311 Y109.594 E0.04199
G1 X103.358 Y108.670 E0.02901
G1 X103.482 Y107.753 E0.02901
G1 X103.806 Y106.431 E0.04269
G1 X104.133 Y105.527 E0.03013
G1 X104.538 Y104.655 E0.03015
G1 X105.083 Y103.723 E0.03386
G1 X105.730 Y102.834 E0.03446
G1 X106.537 Y101.941 E0.03772
G1 X107.377 Y101.191 E0.03532
G1 X108.192 Y100.596 E0.03164
G1 X108.718 Y100.288 E0.01910
G1 X108.751 Y99.421 E0.02722
G1 X108.906 Y98.284 E0.03596
G1 X109.170 Y97.203 E0.03489
G1 X109.520 Y96.211 E0.03297
G1 X109.980 Y95.226 E0.03410
G1 X110.550 Y94.271 E0.03486
G1 X111.216 Y93.378 E0.03493
G1 X111.952 Y92.575 E0.03415
G1 X112.770 Y91.846 E0.03436
G1 X113.666 Y91.196 E0.03470
G1 X114.620 Y90.642 E0.03459
G1 X115.616 Y90.192 E0.03426
G1 X116.660 Y89.842 E0.03454
G1 X117.736 Y89.595 E0.03460
G1 X120.063 Y89.444 E0.07311
G1 X121.479 Y89.601 E0.04467
G1 X122.617 Y89.865 E0.03665
