; generated by Slic3r Prusa Edition 1.41.0+win64 on 2018-12-01 at 13:42:54

; 

; external perimeters extrusion width = 0.45mm
; perimeters extrusion width = 0.45mm
; infill extrusion width = 0.45mm
; solid infill extrusion width = 0.45mm
; top infill extrusion width = 0.40mm
; support material extrusion width = 0.35mm
; first layer extrusion width = 0.42mm

M201 X1000 Y1000 Z1000 E5000 ; sets maximum accelerations, mm/sec^2
M203 X200 Y200 Z12 E120 ; sets maximum feedrates, mm/sec
M204 P1250 R1250 T1250 ; sets acceleration (P, T) and retract acceleration (R), mm/sec^2
M205 X8.00 Y8.00 Z0.40 E1.50 ; sets the jerk limits, mm/sec
M205 S0 T0 ; sets the minimum extruding and travel feed rate, mm/sec
M107
M115 U3.4.1 ; tell printer latest fw version
M83  ; extruder relative mode
M104 S215 ; set extruder temp
M140 S65 ; set bed temp
M190 S65 ; wait for bed temp
M109 S215 ; wait for extruder temp
G28 W ; home all without mesh bed level
G80 ; mesh bed leveling
G1 Y-3.0 F1000.0 ; go outside print area
G92 E0.0
G1 X60.0 E9.0  F1000.0 ; intro line
M73 Q0 S300
M73 P0 R295
G1 X100.0 E12.5  F1000.0 ; intro line
G92 E0.0
M221 S95
M900 K30; Filament gcode
G21 ; set units to millimeters
G90 ; use absolute coordinates
M83 ; use relative distances for extrusion
;BEFORE_LAYER_CHANGE
G92 E0.0
;0.2


G1 E-0.80000 F2100.00000
G1 Z0.600 F10800.000
;AFTER_LAYER_CHANGE
;0.2
G1 X9.254 Y76.028
G1 Z0.200
G1 E0.80000 F2100.00000
M204 S1000
G1 F1200
G1 X9.573 Y75.522 E0.01873
G1 X10.017 Y75.122 E0.01873
G1 X87.550 Y22.882 E2.93131
G1 X88.119 Y22.620 E0.01964
G1 X88.738 Y22.529 E0.01964
G1 X236.846 Y22.529 E4.64380
G1 X237.676 Y22.694 E0.02653
G1 X238.384 Y23.164 E0.02664
G1 X238.858 Y23.865 E0.02653
G1 X239.031 Y24.697 E0.02664
G1 X239.031 Y164.658 E4.38837
G1 X238.960 Y165.193 E0.01692
G1 X238.762 Y165.694 E0.01692
G1 X238.449 Y166.129 E0.01680
G1 X238.036 Y166.477 E0.01692
G1 X237.610 Y166.693 E0.01498
G1 X237.147 Y166.810 E0.01498
G1 X88.193 Y187.458 E4.71500
G1 X49.384 Y187.470 E1.21681
G1 X48.523 Y187.265 E0.02777
G1 X47.811 Y186.732 E0.02788
G1 X25.250 Y160.188 E1.09228
G1 X24.953 Y159.489 E0.02383
G1 X9.097 Y90.360 E2.22377
G1 X9.059 Y76.910 E0.42171
G1 X9.241 Y76.086 E0.02645
; PURGING FINISHED
G1 F8640
G1 X9.573 Y75.522 E-0.15108
G1 X10.017 Y75.122 E-0.13797
G1 X11.708 Y73.982 E-0.47095
G1 E-0.04000 F2100.00000
G1 Z0.800 F10800.000
G1 X97.055 Y63.036
G1 Z0.200
G1 E0.80000 F2100.00000
G1 F1200
G1 X97.055 Y30.965 E1.00557
G1 X98.399 Y29.621 E0.05959
G1 X227.185 Y29.621 E4.03801
G1 X228.529 Y30.965 E0.05959
G1 X228.529 Y63.036 E1.00557
G1 X227.185 Y64.380 E0.05959
G1 X98.399 Y64.380 E4.03801
G1 X97.098 Y63.079 E0.05771
G1 X97.432 Y62.880 F10800.000
G1 F1200
G1 X97.432 Y31.121 E0.99578
G1 X98.555 Y29.998 E0.04980
G1 X227.029 Y29.998 E4.02821
M73 Q0 S299
M73 P0 R294
G1 X228.152 Y31.121 E0.04980
G1 X228.152 Y62.880 E0.99578
G1 X227.029 Y64.003 E0.04980
G1 X98.555 Y64.003 E4.02821
G1 X97.475 Y62.923 E0.04792
G1 X97.032 Y62.879 F10800.000
G1 F8640
G1 X97.470 Y59.631 E-0.76000
G1 E-0.04000 F2100.00000
G1 Z0.800 F10800.000
G1 X231.355 Y30.324
G1 Z0.200
G1 E0.80000 F2100.00000
G1 F1200
G1 X231.355 Y63.678 E1.04579
G1 X236.255 Y62.178 E0.16067
G1 X236.255 Y68.490 E0.19793
G1 X232.060 Y67.206 E0.13756
G1 X93.524 Y67.206 E4.34369
G1 X89.329 Y68.490 E0.13756
G1 X89.329 Y62.178 E0.19793
G1 X94.229 Y63.678 E0.16067
G1 X94.229 Y30.324 E1.04579
G1 X89.329 Y31.824 E0.16067
G1 X89.329 Y25.511 E0.19793
G1 X93.524 Y26.795 E0.13756
G1 X232.060 Y26.795 E4.34369
G1 X236.255 Y25.511 E0.13756
G1 X236.255 Y31.824 E0.19793
G1 X231.413 Y30.341 E0.15879
G1 X231.732 Y30.833 F10800.000
G1 F1200
G1 X231.732 Y63.168 E1.01382
G1 X236.632 Y61.668 E0.16067
G1 X236.632 Y69.000 E0.22990
G1 X232.004 Y67.583 E0.15178
G1 X93.581 Y67.583 E4.34015
G1 X88.952 Y69.000 E0.15178
G1 X88.952 Y61.668 E0.22990
G1 X93.852 Y63.168 E0.16067
G1 X93.852 Y30.833 E1.01382
G1 X88.952 Y32.333 E0.16067
G1 X88.952 Y25.001 E0.22990
G1 X93.581 Y26.418 E0.15178
G1 X232.004 Y26.418 E4.34015
G1 X236.632 Y25.001 E0.15178
G1 X236.632 Y32.333 E0.22990
G1 X231.790 Y30.851 E0.15879
G1 X231.349 Y30.948 F10800.000
G1 F8640
G1 X231.784 Y34.142 E-0.76000
G1 E-0.04000 F2100.00000
G1 Z0.800 F10800.000
G1 X231.242 Y33.795
G1 Z0.200
G1 E0.80000 F2100.00000
G1 F1200
G1 X228.812 Y31.365 E0.10783
G1 X228.812 Y31.899 E0.01675
G1 X231.072 Y34.159 E0.10030
G1 X231.072 Y34.693 E0.01675
G1 X228.812 Y32.433 E0.10030
G1 X228.812 Y32.966 E0.01675
G1 X231.072 Y35.227 E0.10030
G1 X231.072 Y35.760 E0.01675
G1 X228.812 Y33.500 E0.10030
G1 X228.812 Y34.034 E0.01675
G1 X231.072 Y36.294 E0.10030
G1 X231.072 Y36.828 E0.01675
G1 X228.812 Y34.567 E0.10030
G1 X228.812 Y35.101 E0.01675
G1 X231.072 Y37.361 E0.10030
G1 X231.072 Y37.895 E0.01675
G1 X228.812 Y35.635 E0.10030
G1 X228.812 Y36.168 E0.01675
G1 X231.072 Y38.429 E0.10030
G1 X231.072 Y38.962 E0.01675
G1 X228.812 Y36.702 E0.10030
G1 X228.812 Y37.236 E0.01675
G1 X231.072 Y39.496 E0.10030
G1 X231.072 Y40.030 E0.01675
G1 X228.812 Y37.770 E0.10030
G1 X228.812 Y38.303 E0.01675
G1 X231.072 Y40.564 E0.10030
G1 X231.072 Y41.097 E0.01675
G1 X228.812 Y38.837 E0.10030
G1 X228.812 Y39.371 E0.01675
G1 X231.072 Y41.631 E0.10030
G1 X231.072 Y42.165 E0.01675
G1 X228.812 Y39.904 E0.10030
G1 X228.812 Y40.438 E0.01675
G1 X231.072 Y42.698 E0.10030
G1 X231.072 Y43.232 E0.01675
G1 X228.812 Y40.972 E0.10030
G1 X228.812 Y41.505 E0.01675
G1 X231.072 Y43.766 E0.10030
G1 X231.072 Y44.299 E0.01675
G1 X228.812 Y42.039 E0.10030
G1 X228.812 Y42.573 E0.01675
G1 X231.072 Y44.833 E0.10030
G1 X231.072 Y45.367 E0.01675
G1 X228.812 Y43.107 E0.10030
G1 X228.812 Y43.640 E0.01675
G1 X231.072 Y45.901 E0.10030
G1 X231.072 Y46.434 E0.01675
G1 X228.812 Y44.174 E0.10030
G1 X228.812 Y44.708 E0.01675
G1 X231.072 Y46.968 E0.10030
G1 X231.072 Y47.502 E0.01675
G1 X228.812 Y45.241 E0.10030
G1 X228.812 Y45.775 E0.01675
G1 X231.072 Y48.035 E0.10030
G1 X231.072 Y48.569 E0.01675
G1 X228.812 Y46.309 E0.10030
G1 X228.812 Y46.842 E0.01675
G1 X231.072 Y49.103 E0.10030
G1 X231.072 Y49.636 E0.01675
G1 X228.812 Y47.376 E0.10030
G1 X228.812 Y47.910 E0.01675
G1 X231.072 Y50.170 E0.10030
G1 X231.072 Y50.704 E0.01675
G1 X228.812 Y48.443 E0.10030
G1 X228.812 Y48.977 E0.01675
G1 X231.072 Y51.237 E0.10030
G1 X231.072 Y51.771 E0.01675
G1 X228.812 Y49.511 E0.10030
G1 X228.812 Y50.045 E0.01675
G1 X231.072 Y52.305 E0.10030
G1 X231.072 Y52.839 E0.01675
G1 X228.812 Y50.578 E0.10030
G1 X228.812 Y51.112 E0.01675
G1 X231.072 Y53.372 E0.10030
G1 X231.072 Y53.906 E0.01675
G1 X228.812 Y51.646 E0.10030
G1 X228.812 Y52.179 E0.01675
G1 X231.072 Y54.440 E0.10030
G1 X231.072 Y54.973 E0.01675
G1 X228.812 Y52.713 E0.10030
G1 X228.812 Y53.247 E0.01675
G1 X231.072 Y55.507 E0.10030
G1 X231.072 Y56.041 E0.01675
G1 X228.812 Y53.780 E0.10030
G1 X228.812 Y54.314 E0.01675
G1 X231.072 Y56.574 E0.10030
M73 Q0 S298
G1 X231.072 Y57.108 E0.01675
G1 X228.812 Y54.848 E0.10030
G1 X228.812 Y55.381 E0.01675
G1 X231.072 Y57.642 E0.10030
M73 P0 R293
G1 X231.072 Y58.175 E0.01675
G1 X228.812 Y55.915 E0.10030
G1 X228.812 Y56.449 E0.01675
G1 X231.072 Y58.709 E0.10030
G1 X231.072 Y59.243 E0.01675
G1 X228.812 Y56.983 E0.10030
G1 X228.812 Y57.516 E0.01675
G1 X231.072 Y59.777 E0.10030
G1 X231.072 Y60.310 E0.01675
G1 X228.812 Y58.050 E0.10030
G1 X228.812 Y58.584 E0.01675
G1 X231.072 Y60.844 E0.10030
G1 X231.072 Y61.378 E0.01675
G1 X228.812 Y59.117 E0.10030
G1 X228.812 Y59.651 E0.01675
G1 X231.072 Y61.911 E0.10030
G1 X231.072 Y62.445 E0.01675
G1 X228.812 Y60.185 E0.10030
G1 X228.812 Y60.718 E0.01675
G1 X231.072 Y62.979 E0.10030
G1 X231.072 Y63.512 E0.01675
G1 X228.812 Y61.252 E0.10030
G1 X228.812 Y61.786 E0.01675
G1 X234.765 Y67.738 E0.26415
G1 X235.534 Y67.974 E0.02524
G1 X231.492 Y63.932 E0.17937
G1 X231.900 Y63.807 E0.01341
G1 X235.972 Y67.879 E0.18071
G1 X235.972 Y67.345 E0.01675
G1 X232.309 Y63.682 E0.16258
G1 X232.717 Y63.556 E0.01341
G1 X235.972 Y66.811 E0.14444
G1 X235.972 Y66.278 E0.01675
G1 X233.126 Y63.431 E0.12631
G1 X233.535 Y63.306 E0.01341
G1 X235.972 Y65.744 E0.10818
G1 X235.972 Y65.210 E0.01675
G1 X233.943 Y63.181 E0.09004
G1 X234.352 Y63.056 E0.01341
G1 X235.972 Y64.677 E0.07191
G1 X235.972 Y64.143 E0.01675
G1 X234.761 Y62.931 E0.05378
G1 X235.169 Y62.806 E0.01341
G1 X235.972 Y63.609 E0.03565
G1 X235.972 Y63.075 E0.01675
G1 X235.442 Y62.545 E0.02354
G1 F8640
G1 X235.972 Y63.075 E-0.17323
G1 X235.972 Y63.609 E-0.12323
G1 X235.169 Y62.806 E-0.26230
G1 X234.761 Y62.931 E-0.09867
G1 X235.075 Y63.245 E-0.10257
G1 E-0.04000 F2100.00000
G1 Z0.800 F10800.000
G1 X234.251 Y67.759
G1 Z0.200
G1 E0.80000 F2100.00000
G1 F1200
G1 X228.812 Y62.320 E0.24137
G1 X228.812 Y62.853 E0.01675
G1 X233.226 Y67.267 E0.19589
G1 X232.457 Y67.032 E0.02524
G1 X228.695 Y63.270 E0.16693
G1 X228.429 Y63.537 E0.01184
G1 X231.815 Y66.923 E0.15027
G1 X231.281 Y66.923 E0.01675
G1 X228.162 Y63.804 E0.13843
G1 X227.895 Y64.071 E0.01184
G1 X230.747 Y66.923 E0.12659
G1 X230.214 Y66.923 E0.01675
G1 X227.628 Y64.338 E0.11475
G1 X227.361 Y64.604 E0.01184
G1 X229.680 Y66.923 E0.10290
G1 X229.146 Y66.923 E0.01675
G1 X226.886 Y64.663 E0.10030
G1 X226.352 Y64.663 E0.01675
G1 X228.613 Y66.923 E0.10030
G1 X228.079 Y66.923 E0.01675
G1 X225.819 Y64.663 E0.10030
G1 X225.285 Y64.663 E0.01675
G1 X227.545 Y66.923 E0.10030
G1 X227.012 Y66.923 E0.01675
G1 X224.751 Y64.663 E0.10030
G1 X224.218 Y64.663 E0.01675
G1 X226.478 Y66.923 E0.10030
G1 X225.944 Y66.923 E0.01675
G1 X223.684 Y64.663 E0.10030
G1 X223.150 Y64.663 E0.01675
G1 X225.410 Y66.923 E0.10030
G1 X224.877 Y66.923 E0.01675
G1 X222.617 Y64.663 E0.10030
G1 X222.083 Y64.663 E0.01675
G1 X224.343 Y66.923 E0.10030
G1 X223.809 Y66.923 E0.01675
G1 X221.549 Y64.663 E0.10030
G1 X221.015 Y64.663 E0.01675
G1 X223.276 Y66.923 E0.10030
G1 X222.742 Y66.923 E0.01675
G1 X220.482 Y64.663 E0.10030
G1 X219.948 Y64.663 E0.01675
G1 X222.208 Y66.923 E0.10030
G1 X221.675 Y66.923 E0.01675
G1 X219.414 Y64.663 E0.10030
G1 X218.881 Y64.663 E0.01675
G1 X221.141 Y66.923 E0.10030
G1 X220.607 Y66.923 E0.01675
G1 X218.347 Y64.663 E0.10030
G1 X217.813 Y64.663 E0.01675
G1 X220.074 Y66.923 E0.10030
G1 X219.540 Y66.923 E0.01675
G1 X217.280 Y64.663 E0.10030
G1 X216.746 Y64.663 E0.01675
G1 X219.006 Y66.923 E0.10030
G1 X218.472 Y66.923 E0.01675
G1 X216.212 Y64.663 E0.10030
G1 X215.678 Y64.663 E0.01675
G1 X217.939 Y66.923 E0.10030
G1 X217.405 Y66.923 E0.01675
G1 X215.145 Y64.663 E0.10030
G1 X214.611 Y64.663 E0.01675
G1 X216.871 Y66.923 E0.10030
G1 X216.338 Y66.923 E0.01675
G1 X214.077 Y64.663 E0.10030
G1 X213.544 Y64.663 E0.01675
G1 X215.804 Y66.923 E0.10030
G1 X215.270 Y66.923 E0.01675
G1 X213.010 Y64.663 E0.10030
G1 X212.476 Y64.663 E0.01675
G1 X214.737 Y66.923 E0.10030
G1 X214.203 Y66.923 E0.01675
G1 X211.943 Y64.663 E0.10030
G1 X211.409 Y64.663 E0.01675
G1 X213.669 Y66.923 E0.10030
G1 X213.136 Y66.923 E0.01675
G1 X210.875 Y64.663 E0.10030
G1 X210.342 Y64.663 E0.01675
G1 X212.602 Y66.923 E0.10030
G1 X212.068 Y66.923 E0.01675
G1 X209.808 Y64.663 E0.10030
G1 X209.274 Y64.663 E0.01675
G1 X211.534 Y66.923 E0.10030
G1 X211.001 Y66.923 E0.01675
G1 X208.740 Y64.663 E0.10030
G1 X208.207 Y64.663 E0.01675
G1 X210.467 Y66.923 E0.10030
G1 X209.933 Y66.923 E0.01675
G1 X207.673 Y64.663 E0.10030
G1 X207.139 Y64.663 E0.01675
G1 X209.400 Y66.923 E0.10030
G1 X208.866 Y66.923 E0.01675
G1 X206.606 Y64.663 E0.10030
G1 X206.072 Y64.663 E0.01675
G1 X208.332 Y66.923 E0.10030
G1 X207.799 Y66.923 E0.01675
G1 X205.538 Y64.663 E0.10030
G1 X205.005 Y64.663 E0.01675
G1 X207.265 Y66.923 E0.10030
G1 X206.731 Y66.923 E0.01675
G1 X204.471 Y64.663 E0.10030
G1 X203.937 Y64.663 E0.01675
G1 X206.197 Y66.923 E0.10030
G1 X205.664 Y66.923 E0.01675
G1 X203.404 Y64.663 E0.10030
G1 X202.870 Y64.663 E0.01675
G1 X205.130 Y66.923 E0.10030
G1 X204.596 Y66.923 E0.01675
G1 X202.336 Y64.663 E0.10030
G1 X201.802 Y64.663 E0.01675
G1 X204.063 Y66.923 E0.10030
G1 X203.529 Y66.923 E0.01675
G1 X201.269 Y64.663 E0.10030
G1 X200.735 Y64.663 E0.01675
G1 X202.995 Y66.923 E0.10030
G1 X202.462 Y66.923 E0.01675
G1 X200.201 Y64.663 E0.10030
G1 X199.668 Y64.663 E0.01675
G1 X201.928 Y66.923 E0.10030
G1 X201.394 Y66.923 E0.01675
G1 X199.134 Y64.663 E0.10030
G1 X198.600 Y64.663 E0.01675
G1 X200.861 Y66.923 E0.10030
G1 X200.327 Y66.923 E0.01675
G1 X198.067 Y64.663 E0.10030
G1 X197.533 Y64.663 E0.01675
G1 X199.793 Y66.923 E0.10030
G1 X199.259 Y66.923 E0.01675
G1 X196.999 Y64.663 E0.10030
G1 X196.465 Y64.663 E0.01675
G1 X198.726 Y66.923 E0.10030
G1 X198.192 Y66.923 E0.01675
G1 X195.932 Y64.663 E0.10030
G1 X195.398 Y64.663 E0.01675
G1 X197.658 Y66.923 E0.10030
G1 X197.125 Y66.923 E0.01675
G1 X194.864 Y64.663 E0.10030
G1 X194.331 Y64.663 E0.01675
G1 X196.591 Y66.923 E0.10030
G1 X196.057 Y66.923 E0.01675
G1 X193.797 Y64.663 E0.10030
G1 X193.263 Y64.663 E0.01675
G1 X195.524 Y66.923 E0.10030
G1 X194.990 Y66.923 E0.01675
G1 X192.730 Y64.663 E0.10030
G1 X192.196 Y64.663 E0.01675
G1 X194.456 Y66.923 E0.10030
G1 X193.923 Y66.923 E0.01675
G1 X191.662 Y64.663 E0.10030
G1 X191.129 Y64.663 E0.01675
G1 X193.389 Y66.923 E0.10030
G1 X192.855 Y66.923 E0.01675
G1 X190.595 Y64.663 E0.10030
G1 X190.061 Y64.663 E0.01675
G1 X192.321 Y66.923 E0.10030
G1 X191.788 Y66.923 E0.01675
G1 X189.527 Y64.663 E0.10030
G1 X188.994 Y64.663 E0.01675
G1 X191.254 Y66.923 E0.10030
G1 X190.720 Y66.923 E0.01675
G1 X188.460 Y64.663 E0.10030
G1 X187.926 Y64.663 E0.01675
G1 X190.187 Y66.923 E0.10030
G1 X189.653 Y66.923 E0.01675
G1 X187.393 Y64.663 E0.10030
G1 X186.859 Y64.663 E0.01675
G1 X189.119 Y66.923 E0.10030
G1 X188.586 Y66.923 E0.01675
G1 X186.325 Y64.663 E0.10030
G1 X185.792 Y64.663 E0.01675
G1 X188.052 Y66.923 E0.10030
G1 X187.518 Y66.923 E0.01675
G1 X185.258 Y64.663 E0.10030
G1 X184.724 Y64.663 E0.01675
G1 X186.984 Y66.923 E0.10030
G1 X186.451 Y66.923 E0.01675
G1 X184.191 Y64.663 E0.10030
G1 X183.657 Y64.663 E0.01675
G1 X185.917 Y66.923 E0.10030
G1 X185.383 Y66.923 E0.01675
G1 X183.123 Y64.663 E0.10030
G1 X182.589 Y64.663 E0.01675
G1 X184.850 Y66.923 E0.10030
G1 X184.316 Y66.923 E0.01675
G1 X182.056 Y64.663 E0.10030
G1 X181.522 Y64.663 E0.01675
G1 X183.782 Y66.923 E0.10030
G1 X183.249 Y66.923 E0.01675
G1 X180.988 Y64.663 E0.10030
G1 X180.455 Y64.663 E0.01675
G1 X182.715 Y66.923 E0.10030
G1 X182.181 Y66.923 E0.01675
G1 X179.921 Y64.663 E0.10030
G1 X179.387 Y64.663 E0.01675
G1 X181.648 Y66.923 E0.10030
G1 X181.114 Y66.923 E0.01675
G1 X178.854 Y64.663 E0.10030
G1 X178.320 Y64.663 E0.01675
G1 X180.580 Y66.923 E0.10030
G1 X180.046 Y66.923 E0.01675
G1 X177.786 Y64.663 E0.10030
G1 X177.252 Y64.663 E0.01675
G1 X179.513 Y66.923 E0.10030
G1 X178.979 Y66.923 E0.01675
G1 X176.719 Y64.663 E0.10030
G1 X176.185 Y64.663 E0.01675
G1 X178.445 Y66.923 E0.10030
G1 X177.912 Y66.923 E0.01675
G1 X175.651 Y64.663 E0.10030
G1 X175.118 Y64.663 E0.01675
G1 X177.378 Y66.923 E0.10030
G1 X176.844 Y66.923 E0.01675
G1 X174.584 Y64.663 E0.10030
G1 X174.050 Y64.663 E0.01675
G1 X176.311 Y66.923 E0.10030
G1 X175.777 Y66.923 E0.01675
G1 X173.517 Y64.663 E0.10030
G1 X172.983 Y64.663 E0.01675
G1 X175.243 Y66.923 E0.10030
G1 X174.710 Y66.923 E0.01675
G1 X172.449 Y64.663 E0.10030
G1 X171.916 Y64.663 E0.01675
G1 X174.176 Y66.923 E0.10030
G1 X173.642 Y66.923 E0.01675
G1 X171.382 Y64.663 E0.10030
G1 X170.848 Y64.663 E0.01675
G1 X173.108 Y66.923 E0.10030
G1 X172.575 Y66.923 E0.01675
G1 X170.314 Y64.663 E0.10030
G1 X169.781 Y64.663 E0.01675
G1 X172.041 Y66.923 E0.10030
G1 X171.507 Y66.923 E0.01675
G1 X169.247 Y64.663 E0.10030
G1 X168.713 Y64.663 E0.01675
G1 X170.974 Y66.923 E0.10030
G1 X170.440 Y66.923 E0.01675
G1 X168.180 Y64.663 E0.10030
G1 X167.646 Y64.663 E0.01675
G1 X169.906 Y66.923 E0.10030
G1 X169.373 Y66.923 E0.01675
G1 X167.112 Y64.663 E0.10030
G1 X166.579 Y64.663 E0.01675
G1 X168.839 Y66.923 E0.10030
G1 X168.305 Y66.923 E0.01675
G1 X166.045 Y64.663 E0.10030
G1 X165.511 Y64.663 E0.01675
G1 X167.771 Y66.923 E0.10030
G1 X167.238 Y66.923 E0.01675
G1 X164.978 Y64.663 E0.10030
G1 X164.444 Y64.663 E0.01675
G1 X166.704 Y66.923 E0.10030
G1 X166.170 Y66.923 E0.01675
G1 X163.910 Y64.663 E0.10030
G1 X163.376 Y64.663 E0.01675
G1 X165.637 Y66.923 E0.10030
G1 X165.103 Y66.923 E0.01675
G1 X162.843 Y64.663 E0.10030
G1 X162.309 Y64.663 E0.01675
