; generated by Slic3r Prusa Edition 1.41.0+win64 on 2018-11-05 at 21:49:35

; 

; external perimeters extrusion width = 0.45mm
; perimeters extrusion width = 0.45mm
; infill extrusion width = 0.45mm
; solid infill extrusion width = 0.45mm
; top infill extrusion width = 0.40mm
; support material extrusion width = 0.35mm
; first layer extrusion width = 0.42mm

M201 X1000 Y1000 Z1000 E5000 ; sets maximum accelerations, mm/sec^2
M203 X200 Y200 Z12 E120 ; sets maximum feedrates, mm/sec
M204 P1250 R1250 T1250 ; sets acceleration (P, T) and retract acceleration (R), mm/sec^2
M205 X8.00 Y8.00 Z0.40 E1.50 ; sets the jerk limits, mm/sec
M205 S0 T0 ; sets the minimum extruding and travel feed rate, mm/sec
M107
M115 U3.4.0 ; tell printer latest fw version
M83  ; extruder relative mode
M104 S215 ; set extruder temp
M140 S65 ; set bed temp
M190 S65 ; wait for bed temp
M109 S215 ; wait for extruder temp
G28 W ; home all without mesh bed level
G80 ; mesh bed leveling
G1 Y-3.0 F1000.0 ; go outside print area
G92 E0.0
G1 X60.0 E9.0  F1000.0 ; intro line
M73 Q0 S78
M73 P0 R77
G1 X100.0 E12.5  F1000.0 ; intro line
G92 E0.0
M221 S95
M900 K30; Filament gcode
G21 ; set units to millimeters
G90 ; use absolute coordinates
M83 ; use relative distances for extrusion
;BEFORE_LAYER_CHANGE
G92 E0.0
;0.15


G1 E-0.80000 F2100.00000
G1 Z0.600 F10800.000
;AFTER_LAYER_CHANGE
;0.15
G1 X116.945 Y69.810
G1 Z0.150
G1 E0.80000 F2100.00000
M204 S1000
G1 F1200
G1 X117.555 Y69.469 E0.01692
G1 X118.242 Y69.337 E0.01692
G1 X132.927 Y69.336 E0.35515
G1 X133.516 Y69.416 E0.01438
G1 X134.062 Y69.652 E0.01438
G1 X134.525 Y70.026 E0.01438
G1 X134.870 Y70.510 E0.01438
G1 X144.226 Y89.223 E0.50598
G1 X146.021 Y94.242 E0.12891
G1 X146.097 Y94.815 E0.01398
G1 X146.097 Y117.234 E0.54219
G1 X146.045 Y117.706 E0.01148
G1 X145.821 Y118.295 E0.01526
G1 X134.179 Y139.090 E0.57637
G1 X133.617 Y139.743 E0.02084
G1 X133.007 Y140.078 E0.01683
G1 X132.323 Y140.206 E0.01683
G1 X117.665 Y140.206 E0.35449
G1 X117.197 Y140.154 E0.01139
G1 X116.364 Y139.774 E0.02214
G1 X115.759 Y139.086 E0.02214
G1 X104.729 Y118.072 E0.57400
G1 X104.551 Y117.612 E0.01192
G1 X104.479 Y117.058 E0.01350
G1 X104.479 Y92.308 E0.59857
G1 X104.531 Y91.836 E0.01148
G1 X104.755 Y91.247 E0.01526
G1 X116.397 Y70.452 E0.57637
G1 X116.906 Y69.856 E0.01895
; PURGING FINISHED
G1 F8640
G1 X117.555 Y69.469 E-0.17460
G1 X118.242 Y69.337 E-0.16154
G1 X120.078 Y69.337 E-0.42386
G1 E-0.04000 F2100.00000
G1 Z0.750 F10800.000
G1 X106.673 Y92.312
G1 Z0.150
G1 E0.80000 F2100.00000
G1 F1200
G1 X106.673 Y117.055 E0.59842
G1 X107.449 Y117.055 E0.01876
G1 X107.449 Y92.487 E0.59420
G1 X108.224 Y92.487 E0.01876
G1 X108.224 Y117.055 E0.59420
G1 X108.358 Y117.055 E0.00324
G1 X108.358 Y119.384 E0.05632
G1 X109.000 Y119.384 E0.01552
G1 X109.000 Y90.158 E0.70683
G1 X109.776 Y90.158 E0.01876
G1 X109.776 Y119.384 E0.70683
G1 X110.551 Y119.384 E0.01876
G1 X110.551 Y90.158 E0.70683
G1 X110.687 Y90.158 E0.00328
G1 X110.687 Y87.829 E0.05632
G1 X111.327 Y87.829 E0.01548
G1 X111.327 Y121.713 E0.81946
G1 X112.102 Y121.713 E0.01876
G1 X112.102 Y87.829 E0.81946
G1 X112.878 Y87.829 E0.01876
G1 X112.878 Y100.623 E0.30942
G1 X113.242 Y99.647 E0.02521
G1 X113.654 Y98.889 E0.02085
G1 X113.654 Y85.501 E0.32379
G1 X114.429 Y85.501 E0.01876
G1 X114.429 Y97.616 E0.29301
G1 X115.205 Y96.580 E0.03130
G1 X115.205 Y85.501 E0.26795
G1 X115.981 Y85.501 E0.01876
G1 X115.981 Y95.794 E0.24895
G1 X116.529 Y95.246 E0.01874
G1 X116.756 Y95.073 E0.00691
G1 X116.756 Y85.501 E0.23151
G1 X117.532 Y85.501 E0.01876
G1 X117.532 Y94.493 E0.21746
G1 X118.003 Y94.140 E0.01423
G1 X118.307 Y93.971 E0.00842
G1 X118.307 Y71.530 E0.54275
G1 X119.083 Y71.530 E0.01876
G1 X119.083 Y93.548 E0.53251
G1 X119.620 Y93.255 E0.01479
G1 X119.859 Y93.163 E0.00619
G1 X119.859 Y71.530 E0.52321
G1 X120.634 Y71.530 E0.01876
G1 X120.634 Y92.874 E0.51621
G1 X121.410 Y92.593 E0.01996
G1 X121.410 Y71.530 E0.50940
G1 X122.186 Y71.530 E0.01876
G1 X122.186 Y92.424 E0.50532
G1 X122.961 Y92.255 E0.01920
G1 X122.961 Y71.530 E0.50124
G1 X123.737 Y71.530 E0.01876
G1 X123.737 Y92.170 E0.49919
G1 X124.512 Y92.115 E0.01881
G1 X124.512 Y71.530 E0.49785
G1 X125.288 Y71.530 E0.01876
G1 X125.288 Y92.101 E0.49751
G1 X126.064 Y92.156 E0.01881
G1 X126.064 Y71.530 E0.49885
G1 X126.839 Y71.530 E0.01876
G1 X126.839 Y92.213 E0.50022
G1 X127.615 Y92.380 E0.01919
G1 X127.615 Y71.530 E0.50427
G1 X128.390 Y71.530 E0.01876
G1 X128.390 Y92.549 E0.50835
G1 X128.654 Y92.609 E0.00653
G1 X129.166 Y92.800 E0.01322
G1 X129.166 Y71.530 E0.51441
G1 X129.942 Y71.530 E0.01876
G1 X129.942 Y93.089 E0.52141
G1 X130.353 Y93.242 E0.01062
G1 X130.717 Y93.439 E0.01001
G1 X130.717 Y71.530 E0.52987
G1 X131.493 Y71.530 E0.01876
G1 X131.493 Y93.862 E0.54011
G1 X131.972 Y94.124 E0.01320
G1 X132.269 Y94.343 E0.00892
G1 X132.269 Y71.530 E0.55174
G1 X132.927 Y71.530 E0.01593
G1 X132.927 Y85.501 E0.33789
G1 X133.044 Y85.501 E0.00283
G1 X133.044 Y94.924 E0.22789
G1 X133.449 Y95.227 E0.01222
G1 X133.820 Y95.595 E0.01264
G1 X133.820 Y85.501 E0.24412
G1 X134.595 Y85.501 E0.01876
G1 X134.595 Y96.370 E0.26288
G1 X134.773 Y96.551 E0.00613
G1 X135.371 Y97.350 E0.02412
G1 X135.371 Y85.501 E0.28656
G1 X136.147 Y85.501 E0.01876
G1 X136.147 Y98.525 E0.31498
G1 X136.741 Y99.614 E0.03002
G1 X136.922 Y100.084 E0.01218
G1 X136.922 Y85.501 E0.35269
G1 X137.584 Y85.501 E0.01601
G1 X137.584 Y87.829 E0.05632
G1 X137.698 Y87.829 E0.00275
G1 X137.698 Y104.341 E0.39934
G1 F8640
G1 X137.698 Y101.050 E-0.76000
G1 E-0.04000 F2100.00000
G1 Z0.750 F10800.000
G1 X132.269 Y109.866
G1 Z0.150
G1 E0.80000 F2100.00000
G1 F1200
G1 X132.269 Y100.466 E0.22735
G1 X132.183 Y100.307 E0.00437
G1 X131.493 Y99.421 E0.02716
G1 X131.493 Y110.579 E0.26985
G1 X131.312 Y110.811 E0.00711
G1 X130.717 Y111.359 E0.01956
G1 X130.717 Y98.641 E0.30757
G1 X130.270 Y98.229 E0.01471
G1 X129.942 Y98.015 E0.00948
G1 X129.942 Y111.985 E0.33786
G1 X129.166 Y112.492 E0.02241
G1 X129.166 Y97.508 E0.36238
M73 Q1 S77
M73 P1 R76
G1 X129.083 Y97.454 E0.00239
G1 X128.390 Y97.150 E0.01830
G1 X128.390 Y112.849 E0.37968
G1 X127.785 Y113.115 E0.01599
G1 X127.615 Y113.158 E0.00424
G1 X127.615 Y96.842 E0.39460
G1 X126.839 Y96.646 E0.01935
G1 X126.839 Y113.354 E0.40411
G1 X126.412 Y113.463 E0.01065
G1 X126.064 Y113.492 E0.00846
G1 X126.064 Y96.508 E0.41073
G1 X125.288 Y96.444 E0.01882
G1 X125.288 Y113.556 E0.41384
G1 X125.000 Y113.580 E0.00699
G1 X124.512 Y113.539 E0.01183
G1 X124.512 Y96.461 E0.41304
G1 X123.737 Y96.525 E0.01882
G1 X123.737 Y113.475 E0.40993
G1 X123.588 Y113.463 E0.00361
G1 X122.961 Y113.304 E0.01563
G1 X122.961 Y96.696 E0.40166
G1 X122.186 Y96.898 E0.01938
G1 X122.186 Y113.102 E0.39191
G1 X121.410 Y112.762 E0.02048
G1 X121.410 Y97.238 E0.37545
G1 X120.917 Y97.454 E0.01303
G1 X120.634 Y97.639 E0.00815
G1 X120.634 Y112.361 E0.35607
G1 X119.859 Y111.855 E0.02241
G1 X119.859 Y98.145 E0.33156
G1 X119.730 Y98.229 E0.00371
G1 X119.083 Y98.825 E0.02128
G1 X119.083 Y111.175 E0.29868
G1 X118.688 Y110.811 E0.01300
G1 X118.307 Y110.322 E0.01497
G1 X118.307 Y99.393 E0.26431
G1 F8640
G1 X118.307 Y102.685 E-0.76000
G1 E-0.04000 F2100.00000
G1 Z0.750 F10800.000
G1 X112.878 Y108.877
G1 Z0.150
G1 E0.80000 F2100.00000
G1 F1200
G1 X112.878 Y121.713 E0.31042
G1 X113.015 Y121.713 E0.00332
G1 X113.015 Y124.041 E0.05632
G1 X113.654 Y124.041 E0.01544
G1 X113.654 Y111.111 E0.31271
G1 X114.124 Y111.972 E0.02372
G1 X114.429 Y112.384 E0.01240
G1 X114.429 Y124.041 E0.28194
G1 X115.205 Y124.041 E0.01876
G1 X115.205 Y113.420 E0.25688
G1 X115.981 Y114.206 E0.02671
G1 X115.981 Y124.041 E0.23787
G1 X116.756 Y124.041 E0.01876
G1 X116.756 Y114.927 E0.22043
G1 X117.532 Y115.507 E0.02343
G1 X117.532 Y124.041 E0.20639
G1 X117.672 Y124.041 E0.00340
G1 X117.672 Y138.012 E0.33789
G1 X118.307 Y138.012 E0.01536
G1 X118.307 Y116.029 E0.53167
G1 X119.083 Y116.452 E0.02137
G1 X119.083 Y138.012 E0.52143
G1 X119.859 Y138.012 E0.01876
G1 X119.859 Y116.837 E0.51213
G1 X120.634 Y117.126 E0.02002
G1 X120.634 Y138.012 E0.50513
G1 X121.410 Y138.012 E0.01876
G1 X121.410 Y117.407 E0.49832
G1 X122.186 Y117.576 E0.01920
G1 X122.186 Y138.012 E0.49424
G1 X122.961 Y138.012 E0.01876
G1 X122.961 Y117.745 E0.49016
G1 X123.176 Y117.790 E0.00531
G1 X123.737 Y117.830 E0.01359
G1 X123.737 Y138.012 E0.48812
G1 X124.512 Y138.012 E0.01876
G1 X124.512 Y117.885 E0.48677
G1 X124.985 Y117.919 E0.01146
G1 X125.288 Y117.899 E0.00734
G1 X125.288 Y138.012 E0.48643
G1 X126.064 Y138.012 E0.01876
G1 X126.064 Y117.844 E0.48777
G1 X126.839 Y117.787 E0.01881
G1 X126.839 Y138.012 E0.48914
G1 X127.615 Y138.012 E0.01876
G1 X127.615 Y117.620 E0.49319
G1 X128.390 Y117.451 E0.01920
G1 X128.390 Y138.012 E0.49727
G1 X129.166 Y138.012 E0.01876
G1 X129.166 Y117.200 E0.50333
G1 X129.942 Y116.911 E0.02002
G1 X129.942 Y138.012 E0.51033
G1 X130.717 Y138.012 E0.01876
G1 X130.717 Y116.561 E0.51879
G1 X131.493 Y116.138 E0.02137
G1 X131.493 Y138.012 E0.52903
G1 X132.269 Y138.012 E0.01876
G1 X132.269 Y115.657 E0.54067
G1 X133.044 Y115.076 E0.02343
G1 X133.044 Y124.041 E0.21682
G1 X133.820 Y124.041 E0.01876
G1 X133.820 Y114.405 E0.23304
G1 X134.595 Y113.630 E0.02653
G1 X134.595 Y124.041 E0.25180
G1 X135.371 Y124.041 E0.01876
G1 X135.371 Y112.650 E0.27549
G1 X135.859 Y111.999 E0.01969
G1 X136.147 Y111.479 E0.01436
G1 X136.147 Y124.041 E0.30381
G1 X136.922 Y124.041 E0.01876
G1 X136.922 Y109.916 E0.34162
G1 X137.397 Y108.634 E0.03306
G1 X137.698 Y107.255 E0.03414
G1 X137.698 Y121.713 E0.34965
G1 X138.474 Y121.713 E0.01876
G1 X138.474 Y87.829 E0.81946
G1 X139.249 Y87.829 E0.01876
G1 X139.249 Y121.713 E0.81946
G1 X139.913 Y121.713 E0.01605
G1 X139.913 Y119.384 E0.05632
G1 X140.025 Y119.384 E0.00271
G1 X140.025 Y90.158 E0.70683
G1 X140.800 Y90.158 E0.01876
G1 X140.800 Y119.384 E0.70683
G1 X141.576 Y119.384 E0.01876
G1 X141.576 Y90.158 E0.70683
G1 X142.241 Y90.158 E0.01609
G1 X142.241 Y94.815 E0.11263
G1 X142.352 Y94.815 E0.00267
G1 X142.352 Y117.055 E0.53788
G1 X143.127 Y117.055 E0.01876
G1 X143.127 Y94.815 E0.53788
G1 X143.903 Y94.815 E0.01876
G1 X143.903 Y117.230 E0.54210
G1 F8640
G1 X143.903 Y113.939 E-0.76000
G1 E-0.04000 F2100.00000
G1 Z0.750 F10800.000
G1 X133.363 Y110.462
G1 Z0.150
G1 E0.80000 F2100.00000
G1 F1200
G1 X132.350 Y111.764 E0.03990
G1 X131.129 Y112.887 E0.04013
G1 X129.756 Y113.784 E0.03966
G1 X128.245 Y114.447 E0.03991
G1 X126.644 Y114.853 E0.03993
G1 X125.000 Y114.989 E0.03990
G1 X123.356 Y114.853 E0.03990
G1 X121.756 Y114.447 E0.03993
G1 X120.244 Y113.784 E0.03993
G1 X118.863 Y112.881 E0.03989
G1 X117.657 Y111.771 E0.03964
G1 X116.637 Y110.463 E0.04013
G1 X115.852 Y109.012 E0.03990
G1 X115.317 Y107.452 E0.03989
G1 X115.045 Y105.825 E0.03989
G1 X115.045 Y104.175 E0.03991
G1 X115.320 Y102.539 E0.04012
G1 X115.852 Y100.988 E0.03964
G1 X116.637 Y99.538 E0.03989
G1 X117.650 Y98.236 E0.03989
G1 X118.863 Y97.118 E0.03990
G1 X120.253 Y96.212 E0.04013
G1 X121.756 Y95.552 E0.03969
G1 X123.356 Y95.147 E0.03992
G1 X124.989 Y95.012 E0.03964
G1 X126.644 Y95.147 E0.04014
G1 X128.244 Y95.553 E0.03994
G1 X129.756 Y96.216 E0.03993
G1 X131.137 Y97.119 E0.03989
G1 X132.350 Y98.236 E0.03989
G1 X133.363 Y99.538 E0.03989
G1 X134.143 Y100.979 E0.03964
G1 X134.683 Y102.548 E0.04013
G1 X134.955 Y104.175 E0.03990
G1 X134.955 Y105.825 E0.03991
G1 X134.680 Y107.461 E0.04012
G1 X134.148 Y109.012 E0.03964
G1 X133.392 Y110.410 E0.03844
G1 X133.051 Y110.225 F10800.000
G1 F1200
G1 X132.064 Y111.501 E0.03901
G1 X130.890 Y112.580 E0.03857
G1 X129.571 Y113.442 E0.03811
G1 X128.118 Y114.079 E0.03836
G1 X126.580 Y114.469 E0.03838
G1 X125.000 Y114.600 E0.03835
G1 X123.420 Y114.469 E0.03835
G1 X121.882 Y114.079 E0.03837
G1 X120.429 Y113.442 E0.03838
G1 X119.102 Y112.574 E0.03833
G1 X117.943 Y111.508 E0.03809
G1 X116.963 Y110.250 E0.03857
G1 X116.208 Y108.855 E0.03834
G1 X115.694 Y107.356 E0.03834
G1 X115.433 Y105.793 E0.03833
G1 X115.433 Y104.207 E0.03835
G1 X115.697 Y102.634 E0.03857
G1 X116.208 Y101.145 E0.03809
G1 X116.963 Y99.750 E0.03834
G1 X117.936 Y98.499 E0.03834
G1 X119.102 Y97.425 E0.03834
G1 X120.438 Y96.554 E0.03857
G1 X121.882 Y95.921 E0.03814
G1 X123.420 Y95.531 E0.03837
M73 Q2 S76
M73 P2 R75
G1 X124.990 Y95.401 E0.03809
G1 X126.580 Y95.531 E0.03859
G1 X128.118 Y95.921 E0.03838
G1 X129.571 Y96.558 E0.03838
G1 X130.898 Y97.426 E0.03834
G1 X132.064 Y98.499 E0.03834
G1 X133.037 Y99.750 E0.03834
G1 X133.787 Y101.136 E0.03809
G1 X134.306 Y102.644 E0.03857
G1 X134.567 Y104.207 E0.03834
G1 X134.567 Y105.793 E0.03835
G1 X134.303 Y107.366 E0.03857
G1 X133.792 Y108.855 E0.03809
G1 X133.079 Y110.172 E0.03621
G1 X132.738 Y109.988 F10800.000
G1 F1200
G1 X131.778 Y111.237 E0.03811
G1 X130.651 Y112.273 E0.03702
G1 X129.385 Y113.100 E0.03656
G1 X127.992 Y113.711 E0.03680
G1 X126.516 Y114.085 E0.03682
G1 X125.000 Y114.211 E0.03679
G1 X123.484 Y114.085 E0.03679
G1 X122.008 Y113.711 E0.03682
G1 X120.614 Y113.099 E0.03682
G1 X119.341 Y112.267 E0.03678
G1 X118.229 Y111.244 E0.03654
G1 X117.288 Y110.037 E0.03702
G1 X116.565 Y108.699 E0.03678
G1 X116.071 Y107.261 E0.03678
G1 X115.821 Y105.761 E0.03678
G1 X115.821 Y104.239 E0.03679
G1 X116.074 Y102.730 E0.03701
G1 X116.565 Y101.301 E0.03654
G1 X117.288 Y99.963 E0.03678
G1 X118.222 Y98.763 E0.03678
G1 X119.341 Y97.733 E0.03678
G1 X120.623 Y96.896 E0.03702
G1 X122.008 Y96.289 E0.03658
G1 X123.484 Y95.915 E0.03681
G1 X124.990 Y95.790 E0.03654
G1 X126.516 Y95.915 E0.03703
G1 X127.992 Y96.289 E0.03682
G1 X129.386 Y96.901 E0.03682
G1 X130.659 Y97.733 E0.03678
G1 X131.778 Y98.763 E0.03678
G1 X132.712 Y99.963 E0.03678
G1 X133.431 Y101.292 E0.03654
G1 X133.929 Y102.739 E0.03702
G1 X134.179 Y104.239 E0.03678
G1 X134.179 Y105.761 E0.03679
G1 X133.926 Y107.270 E0.03701
G1 X133.435 Y108.699 E0.03654
G1 X132.767 Y109.935 E0.03398
G1 X132.920 Y110.344 F10800.000
G1 F8640
G1 X131.778 Y111.237 E-0.37758
G1 X130.651 Y112.273 E-0.35342
G1 X130.546 Y112.342 E-0.02900
G1 E-0.04000 F2100.00000
G1 Z0.750 F10800.000
G1 X134.684 Y111.224
G1 Z0.150
G1 E0.80000 F2100.00000
G1 F1200
G1 X133.700 Y112.539 E0.03970
G1 X132.539 Y113.700 E0.03972
G1 X131.224 Y114.684 E0.03972
G1 X129.782 Y115.472 E0.03972
G1 X128.243 Y116.046 E0.03972
G1 X126.638 Y116.395 E0.03972
G1 X125.000 Y116.512 E0.03972
G1 X123.362 Y116.395 E0.03972
G1 X121.757 Y116.046 E0.03972
G1 X120.218 Y115.472 E0.03972
G1 X118.776 Y114.684 E0.03972
G1 X117.461 Y113.700 E0.03972
G1 X116.300 Y112.539 E0.03972
G1 X115.323 Y111.233 E0.03944
G1 X114.528 Y109.782 E0.04001
G1 X113.954 Y108.243 E0.03971
G1 X113.605 Y106.638 E0.03972
G1 X113.488 Y105.000 E0.03972
G1 X113.605 Y103.362 E0.03972
G1 X113.954 Y101.757 E0.03972
G1 X114.528 Y100.218 E0.03972
G1 X115.316 Y98.776 E0.03972
G1 X116.293 Y97.471 E0.03944
G1 X117.462 Y96.300 E0.04001
G1 X118.776 Y95.316 E0.03971
G1 X120.218 Y94.528 E0.03972
G1 X121.757 Y93.954 E0.03972
G1 X123.362 Y93.605 E0.03972
G1 X125.000 Y93.488 E0.03972
G1 X126.627 Y93.604 E0.03944
G1 X128.244 Y93.955 E0.04001
G1 X129.782 Y94.528 E0.03971
G1 X131.224 Y95.316 E0.03972
G1 X132.539 Y96.300 E0.03972
G1 X133.699 Y97.460 E0.03967
G1 X134.716 Y98.832 E0.04132
G1 X135.471 Y100.218 E0.03816
G1 X136.046 Y101.757 E0.03973
G1 X136.395 Y103.362 E0.03972
G1 X136.511 Y104.988 E0.03944
G1 X136.395 Y106.639 E0.04001
G1 X136.045 Y108.244 E0.03972
G1 X135.483 Y109.755 E0.03901
G1 X134.713 Y111.172 E0.03899
G1 X135.053 Y111.357 F10800.000
G1 F1200
G1 X133.994 Y112.793 E0.04316
G1 X132.793 Y113.994 E0.04107
G1 X131.434 Y115.011 E0.04107
G1 X129.944 Y115.825 E0.04107
G1 X128.353 Y116.419 E0.04107
G1 X126.694 Y116.780 E0.04107
G1 X125.000 Y116.901 E0.04107
G1 X123.306 Y116.780 E0.04107
G1 X121.647 Y116.419 E0.04107
G1 X120.056 Y115.825 E0.04107
G1 X118.566 Y115.011 E0.04107
G1 X117.207 Y113.994 E0.04107
G1 X116.006 Y112.793 E0.04107
G1 X114.996 Y111.443 E0.04078
G1 X114.175 Y109.943 E0.04136
G1 X113.581 Y108.353 E0.04106
G1 X113.220 Y106.694 E0.04107
G1 X113.099 Y105.000 E0.04107
G1 X113.220 Y103.306 E0.04107
G1 X113.581 Y101.647 E0.04107
G1 X114.175 Y100.056 E0.04107
G1 X114.989 Y98.566 E0.04107
G1 X115.999 Y97.216 E0.04078
G1 X117.207 Y96.006 E0.04136
G1 X118.566 Y94.989 E0.04106
G1 X120.056 Y94.175 E0.04107
G1 X121.647 Y93.581 E0.04107
