; generated by Slic3r Prusa Edition 1.41.0+win64 on 2018-10-10 at 22:34:22

; 

; external perimeters extrusion width = 0.45mm
; perimeters extrusion width = 0.45mm
; infill extrusion width = 0.45mm
; solid infill extrusion width = 0.45mm
; top infill extrusion width = 0.40mm
; first layer extrusion width = 0.42mm

M201 X1000 Y1000 Z1000 E5000 ; sets maximum accelerations, mm/sec^2
M203 X200 Y200 Z12 E120 ; sets maximum feedrates, mm/sec
M204 P1250 R1250 T1250 ; sets acceleration (P, T) and retract acceleration (R), mm/sec^2
M205 X8.00 Y8.00 Z0.40 E1.50 ; sets the jerk limits, mm/sec
M205 S0 T0 ; sets the minimum extruding and travel feed rate, mm/sec
M107
M115 U3.4.0 ; tell printer latest fw version
M83  ; extruder relative mode
M104 S215 ; set extruder temp
M140 S65 ; set bed temp
M190 S65 ; wait for bed temp
M109 S215 ; wait for extruder temp
G28 W ; home all without mesh bed level
G80 ; mesh bed leveling
G1 Y-3.0 F1000.0 ; go outside print area
G92 E0.0
G1 X60.0 E9.0  F1000.0 ; intro line
M73 Q0 S16
M73 P0 R16
G1 X100.0 E12.5  F1000.0 ; intro line
G92 E0.0
M221 S95
M900 K30; Filament gcode
G21 ; set units to millimeters
G90 ; use absolute coordinates
M83 ; use relative distances for extrusion
;BEFORE_LAYER_CHANGE
G92 E0.0
;0.2


G1 E-0.80000 F2100.00000
G1 Z0.600 F10800.000
;AFTER_LAYER_CHANGE
;0.2
G1 X104.217 Y83.097
G1 Z0.200
G1 E0.80000 F2100.00000
M204 S1000
G1 F1200
G1 X105.065 Y82.912 E0.02721
G1 X144.900 Y82.911 E1.24900
G1 X145.720 Y83.071 E0.02620
G1 X146.421 Y83.526 E0.02620
G1 X146.898 Y84.207 E0.02608
G1 X147.087 Y85.021 E0.02620
G1 X147.088 Y124.933 E1.25141
G1 X146.928 Y125.723 E0.02529
G1 X146.489 Y126.405 E0.02541
G1 X145.769 Y126.908 E0.02754
G1 X144.906 Y127.089 E0.02766
G1 X105.067 Y127.088 E1.24912
G1 X104.277 Y126.928 E0.02529
G1 X103.595 Y126.489 E0.02541
G1 X103.092 Y125.769 E0.02754
G1 X102.911 Y124.906 E0.02766
G1 X102.912 Y85.067 E1.24912
G1 X103.072 Y84.277 E0.02529
G1 X103.511 Y83.595 E0.02541
G1 X104.168 Y83.132 E0.02521
; PURGING FINISHED
G1 F8640
G1 X105.065 Y82.912 E-0.21320
G1 X107.433 Y82.912 E-0.54680
G1 E-0.04000 F2100.00000
G1 Z0.800 F10800.000
G1 X123.766 Y117.863
G1 Z0.200
G1 E0.80000 F2100.00000
G1 F1200
G1 X124.156 Y117.681 E0.01349
G1 X124.571 Y117.570 E0.01349
G1 X124.977 Y117.534 E0.01278
G1 X125.423 Y117.568 E0.01403
G1 X125.844 Y117.681 E0.01365
G1 X126.234 Y117.863 E0.01349
G1 X126.586 Y118.110 E0.01349
G1 X126.890 Y118.414 E0.01349
G1 X127.137 Y118.766 E0.01349
G1 X127.319 Y119.156 E0.01349
G1 X127.430 Y119.571 E0.01349
G1 X127.468 Y120.000 E0.01349
G1 X127.430 Y120.429 E0.01349
G1 X127.319 Y120.844 E0.01349
G1 X127.137 Y121.234 E0.01349
G1 X126.890 Y121.586 E0.01349
G1 X126.602 Y121.874 E0.01278
G1 X126.239 Y122.135 E0.01403
G1 X125.844 Y122.319 E0.01365
G1 X125.429 Y122.430 E0.01349
G1 X125.000 Y122.468 E0.01349
G1 X124.571 Y122.430 E0.01349
G1 X124.156 Y122.319 E0.01349
G1 X123.766 Y122.137 E0.01349
G1 X123.414 Y121.890 E0.01349
G1 X123.110 Y121.586 E0.01349
G1 X122.863 Y121.234 E0.01349
G1 X122.681 Y120.844 E0.01349
G1 X122.570 Y120.429 E0.01349
G1 X122.532 Y120.000 E0.01349
G1 X122.570 Y119.571 E0.01349
G1 X122.681 Y119.156 E0.01349
G1 X122.863 Y118.766 E0.01349
G1 X123.110 Y118.414 E0.01349
G1 X123.414 Y118.110 E0.01349
G1 X123.717 Y117.897 E0.01161
G1 X123.933 Y118.206 F10800.000
G1 F1200
G1 X124.285 Y118.037 E0.01225
G1 X124.637 Y117.942 E0.01142
G1 X124.979 Y117.912 E0.01077
G1 X125.360 Y117.942 E0.01196
G1 X125.715 Y118.037 E0.01152
G1 X126.045 Y118.191 E0.01142
G1 X126.343 Y118.399 E0.01142
G1 X126.601 Y118.657 E0.01142
G1 X126.809 Y118.955 E0.01142
G1 X126.963 Y119.285 E0.01142
G1 X127.058 Y119.637 E0.01142
G1 X127.089 Y120.000 E0.01142
G1 X127.058 Y120.363 E0.01142
G1 X126.963 Y120.715 E0.01142
G1 X126.809 Y121.045 E0.01142
G1 X126.601 Y121.343 E0.01142
G1 X126.358 Y121.586 E0.01077
G1 X126.048 Y121.808 E0.01196
G1 X125.715 Y121.963 E0.01152
G1 X125.363 Y122.058 E0.01142
G1 X125.000 Y122.089 E0.01142
G1 X124.637 Y122.058 E0.01142
G1 X124.285 Y121.963 E0.01142
G1 X123.955 Y121.809 E0.01142
G1 X123.657 Y121.601 E0.01142
G1 X123.399 Y121.343 E0.01142
G1 X123.191 Y121.045 E0.01142
G1 X123.037 Y120.715 E0.01142
G1 X122.942 Y120.363 E0.01142
G1 X122.911 Y120.000 E0.01142
G1 X122.942 Y119.637 E0.01142
G1 X123.037 Y119.285 E0.01142
G1 X123.191 Y118.955 E0.01142
G1 X123.399 Y118.657 E0.01142
G1 X123.657 Y118.399 E0.01142
G1 X123.884 Y118.241 E0.00869
G1 X124.145 Y118.518 F10800.000
G1 F1200
G1 X124.415 Y118.392 E0.00935
G1 X124.703 Y118.315 E0.00935
G1 X124.981 Y118.291 E0.00877
G1 X125.296 Y118.315 E0.00989
G1 X125.585 Y118.392 E0.00939
G1 X125.855 Y118.518 E0.00935
G1 X126.100 Y118.689 E0.00935
G1 X126.311 Y118.900 E0.00935
G1 X126.482 Y119.145 E0.00935
G1 X126.608 Y119.415 E0.00935
G1 X126.685 Y119.703 E0.00935
G1 X126.711 Y120.000 E0.00935
G1 X126.685 Y120.297 E0.00935
G1 X126.608 Y120.585 E0.00935
G1 X126.482 Y120.855 E0.00935
G1 X126.311 Y121.100 E0.00935
G1 X126.113 Y121.297 E0.00877
G1 X125.856 Y121.481 E0.00989
G1 X125.585 Y121.608 E0.00939
G1 X125.297 Y121.685 E0.00935
G1 X125.000 Y121.711 E0.00935
G1 X124.703 Y121.685 E0.00935
G1 X124.415 Y121.608 E0.00935
G1 X124.145 Y121.482 E0.00935
G1 X123.900 Y121.311 E0.00935
G1 X123.689 Y121.100 E0.00935
G1 X123.518 Y120.855 E0.00935
G1 X123.392 Y120.585 E0.00935
G1 X123.315 Y120.297 E0.00935
G1 X123.289 Y120.000 E0.00935
G1 X123.315 Y119.703 E0.00935
G1 X123.392 Y119.415 E0.00935
G1 X123.518 Y119.145 E0.00935
G1 X123.689 Y118.900 E0.00935
G1 X123.900 Y118.689 E0.00935
G1 X124.095 Y118.553 E0.00747
G1 X124.145 Y118.220 F10800.000
G1 F8640
G1 X124.415 Y118.392 E-0.08254
G1 X124.703 Y118.315 E-0.06886
G1 X124.981 Y118.291 E-0.06457
G1 X125.296 Y118.315 E-0.07283
G1 X125.585 Y118.392 E-0.06912
G1 X125.855 Y118.518 E-0.06886
G1 X126.100 Y118.689 E-0.06886
G1 X126.311 Y118.900 E-0.06886
G1 X126.482 Y119.145 E-0.06886
G1 X126.608 Y119.415 E-0.06886
G1 X126.672 Y119.657 E-0.05780
G1 E-0.04000 F2100.00000
G1 Z0.800 F10800.000
G1 X117.786 Y94.036
G1 Z0.200
G1 E0.80000 F2100.00000
G1 F1200
G1 X132.214 Y94.036 E0.45239
G1 X132.214 Y115.964 E0.68755
G1 X117.786 Y115.964 E0.45239
G1 X117.786 Y94.096 E0.68567
G1 X118.163 Y94.413 F10800.000
G1 F1200
G1 X131.837 Y94.413 E0.42874
G1 X131.837 Y115.587 E0.66390
G1 X118.163 Y115.587 E0.42874
G1 X118.163 Y94.473 E0.66202
G1 X118.540 Y94.790 F10800.000
G1 F1200
G1 X131.460 Y94.790 E0.40510
G1 X131.460 Y115.210 E0.64025
G1 X118.540 Y115.210 E0.40510
G1 X118.540 Y94.850 E0.63837
G1 X118.465 Y94.397 F10800.000
G1 F8640
G1 X121.831 Y94.835 E-0.76000
G1 E-0.04000 F2100.00000
G1 Z0.800 F10800.000
G1 X123.110 Y91.586
G1 Z0.200
G1 E0.80000 F2100.00000
G1 F1200
G1 X122.863 Y91.234 E0.01349
G1 X122.681 Y90.844 E0.01349
G1 X122.570 Y90.429 E0.01349
G1 X122.532 Y90.000 E0.01349
G1 X122.570 Y89.571 E0.01349
G1 X122.681 Y89.156 E0.01349
G1 X122.863 Y88.766 E0.01349
G1 X123.110 Y88.414 E0.01349
G1 X123.414 Y88.110 E0.01349
G1 X123.766 Y87.863 E0.01349
G1 X124.156 Y87.681 E0.01349
G1 X124.571 Y87.570 E0.01349
G1 X124.977 Y87.534 E0.01278
G1 X125.423 Y87.568 E0.01403
G1 X125.844 Y87.681 E0.01365
G1 X126.234 Y87.863 E0.01349
G1 X126.586 Y88.110 E0.01349
G1 X126.890 Y88.414 E0.01349
G1 X127.137 Y88.766 E0.01349
G1 X127.319 Y89.156 E0.01349
G1 X127.430 Y89.571 E0.01349
G1 X127.468 Y90.000 E0.01349
G1 X127.430 Y90.429 E0.01349
G1 X127.319 Y90.844 E0.01349
G1 X127.137 Y91.234 E0.01349
G1 X126.890 Y91.586 E0.01349
G1 X126.586 Y91.890 E0.01349
G1 X126.234 Y92.137 E0.01349
G1 X125.844 Y92.319 E0.01349
G1 X125.429 Y92.430 E0.01349
G1 X125.000 Y92.468 E0.01349
G1 X124.571 Y92.430 E0.01349
G1 X124.156 Y92.319 E0.01349
G1 X123.766 Y92.137 E0.01349
G1 X123.414 Y91.890 E0.01349
G1 X123.152 Y91.629 E0.01161
G1 X123.419 Y91.362 F10800.000
G1 F1200
G1 X123.191 Y91.045 E0.01225
G1 X123.037 Y90.715 E0.01142
G1 X122.942 Y90.363 E0.01142
G1 X122.911 Y90.000 E0.01142
G1 X122.942 Y89.637 E0.01142
G1 X123.037 Y89.285 E0.01142
G1 X123.191 Y88.955 E0.01142
G1 X123.399 Y88.657 E0.01142
G1 X123.657 Y88.399 E0.01142
G1 X123.955 Y88.191 E0.01142
G1 X124.285 Y88.037 E0.01142
G1 X124.637 Y87.942 E0.01142
G1 X124.979 Y87.912 E0.01077
G1 X125.360 Y87.942 E0.01196
G1 X125.715 Y88.037 E0.01152
G1 X126.045 Y88.191 E0.01142
G1 X126.343 Y88.399 E0.01142
G1 X126.601 Y88.657 E0.01142
G1 X126.809 Y88.955 E0.01142
G1 X126.963 Y89.285 E0.01142
G1 X127.058 Y89.637 E0.01142
G1 X127.089 Y90.000 E0.01142
G1 X127.058 Y90.363 E0.01142
G1 X126.963 Y90.715 E0.01142
G1 X126.809 Y91.045 E0.01142
G1 X126.601 Y91.343 E0.01142
G1 X126.343 Y91.601 E0.01142
G1 X126.045 Y91.809 E0.01142
G1 X125.715 Y91.963 E0.01142
G1 X125.363 Y92.058 E0.01142
G1 X125.000 Y92.089 E0.01142
G1 X124.637 Y92.058 E0.01142
G1 X124.285 Y91.963 E0.01142
G1 X123.955 Y91.809 E0.01142
G1 X123.657 Y91.601 E0.01142
G1 X123.461 Y91.405 E0.00869
G1 X123.689 Y91.100 F10800.000
G1 F1200
G1 X123.518 Y90.855 E0.00935
G1 X123.392 Y90.585 E0.00935
G1 X123.315 Y90.297 E0.00935
G1 X123.289 Y90.000 E0.00935
G1 X123.315 Y89.703 E0.00935
G1 X123.392 Y89.415 E0.00935
G1 X123.518 Y89.145 E0.00935
G1 X123.689 Y88.900 E0.00935
G1 X123.900 Y88.689 E0.00935
G1 X124.145 Y88.518 E0.00935
G1 X124.415 Y88.392 E0.00935
G1 X124.703 Y88.315 E0.00935
G1 X124.981 Y88.291 E0.00877
G1 X125.296 Y88.315 E0.00989
G1 X125.585 Y88.392 E0.00939
G1 X125.855 Y88.518 E0.00935
G1 X126.100 Y88.689 E0.00935
G1 X126.311 Y88.900 E0.00935
G1 X126.482 Y89.145 E0.00935
G1 X126.608 Y89.415 E0.00935
G1 X126.685 Y89.703 E0.00935
G1 X126.711 Y90.000 E0.00935
G1 X126.685 Y90.297 E0.00935
G1 X126.608 Y90.585 E0.00935
G1 X126.482 Y90.855 E0.00935
G1 X126.311 Y91.100 E0.00935
G1 X126.100 Y91.311 E0.00935
G1 X125.855 Y91.482 E0.00935
G1 X125.585 Y91.608 E0.00935
G1 X125.297 Y91.685 E0.00935
G1 X125.000 Y91.711 E0.00935
G1 X124.703 Y91.685 E0.00935
G1 X124.415 Y91.608 E0.00935
G1 X124.145 Y91.482 E0.00935
G1 X123.900 Y91.311 E0.00935
G1 X123.732 Y91.142 E0.00747
G1 X123.396 Y91.151 F10800.000
G1 F8640
G1 X123.518 Y90.855 E-0.08254
G1 X123.392 Y90.585 E-0.06886
G1 X123.315 Y90.297 E-0.06886
G1 X123.289 Y90.000 E-0.06886
G1 X123.315 Y89.703 E-0.06886
G1 X123.392 Y89.415 E-0.06886
G1 X123.518 Y89.145 E-0.06886
G1 X123.689 Y88.900 E-0.06886
G1 X123.900 Y88.689 E-0.06886
G1 X124.145 Y88.518 E-0.06886
G1 X124.371 Y88.413 E-0.05774
G1 E-0.04000 F2100.00000
G1 Z0.800 F10800.000
G1 X106.064 Y86.064
G1 Z0.200
G1 E0.80000 F2100.00000
G1 F1200
G1 X143.936 Y86.064 E1.18744
G1 X143.936 Y123.936 E1.18744
G1 X106.064 Y123.936 E1.18744
G1 X106.064 Y86.124 E1.18556
G1 X105.687 Y85.687 F10800.000
G1 F1200
G1 X144.313 Y85.687 E1.21109
G1 X144.313 Y124.313 E1.21109
G1 X105.687 Y124.313 E1.21109
G1 X105.687 Y85.747 E1.20921
G1 X105.310 Y85.310 F10800.000
G1 F1200
G1 X144.690 Y85.310 E1.23473
G1 X144.690 Y124.690 E1.23473
G1 X105.310 Y124.690 E1.23473
G1 X105.310 Y85.370 E1.23285
G1 X105.696 Y85.414 F10800.000
G1 F8640
G1 X108.601 Y85.365 E-0.76000
G1 E-0.04000 F2100.00000
G1 Z0.800 F10800.000
G1 X122.549 Y90.790
G1 Z0.200
G1 E0.80000 F2100.00000
G1 F1200
G1 X118.106 Y86.347 E0.19748
G1 X118.641 Y86.347 E0.01680
G1 X122.252 Y89.958 E0.16050
G1 X122.303 Y89.475 E0.01528
G1 X119.175 Y86.347 E0.13901
G1 X119.710 Y86.347 E0.01680
G1 X122.417 Y89.054 E0.12031
G1 X122.587 Y88.689 E0.01264
G1 X120.244 Y86.347 E0.10410
G1 X120.779 Y86.347 E0.01680
G1 X122.798 Y88.366 E0.08973
G1 X122.892 Y88.231 E0.00517
G1 X123.045 Y88.078 E0.00679
G1 X121.313 Y86.347 E0.07696
G1 X121.848 Y86.347 E0.01680
G1 X123.326 Y87.825 E0.06571
G1 X123.643 Y87.608 E0.01208
G1 X122.382 Y86.347 E0.05605
G1 X122.917 Y86.347 E0.01680
G1 X124.008 Y87.438 E0.04849
G1 X124.421 Y87.317 E0.01354
G1 X123.451 Y86.347 E0.04312
G1 X123.986 Y86.347 E0.01680
G1 X124.896 Y87.257 E0.04046
G1 X125.461 Y87.288 E0.01777
G1 X124.520 Y86.347 E0.04180
G1 X125.055 Y86.347 E0.01680
G1 X143.653 Y104.945 E0.82659
G1 X143.653 Y104.411 E0.01680
G1 X125.589 Y86.347 E0.80284
G1 X126.124 Y86.347 E0.01680
G1 X143.653 Y103.876 E0.77908
G1 X143.653 Y103.342 E0.01680
G1 X126.658 Y86.347 E0.75532
M73 Q6 S15
M73 P6 R15
G1 X127.193 Y86.347 E0.01680
G1 X143.653 Y102.807 E0.73157
G1 X143.653 Y102.273 E0.01680
G1 X127.727 Y86.347 E0.70781
G1 X128.262 Y86.347 E0.01680
G1 X143.653 Y101.738 E0.68405
G1 X143.653 Y101.204 E0.01680
G1 X128.796 Y86.347 E0.66030
G1 X129.331 Y86.347 E0.01680
G1 X143.653 Y100.669 E0.63654
G1 X143.653 Y100.135 E0.01680
G1 X129.865 Y86.347 E0.61279
G1 X130.400 Y86.347 E0.01680
G1 X143.653 Y99.600 E0.58903
G1 X143.653 Y99.065 E0.01680
G1 X130.935 Y86.347 E0.56527
G1 X131.469 Y86.347 E0.01680
G1 X143.653 Y98.531 E0.54152
G1 X143.653 Y97.996 E0.01680
G1 X132.004 Y86.347 E0.51776
G1 X132.538 Y86.347 E0.01680
G1 X143.653 Y97.462 E0.49400
G1 X143.653 Y96.927 E0.01680
G1 X133.073 Y86.347 E0.47025
G1 X133.607 Y86.347 E0.01680
G1 X143.653 Y96.393 E0.44649
G1 X143.653 Y95.858 E0.01680
G1 X134.142 Y86.347 E0.42274
G1 X134.676 Y86.347 E0.01680
G1 X143.653 Y95.324 E0.39898
G1 X143.653 Y94.789 E0.01680
G1 X135.211 Y86.347 E0.37522
G1 X135.745 Y86.347 E0.01680
G1 X143.653 Y94.255 E0.35147
G1 X143.653 Y93.720 E0.01680
G1 X136.280 Y86.347 E0.32771
G1 X136.814 Y86.347 E0.01680
G1 X143.653 Y93.186 E0.30395
G1 X143.653 Y92.651 E0.01680
G1 X137.349 Y86.347 E0.28020
G1 X137.883 Y86.347 E0.01680
G1 X143.653 Y92.117 E0.25644
G1 X143.653 Y91.582 E0.01680
G1 X138.418 Y86.347 E0.23269
G1 X138.952 Y86.347 E0.01680
G1 X143.653 Y91.048 E0.20893
G1 X143.653 Y90.513 E0.01680
G1 X139.487 Y86.347 E0.18517
G1 X140.021 Y86.347 E0.01680
G1 X143.653 Y89.979 E0.16142
G1 X143.653 Y89.444 E0.01680
G1 X140.556 Y86.347 E0.13766
G1 X141.090 Y86.347 E0.01680
G1 X143.653 Y88.910 E0.11390
G1 X143.653 Y88.375 E0.01680
G1 X141.625 Y86.347 E0.09015
G1 X142.159 Y86.347 E0.01680
G1 X143.653 Y87.841 E0.06639
G1 X143.653 Y87.306 E0.01680
G1 X142.694 Y86.347 E0.04263
G1 X143.228 Y86.347 E0.01680
G1 X143.823 Y86.941 E0.02642
G1 F8640
G1 X143.228 Y86.347 E-0.19411
G1 X142.694 Y86.347 E-0.12342
G1 X143.653 Y87.306 E-0.31325
G1 X143.653 Y87.841 E-0.12342
G1 X143.635 Y87.823 E-0.00580
G1 E-0.04000 F2100.00000
G1 Z0.800 F10800.000
G1 X132.096 Y93.923
G1 Z0.200
G1 E0.80000 F2100.00000
G1 F1200
G1 X127.711 Y89.538 E0.19489
G1 X127.752 Y90.000 E0.01458
G1 X127.743 Y90.104 E0.00327
G1 X131.392 Y93.753 E0.16219
G1 X130.857 Y93.753 E0.01680
G1 X127.683 Y90.579 E0.14109
G1 X127.562 Y90.992 E0.01354
G1 X130.323 Y93.753 E0.12271
G1 X129.788 Y93.753 E0.01680
G1 X127.392 Y91.357 E0.10651
G1 X127.175 Y91.674 E0.01208
G1 X129.254 Y93.753 E0.09242
G1 X128.719 Y93.753 E0.01680
G1 X126.922 Y91.955 E0.07991
G1 X126.769 Y92.108 E0.00679
G1 X126.634 Y92.202 E0.00517
G1 X128.185 Y93.753 E0.06893
G1 X127.650 Y93.753 E0.01680
G1 X126.311 Y92.413 E0.05954
G1 X125.946 Y92.583 E0.01264
G1 X127.116 Y93.753 E0.05199
G1 X126.581 Y93.753 E0.01680
G1 X125.525 Y92.697 E0.04693
G1 X125.042 Y92.748 E0.01528
G1 X126.047 Y93.753 E0.04467
G1 X125.512 Y93.753 E0.01680
G1 X124.210 Y92.451 E0.05789
G1 F8640
G1 X125.512 Y93.753 E-0.42533
G1 X126.047 Y93.753 E-0.12342
G1 X125.400 Y93.106 E-0.21125
G1 E-0.04000 F2100.00000
G1 Z0.800 F10800.000
G1 X125.148 Y93.923
G1 Z0.200
G1 E0.80000 F2100.00000
G1 F1200
G1 X117.572 Y86.347 E0.33671
G1 X117.037 Y86.347 E0.01680
G1 X124.443 Y93.753 E0.32916
G1 X123.909 Y93.753 E0.01680
G1 X116.503 Y86.347 E0.32916
G1 X115.968 Y86.347 E0.01680
G1 X123.374 Y93.753 E0.32916
G1 X122.840 Y93.753 E0.01680
G1 X115.434 Y86.347 E0.32916
G1 X114.899 Y86.347 E0.01680
G1 X122.305 Y93.753 E0.32916
G1 X121.771 Y93.753 E0.01680
G1 X114.365 Y86.347 E0.32916
G1 X113.830 Y86.347 E0.01680
G1 X121.236 Y93.753 E0.32916
G1 X120.702 Y93.753 E0.01680
G1 X113.296 Y86.347 E0.32916
G1 X112.761 Y86.347 E0.01680
G1 X120.167 Y93.753 E0.32916
G1 X119.633 Y93.753 E0.01680
G1 X112.227 Y86.347 E0.32916
G1 X111.692 Y86.347 E0.01680
G1 X119.098 Y93.753 E0.32916
G1 X118.564 Y93.753 E0.01680
G1 X111.158 Y86.347 E0.32916
G1 X110.623 Y86.347 E0.01680
G1 X118.029 Y93.753 E0.32916
G1 X117.503 Y93.761 E0.01654
G1 X110.089 Y86.347 E0.32954
G1 X109.554 Y86.347 E0.01680
G1 X117.503 Y94.296 E0.35329
G1 X117.503 Y94.830 E0.01680
G1 X109.020 Y86.347 E0.37705
G1 X108.485 Y86.347 E0.01680
