; generated by Slic3r Prusa Edition 1.41.0+win64 on 2018-10-10 at 22:34:51

; 

; external perimeters extrusion width = 0.45mm
; perimeters extrusion width = 0.45mm
; infill extrusion width = 0.45mm
; solid infill extrusion width = 0.45mm
; top infill extrusion width = 0.40mm
; first layer extrusion width = 0.42mm

M201 X1000 Y1000 Z1000 E5000 ; sets maximum accelerations, mm/sec^2
M203 X200 Y200 Z12 E120 ; sets maximum feedrates, mm/sec
M204 P1250 R1250 T1250 ; sets acceleration (P, T) and retract acceleration (R), mm/sec^2
M205 X8.00 Y8.00 Z0.40 E1.50 ; sets the jerk limits, mm/sec
M205 S0 T0 ; sets the minimum extruding and travel feed rate, mm/sec
M107
M115 U3.4.0 ; tell printer latest fw version
M83  ; extruder relative mode
M104 S215 ; set extruder temp
M140 S65 ; set bed temp
M190 S65 ; wait for bed temp
M109 S215 ; wait for extruder temp
G28 W ; home all without mesh bed level
G80 ; mesh bed leveling
G1 Y-3.0 F1000.0 ; go outside print area
G92 E0.0
G1 X60.0 E9.0  F1000.0 ; intro line
M73 Q0 S20
M73 P0 R20
G1 X100.0 E12.5  F1000.0 ; intro line
G92 E0.0
M221 S95
M900 K30; Filament gcode
G21 ; set units to millimeters
G90 ; use absolute coordinates
M83 ; use relative distances for extrusion
;BEFORE_LAYER_CHANGE
G92 E0.0
;0.2


G1 E-0.80000 F2100.00000
G1 Z0.600 F10800.000
;AFTER_LAYER_CHANGE
;0.2
G1 X103.030 Y79.389
G1 Z0.200
G1 E0.80000 F2100.00000
M204 S1000
G1 F1200
G1 X103.362 Y78.770 E0.02202
G1 X103.700 Y78.418 E0.01532
G1 X104.108 Y78.149 E0.01532
G1 X104.566 Y77.978 E0.01532
G1 X105.054 Y77.912 E0.01544
G1 X144.904 Y77.911 E1.24946
G1 X145.723 Y78.072 E0.02620
G1 X146.423 Y78.529 E0.02620
G1 X146.901 Y79.214 E0.02620
G1 X147.087 Y80.028 E0.02620
G1 X147.088 Y129.918 E1.56426
G1 X146.970 Y130.611 E0.02202
G1 X146.638 Y131.230 E0.02202
G1 X146.294 Y131.587 E0.01555
G1 X145.879 Y131.858 E0.01555
G1 X145.413 Y132.028 E0.01555
G1 X144.920 Y132.088 E0.01555
G1 X105.078 Y132.088 E1.24923
G1 X104.389 Y131.970 E0.02191
G1 X103.770 Y131.638 E0.02202
G1 X103.413 Y131.294 E0.01555
G1 X103.142 Y130.879 E0.01555
G1 X102.972 Y130.413 E0.01555
G1 X102.912 Y129.917 E0.01567
G1 X102.912 Y80.082 E1.56254
G1 X103.020 Y79.449 E0.02014
; PURGING FINISHED
G1 F8640
G1 X103.362 Y78.770 E-0.17537
G1 X103.700 Y78.418 E-0.11285
G1 X104.108 Y78.149 E-0.11285
G1 X104.566 Y77.978 E-0.11285
G1 X105.054 Y77.912 E-0.11369
G1 X105.627 Y77.912 E-0.13240
G1 E-0.04000 F2100.00000
G1 Z0.800 F10800.000
G1 X123.766 Y120.363
G1 Z0.200
G1 E0.80000 F2100.00000
G1 F1200
G1 X124.156 Y120.181 E0.01349
G1 X124.571 Y120.070 E0.01349
G1 X124.977 Y120.034 E0.01278
G1 X125.423 Y120.068 E0.01403
G1 X125.844 Y120.181 E0.01365
G1 X126.234 Y120.363 E0.01349
G1 X126.586 Y120.610 E0.01349
G1 X126.890 Y120.914 E0.01349
G1 X127.137 Y121.266 E0.01349
G1 X127.319 Y121.656 E0.01349
G1 X127.430 Y122.071 E0.01349
G1 X127.468 Y122.500 E0.01349
G1 X127.430 Y122.929 E0.01349
G1 X127.319 Y123.344 E0.01349
G1 X127.137 Y123.734 E0.01349
G1 X126.890 Y124.086 E0.01349
G1 X126.602 Y124.374 E0.01278
G1 X126.239 Y124.635 E0.01403
G1 X125.844 Y124.819 E0.01365
G1 X125.429 Y124.930 E0.01349
G1 X125.000 Y124.968 E0.01349
G1 X124.571 Y124.930 E0.01349
G1 X124.156 Y124.819 E0.01349
G1 X123.787 Y124.647 E0.01278
G1 X123.417 Y124.394 E0.01403
G1 X123.110 Y124.086 E0.01365
G1 X122.863 Y123.734 E0.01349
G1 X122.681 Y123.344 E0.01349
G1 X122.570 Y122.929 E0.01349
G1 X122.532 Y122.500 E0.01349
G1 X122.570 Y122.071 E0.01349
G1 X122.681 Y121.656 E0.01349
G1 X122.863 Y121.266 E0.01349
G1 X123.110 Y120.914 E0.01349
G1 X123.414 Y120.610 E0.01349
G1 X123.717 Y120.397 E0.01161
G1 X123.933 Y120.706 F10800.000
G1 F1200
G1 X124.285 Y120.537 E0.01225
G1 X124.637 Y120.442 E0.01142
G1 X124.979 Y120.412 E0.01077
G1 X125.360 Y120.442 E0.01196
G1 X125.715 Y120.537 E0.01152
G1 X126.045 Y120.691 E0.01142
G1 X126.343 Y120.899 E0.01142
G1 X126.601 Y121.157 E0.01142
G1 X126.809 Y121.455 E0.01142
G1 X126.963 Y121.785 E0.01142
G1 X127.058 Y122.137 E0.01142
G1 X127.089 Y122.500 E0.01142
G1 X127.058 Y122.863 E0.01142
G1 X126.963 Y123.215 E0.01142
G1 X126.809 Y123.545 E0.01142
G1 X126.601 Y123.843 E0.01142
G1 X126.358 Y124.086 E0.01077
G1 X126.048 Y124.308 E0.01196
G1 X125.715 Y124.463 E0.01152
G1 X125.363 Y124.558 E0.01142
G1 X125.000 Y124.589 E0.01142
G1 X124.637 Y124.558 E0.01142
G1 X124.285 Y124.463 E0.01142
G1 X123.974 Y124.318 E0.01077
G1 X123.659 Y124.103 E0.01196
G1 X123.399 Y123.843 E0.01152
G1 X123.191 Y123.545 E0.01142
G1 X123.037 Y123.215 E0.01142
G1 X122.942 Y122.863 E0.01142
G1 X122.911 Y122.500 E0.01142
G1 X122.942 Y122.137 E0.01142
G1 X123.037 Y121.785 E0.01142
G1 X123.191 Y121.455 E0.01142
G1 X123.399 Y121.157 E0.01142
G1 X123.657 Y120.899 E0.01142
G1 X123.884 Y120.741 E0.00869
G1 X124.145 Y121.018 F10800.000
G1 F1200
G1 X124.415 Y120.892 E0.00935
G1 X124.703 Y120.815 E0.00935
G1 X124.981 Y120.791 E0.00877
G1 X125.296 Y120.815 E0.00989
G1 X125.585 Y120.892 E0.00939
G1 X125.855 Y121.018 E0.00935
G1 X126.100 Y121.189 E0.00935
G1 X126.311 Y121.400 E0.00935
G1 X126.482 Y121.645 E0.00935
G1 X126.608 Y121.915 E0.00935
G1 X126.685 Y122.203 E0.00935
G1 X126.711 Y122.500 E0.00935
G1 X126.685 Y122.797 E0.00935
G1 X126.608 Y123.085 E0.00935
G1 X126.482 Y123.355 E0.00935
G1 X126.311 Y123.600 E0.00935
G1 X126.113 Y123.797 E0.00877
G1 X125.856 Y123.981 E0.00989
G1 X125.585 Y124.108 E0.00939
G1 X125.297 Y124.185 E0.00935
G1 X125.000 Y124.211 E0.00935
G1 X124.703 Y124.185 E0.00935
G1 X124.415 Y124.108 E0.00935
G1 X124.161 Y123.989 E0.00877
G1 X123.901 Y123.811 E0.00989
G1 X123.689 Y123.600 E0.00939
G1 X123.518 Y123.355 E0.00935
G1 X123.392 Y123.085 E0.00935
G1 X123.315 Y122.797 E0.00935
G1 X123.289 Y122.500 E0.00935
G1 X123.315 Y122.203 E0.00935
G1 X123.392 Y121.915 E0.00935
G1 X123.518 Y121.645 E0.00935
G1 X123.689 Y121.400 E0.00935
G1 X123.900 Y121.189 E0.00935
G1 X124.095 Y121.053 E0.00747
G1 X124.145 Y120.720 F10800.000
G1 F8640
G1 X124.415 Y120.892 E-0.08254
G1 X124.703 Y120.815 E-0.06886
G1 X124.981 Y120.791 E-0.06457
G1 X125.296 Y120.815 E-0.07283
G1 X125.585 Y120.892 E-0.06912
G1 X125.855 Y121.018 E-0.06886
G1 X126.100 Y121.189 E-0.06886
G1 X126.311 Y121.400 E-0.06886
G1 X126.482 Y121.645 E-0.06886
G1 X126.608 Y121.915 E-0.06886
G1 X126.672 Y122.157 E-0.05780
G1 E-0.04000 F2100.00000
G1 Z0.800 F10800.000
G1 X126.036 Y115.964
G1 Z0.200
G1 E0.80000 F2100.00000
G1 F1200
G1 X126.036 Y94.036 E0.68755
G1 X140.464 Y94.036 E0.45239
G1 X140.464 Y115.964 E0.68755
G1 X126.096 Y115.964 E0.45051
G1 X126.413 Y115.587 F10800.000
G1 F1200
G1 X126.413 Y94.413 E0.66390
G1 X140.087 Y94.413 E0.42874
G1 X140.087 Y115.587 E0.66390
G1 X126.473 Y115.587 E0.42686
G1 X126.790 Y115.210 F10800.000
G1 F1200
G1 X126.790 Y94.790 E0.64025
G1 X139.710 Y94.790 E0.40510
G1 X139.710 Y115.210 E0.64025
G1 X126.850 Y115.210 E0.40322
G1 X126.412 Y115.342 F10800.000
G1 F8640
G1 X126.840 Y111.919 E-0.76000
G1 E-0.04000 F2100.00000
G1 Z0.800 F10800.000
G1 X125.000 Y89.968
G1 Z0.200
G1 E0.80000 F2100.00000
G1 F1200
G1 X124.571 Y89.930 E0.01349
G1 X124.156 Y89.819 E0.01349
G1 X123.766 Y89.637 E0.01349
G1 X123.414 Y89.390 E0.01349
G1 X123.110 Y89.086 E0.01349
G1 X122.863 Y88.734 E0.01349
G1 X122.681 Y88.344 E0.01349
G1 X122.570 Y87.929 E0.01349
G1 X122.532 Y87.500 E0.01349
G1 X122.570 Y87.071 E0.01349
G1 X122.681 Y86.656 E0.01349
G1 X122.863 Y86.266 E0.01349
G1 X123.110 Y85.914 E0.01349
G1 X123.414 Y85.610 E0.01349
G1 X123.766 Y85.363 E0.01349
G1 X124.156 Y85.181 E0.01349
G1 X124.571 Y85.070 E0.01349
G1 X124.977 Y85.034 E0.01278
G1 X125.423 Y85.068 E0.01403
G1 X125.844 Y85.181 E0.01365
G1 X126.234 Y85.363 E0.01349
G1 X126.586 Y85.610 E0.01349
G1 X126.890 Y85.914 E0.01349
G1 X127.137 Y86.266 E0.01349
G1 X127.319 Y86.656 E0.01349
G1 X127.430 Y87.071 E0.01349
G1 X127.468 Y87.500 E0.01349
G1 X127.430 Y87.929 E0.01349
G1 X127.319 Y88.344 E0.01349
G1 X127.137 Y88.734 E0.01349
G1 X126.890 Y89.086 E0.01349
G1 X126.586 Y89.390 E0.01349
G1 X126.234 Y89.637 E0.01349
G1 X125.844 Y89.819 E0.01349
G1 X125.429 Y89.930 E0.01349
G1 X125.060 Y89.963 E0.01161
G1 X125.027 Y89.587 F10800.000
G1 F1200
G1 X124.637 Y89.558 E0.01225
G1 X124.285 Y89.463 E0.01142
G1 X123.955 Y89.309 E0.01142
G1 X123.657 Y89.101 E0.01142
G1 X123.399 Y88.843 E0.01142
G1 X123.191 Y88.545 E0.01142
G1 X123.037 Y88.215 E0.01142
G1 X122.942 Y87.863 E0.01142
G1 X122.911 Y87.500 E0.01142
G1 X122.942 Y87.137 E0.01142
G1 X123.037 Y86.785 E0.01142
G1 X123.191 Y86.455 E0.01142
G1 X123.399 Y86.157 E0.01142
G1 X123.657 Y85.899 E0.01142
G1 X123.955 Y85.691 E0.01142
G1 X124.285 Y85.537 E0.01142
G1 X124.637 Y85.442 E0.01142
G1 X124.979 Y85.412 E0.01077
G1 X125.360 Y85.442 E0.01196
G1 X125.715 Y85.537 E0.01152
G1 X126.045 Y85.691 E0.01142
G1 X126.343 Y85.899 E0.01142
G1 X126.601 Y86.157 E0.01142
G1 X126.809 Y86.455 E0.01142
G1 X126.963 Y86.785 E0.01142
G1 X127.058 Y87.137 E0.01142
G1 X127.089 Y87.500 E0.01142
G1 X127.058 Y87.863 E0.01142
G1 X126.963 Y88.215 E0.01142
G1 X126.809 Y88.545 E0.01142
G1 X126.601 Y88.843 E0.01142
G1 X126.343 Y89.101 E0.01142
G1 X126.045 Y89.309 E0.01142
G1 X125.715 Y89.463 E0.01142
G1 X125.363 Y89.558 E0.01142
G1 X125.087 Y89.582 E0.00869
G1 X125.000 Y89.211 F10800.000
G1 F1200
G1 X124.703 Y89.185 E0.00935
G1 X124.415 Y89.108 E0.00935
G1 X124.145 Y88.982 E0.00935
G1 X123.900 Y88.811 E0.00935
G1 X123.689 Y88.600 E0.00935
G1 X123.518 Y88.355 E0.00935
G1 X123.392 Y88.085 E0.00935
G1 X123.315 Y87.797 E0.00935
G1 X123.289 Y87.500 E0.00935
G1 X123.315 Y87.203 E0.00935
G1 X123.392 Y86.915 E0.00935
G1 X123.518 Y86.645 E0.00935
G1 X123.689 Y86.400 E0.00935
G1 X123.900 Y86.189 E0.00935
G1 X124.145 Y86.018 E0.00935
G1 X124.415 Y85.892 E0.00935
G1 X124.703 Y85.815 E0.00935
G1 X124.981 Y85.791 E0.00877
G1 X125.296 Y85.815 E0.00989
G1 X125.585 Y85.892 E0.00939
G1 X125.855 Y86.018 E0.00935
G1 X126.100 Y86.189 E0.00935
G1 X126.311 Y86.400 E0.00935
G1 X126.482 Y86.645 E0.00935
G1 X126.608 Y86.915 E0.00935
G1 X126.685 Y87.203 E0.00935
G1 X126.711 Y87.500 E0.00935
G1 X126.685 Y87.797 E0.00935
G1 X126.608 Y88.085 E0.00935
G1 X126.482 Y88.355 E0.00935
G1 X126.311 Y88.600 E0.00935
G1 X126.100 Y88.811 E0.00935
G1 X125.855 Y88.982 E0.00935
G1 X125.585 Y89.108 E0.00935
G1 X125.297 Y89.185 E0.00935
G1 X125.060 Y89.206 E0.00747
G1 X124.851 Y89.469 F10800.000
G1 F8640
G1 X124.703 Y89.185 E-0.08254
G1 X124.415 Y89.108 E-0.06886
G1 X124.145 Y88.982 E-0.06886
G1 X123.900 Y88.811 E-0.06886
G1 X123.689 Y88.600 E-0.06886
G1 X123.518 Y88.355 E-0.06886
G1 X123.392 Y88.085 E-0.06886
G1 X123.315 Y87.797 E-0.06886
G1 X123.289 Y87.500 E-0.06886
G1 X123.315 Y87.203 E-0.06886
G1 X123.380 Y86.961 E-0.05774
G1 E-0.04000 F2100.00000
G1 Z0.800 F10800.000
G1 X123.964 Y94.036
G1 Z0.200
G1 E0.80000 F2100.00000
G1 F1200
G1 X123.964 Y115.964 E0.68755
G1 X109.536 Y115.964 E0.45239
G1 X109.536 Y94.036 E0.68755
G1 X123.904 Y94.036 E0.45051
G1 X123.587 Y94.413 F10800.000
G1 F1200
G1 X123.587 Y115.587 E0.66390
G1 X109.913 Y115.587 E0.42874
G1 X109.913 Y94.413 E0.66390
G1 X123.527 Y94.413 E0.42686
G1 X123.210 Y94.790 F10800.000
G1 F1200
G1 X123.210 Y115.210 E0.64025
G1 X110.290 Y115.210 E0.40510
G1 X110.290 Y94.790 E0.64025
G1 X123.150 Y94.790 E0.40322
G1 X123.588 Y94.658 F10800.000
G1 F8640
G1 X123.160 Y98.081 E-0.76000
G1 E-0.04000 F2100.00000
G1 Z0.800 F10800.000
G1 X106.064 Y81.064
G1 Z0.200
G1 E0.80000 F2100.00000
G1 F1200
G1 X143.936 Y81.064 E1.18744
G1 X143.936 Y128.936 E1.50098
G1 X106.064 Y128.936 E1.18744
G1 X106.064 Y81.124 E1.49910
G1 X105.687 Y80.687 F10800.000
G1 F1200
G1 X144.313 Y80.687 E1.21109
G1 X144.313 Y129.313 E1.52463
G1 X105.687 Y129.313 E1.21109
G1 X105.687 Y80.747 E1.52275
G1 X105.310 Y80.310 F10800.000
G1 F1200
G1 X144.690 Y80.310 E1.23473
M73 Q5 S19
M73 P5 R19
G1 X144.690 Y129.690 E1.54828
G1 X105.310 Y129.690 E1.23473
G1 X105.310 Y80.370 E1.54639
G1 X105.692 Y80.428 F10800.000
G1 F8640
G1 X108.601 Y80.365 E-0.76000
G1 E-0.04000 F2100.00000
G1 Z0.800 F10800.000
G1 X123.793 Y93.923
G1 Z0.200
G1 E0.80000 F2100.00000
G1 F1200
G1 X111.217 Y81.347 E0.55791
G1 X110.684 Y81.347 E0.01674
G1 X123.090 Y93.753 E0.55038
G1 X122.556 Y93.753 E0.01674
G1 X110.150 Y81.347 E0.55038
G1 X109.617 Y81.347 E0.01674
G1 X122.023 Y93.753 E0.55038
G1 X121.489 Y93.753 E0.01674
G1 X109.083 Y81.347 E0.55038
G1 X108.550 Y81.347 E0.01674
G1 X120.956 Y93.753 E0.55038
G1 X120.422 Y93.753 E0.01674
G1 X108.016 Y81.347 E0.55038
G1 X107.483 Y81.347 E0.01674
G1 X119.889 Y93.753 E0.55038
G1 X119.355 Y93.753 E0.01674
G1 X106.949 Y81.347 E0.55038
G1 X106.416 Y81.347 E0.01674
G1 X118.822 Y93.753 E0.55038
G1 X118.288 Y93.753 E0.01674
G1 X106.347 Y81.812 E0.52976
G1 X106.347 Y82.345 E0.01674
G1 X117.755 Y93.753 E0.50609
G1 X117.221 Y93.753 E0.01674
G1 X106.347 Y82.879 E0.48242
G1 X106.347 Y83.412 E0.01674
G1 X116.688 Y93.753 E0.45875
G1 X116.154 Y93.753 E0.01674
G1 X106.347 Y83.946 E0.43508
G1 X106.347 Y84.480 E0.01674
G1 X115.620 Y93.753 E0.41141
G1 X115.087 Y93.753 E0.01674
G1 X106.347 Y85.013 E0.38774
G1 X106.347 Y85.547 E0.01674
G1 X114.553 Y93.753 E0.36407
G1 X114.020 Y93.753 E0.01674
G1 X106.347 Y86.080 E0.34040
G1 X106.347 Y86.614 E0.01674
G1 X113.486 Y93.753 E0.31673
G1 X112.953 Y93.753 E0.01674
G1 X106.347 Y87.147 E0.29306
G1 X106.347 Y87.681 E0.01674
G1 X112.419 Y93.753 E0.26939
G1 X111.886 Y93.753 E0.01674
G1 X106.347 Y88.214 E0.24572
G1 X106.347 Y88.748 E0.01674
G1 X111.352 Y93.753 E0.22205
G1 X110.819 Y93.753 E0.01674
G1 X106.347 Y89.281 E0.19838
G1 X106.347 Y89.815 E0.01674
G1 X110.285 Y93.753 E0.17471
G1 X109.752 Y93.753 E0.01674
G1 X106.347 Y90.348 E0.15104
G1 X106.347 Y90.882 E0.01674
G1 X109.253 Y93.788 E0.12893
G1 X109.253 Y94.322 E0.01674
G1 X106.347 Y91.416 E0.12893
G1 X106.347 Y91.949 E0.01674
G1 X109.253 Y94.855 E0.12893
G1 X109.253 Y95.389 E0.01674
G1 X106.347 Y92.483 E0.12893
G1 X106.347 Y93.016 E0.01674
G1 X109.253 Y95.922 E0.12893
G1 X109.253 Y96.456 E0.01674
G1 X106.347 Y93.550 E0.12893
G1 X106.347 Y94.083 E0.01674
G1 X109.253 Y96.989 E0.12893
G1 X109.253 Y97.523 E0.01674
G1 X106.347 Y94.617 E0.12893
G1 X106.347 Y95.150 E0.01674
G1 X109.253 Y98.056 E0.12893
G1 X109.253 Y98.590 E0.01674
G1 X106.347 Y95.684 E0.12893
G1 X106.347 Y96.217 E0.01674
G1 X109.253 Y99.124 E0.12893
G1 X109.253 Y99.657 E0.01674
G1 X106.347 Y96.751 E0.12893
G1 X106.347 Y97.284 E0.01674
G1 X109.253 Y100.191 E0.12893
G1 X109.253 Y100.724 E0.01674
G1 X106.347 Y97.818 E0.12893
G1 X106.347 Y98.352 E0.01674
G1 X109.253 Y101.258 E0.12893
G1 X109.253 Y101.791 E0.01674
G1 X106.347 Y98.885 E0.12893
G1 X106.347 Y99.419 E0.01674
G1 X109.253 Y102.325 E0.12893
G1 X109.253 Y102.858 E0.01674
G1 X106.347 Y99.952 E0.12893
G1 X106.347 Y100.486 E0.01674
G1 X109.253 Y103.392 E0.12893
G1 X109.253 Y103.925 E0.01674
G1 X106.347 Y101.019 E0.12893
G1 X106.347 Y101.553 E0.01674
G1 X109.253 Y104.459 E0.12893
G1 X109.253 Y104.992 E0.01674
G1 X106.347 Y102.086 E0.12893
G1 X106.347 Y102.620 E0.01674
G1 X109.253 Y105.526 E0.12893
G1 X109.253 Y106.060 E0.01674
G1 X106.347 Y103.153 E0.12893
G1 X106.347 Y103.687 E0.01674
G1 X109.253 Y106.593 E0.12893
G1 X109.253 Y107.127 E0.01674
G1 X106.347 Y104.221 E0.12893
G1 X106.347 Y104.754 E0.01674
G1 X109.253 Y107.660 E0.12893
G1 X109.253 Y108.194 E0.01674
G1 X106.347 Y105.288 E0.12893
G1 X106.347 Y105.821 E0.01674
G1 X109.253 Y108.727 E0.12893
G1 X109.253 Y109.261 E0.01674
G1 X106.347 Y106.355 E0.12893
G1 X106.347 Y106.888 E0.01674
G1 X109.253 Y109.794 E0.12893
G1 X109.253 Y110.328 E0.01674
G1 X106.347 Y107.422 E0.12893
G1 X106.347 Y107.955 E0.01674
G1 X109.253 Y110.861 E0.12893
G1 X109.253 Y111.395 E0.01674
G1 X106.347 Y108.489 E0.12893
G1 X106.347 Y109.022 E0.01674
G1 X109.253 Y111.928 E0.12893
G1 X109.253 Y112.462 E0.01674
G1 X106.347 Y109.556 E0.12893
G1 X106.347 Y110.089 E0.01674
G1 X109.253 Y112.996 E0.12893
G1 X109.253 Y113.529 E0.01674
G1 X106.347 Y110.623 E0.12893
G1 X106.347 Y111.157 E0.01674
G1 X109.253 Y114.063 E0.12893
G1 X109.253 Y114.596 E0.01674
G1 X106.347 Y111.690 E0.12893
G1 X106.347 Y112.224 E0.01674
G1 X109.253 Y115.130 E0.12893
G1 X109.253 Y115.663 E0.01674
G1 X106.347 Y112.757 E0.12893
G1 X106.347 Y113.291 E0.01674
G1 X121.709 Y128.653 E0.68154
G1 X122.243 Y128.653 E0.01674
