; generated by Slic3r Prusa Edition 1.41.0+win64 on 2019-02-10 at 14:39:34

; 

; external perimeters extrusion width = 0.45mm
; perimeters extrusion width = 0.45mm
; infill extrusion width = 0.45mm
; solid infill extrusion width = 0.45mm
; top infill extrusion width = 0.40mm
; first layer extrusion width = 0.42mm

M201 X1000 Y1000 Z1000 E5000 ; sets maximum accelerations, mm/sec^2
M203 X200 Y200 Z12 E120 ; sets maximum feedrates, mm/sec
M204 P1250 R1250 T1250 ; sets acceleration (P, T) and retract acceleration (R), mm/sec^2
M205 X8.00 Y8.00 Z0.40 E1.50 ; sets the jerk limits, mm/sec
M205 S0 T0 ; sets the minimum extruding and travel feed rate, mm/sec
M107
M115 U3.4.1 ; tell printer latest fw version
M83  ; extruder relative mode
M104 S215 ; set extruder temp
M140 S60 ; set bed temp
M190 S60 ; wait for bed temp
M109 S215 ; wait for extruder temp
G28 W ; home all without mesh bed level
G80 ; mesh bed leveling
G1 Y-3.0 F1000.0 ; go outside print area
G92 E0.0
G1 X60.0 E9.0  F1000.0 ; intro line
M73 Q0 S31
M73 P0 R31
G1 X100.0 E12.5  F1000.0 ; intro line
G92 E0.0
M221 S95
M900 K30; Filament gcode
G21 ; set units to millimeters
G90 ; use absolute coordinates
M83 ; use relative distances for extrusion
;BEFORE_LAYER_CHANGE
G92 E0.0
;0.2


G1 E-0.80000 F2100.00000
G1 Z0.600 F10800.000
;AFTER_LAYER_CHANGE
;0.2
G1 X86.962 Y79.098
G1 Z0.200
G1 E0.80000 F2100.00000
M204 S1000
G1 F1200
G1 X89.255 Y76.853 E0.10062
G1 X90.980 Y75.493 E0.06888
G1 X92.843 Y74.328 E0.06888
G1 X120.400 Y61.235 E0.95659
G1 X122.393 Y60.423 E0.06749
G1 X123.783 Y59.997 E0.04558
G1 X125.211 Y59.670 E0.04593
G1 X126.648 Y59.449 E0.04558
G1 X128.108 Y59.331 E0.04593
G1 X147.411 Y59.311 E0.60523
G1 X149.218 Y59.393 E0.05671
G1 X151.010 Y59.637 E0.05671
G1 X152.774 Y60.040 E0.05671
G1 X154.504 Y60.603 E0.05706
G1 X156.167 Y61.314 E0.05671
G1 X157.760 Y62.172 E0.05671
G1 X159.278 Y63.175 E0.05706
G1 X160.691 Y64.304 E0.05671
G1 X162.746 Y66.295 E0.08971
G1 X163.781 Y67.424 E0.04802
G1 X164.903 Y68.871 E0.05741
G1 X165.894 Y70.424 E0.05776
G1 X166.772 Y72.131 E0.06019
G1 X167.488 Y73.924 E0.06054
G1 X168.026 Y75.767 E0.06019
G1 X168.388 Y77.663 E0.06054
G1 X168.588 Y80.373 E0.08521
G1 X168.565 Y105.476 E0.78709
G1 X165.943 Y127.803 E0.70484
G1 X165.696 Y129.202 E0.04454
G1 X165.349 Y130.591 E0.04489
G1 X164.373 Y133.257 E0.08903
G1 X160.965 Y140.090 E0.23940
G1 X160.157 Y141.456 E0.04976
G1 X159.244 Y142.754 E0.04976
G1 X158.195 Y144.018 E0.05150
G1 X157.039 Y145.199 E0.05184
G1 X155.798 Y146.276 E0.05150
G1 X154.474 Y147.247 E0.05150
G1 X153.066 Y148.114 E0.05184
G1 X151.601 Y148.857 E0.05150
G1 X150.081 Y149.480 E0.05150
G1 X148.505 Y149.979 E0.05184
G1 X146.181 Y150.467 E0.07444
G1 X143.828 Y150.679 E0.07409
G1 X132.967 Y150.687 E0.34054
G1 X130.665 Y150.529 E0.07235
G1 X128.256 Y150.074 E0.07687
G1 X125.909 Y149.326 E0.07722
G1 X94.956 Y136.688 E1.04829
G1 X92.564 Y135.519 E0.08347
G1 X90.346 Y134.047 E0.08347
G1 X88.748 Y132.689 E0.06575
G1 X86.602 Y130.514 E0.09581
G1 X85.296 Y128.902 E0.06506
G1 X84.163 Y127.164 E0.06506
G1 X83.159 Y125.197 E0.06923
G1 X82.380 Y123.143 E0.06888
G1 X81.829 Y121.016 E0.06888
G1 X81.511 Y118.831 E0.06923
G1 X81.429 Y117.102 E0.05428
G1 X81.411 Y92.995 E0.75587
G1 X81.525 Y90.868 E0.06679
G1 X82.001 Y88.158 E0.08625
G1 X82.846 Y85.529 E0.08660
G1 X84.036 Y83.049 E0.08625
G1 X85.552 Y80.753 E0.08625
G1 X86.923 Y79.144 E0.06630
; PURGING FINISHED
G1 F8640
G1 X89.255 Y76.853 E-0.75479
G1 X89.273 Y76.839 E-0.00521
G1 E-0.04000 F2100.00000
G1 Z0.800 F10800.000
G1 X136.621 Y124.765
G1 Z0.200
G1 E0.80000 F2100.00000
G1 F1200
G1 X139.779 Y124.765 E0.09902
G1 X141.358 Y127.500 E0.09902
G1 X139.779 Y130.235 E0.09902
G1 X136.621 Y130.235 E0.09902
G1 X135.042 Y127.500 E0.09902
G1 X136.591 Y124.817 E0.09714
G1 X136.621 Y124.365 F10800.000
G1 F8640
G1 X139.779 Y124.765 E-0.73624
G1 X139.831 Y124.854 E-0.02376
G1 E-0.04000 F2100.00000
G1 Z0.800 F10800.000
G1 X135.786 Y81.611
G1 Z0.200
G1 E0.80000 F2100.00000
G1 F1200
G1 X139.814 Y81.611 E0.12632
G1 X141.829 Y85.100 E0.12632
G1 X139.814 Y88.589 E0.12632
G1 X135.786 Y88.589 E0.12632
G1 X133.771 Y85.100 E0.12632
G1 X135.756 Y81.663 E0.12444
G1 X136.003 Y81.988 F10800.000
G1 F1200
G1 X139.597 Y81.988 E0.11267
G1 X141.394 Y85.100 E0.11267
G1 X139.597 Y88.212 E0.11267
G1 X136.003 Y88.212 E0.11267
G1 X134.206 Y85.100 E0.11267
G1 X135.973 Y82.040 E0.11079
G1 X136.221 Y82.365 F10800.000
G1 F1200
G1 X139.379 Y82.365 E0.09902
G1 X140.958 Y85.100 E0.09902
G1 X139.379 Y87.835 E0.09902
G1 X136.221 Y87.835 E0.09902
G1 X134.642 Y85.100 E0.09902
G1 X136.191 Y82.417 E0.09714
G1 X136.221 Y81.965 F10800.000
G1 F8640
G1 X139.379 Y82.365 E-0.73624
G1 X139.431 Y82.454 E-0.02376
G1 E-0.04000 F2100.00000
G1 Z0.800 F10800.000
G1 X142.229 Y127.500
G1 Z0.200
G1 E0.80000 F2100.00000
G1 F1200
G1 X140.214 Y124.011 E0.12632
G1 X136.186 Y124.011 E0.12632
G1 X134.171 Y127.500 E0.12632
G1 X135.346 Y129.536 E0.07371
G1 X133.796 Y129.536 E0.04862
G1 X131.414 Y124.772 E0.16698
G1 X131.414 Y106.101 E0.58544
G1 X129.849 Y104.536 E0.06939
G1 X129.399 Y104.536 E0.01411
G1 X128.964 Y104.101 E0.01930
G1 X128.964 Y80.899 E0.72746
G1 X129.399 Y80.464 E0.01930
G1 X147.001 Y80.464 E0.55188
G1 X147.436 Y80.899 E0.01930
G1 X147.436 Y104.101 E0.72746
G1 X147.001 Y104.536 E0.01930
G1 X146.551 Y104.536 E0.01411
G1 X144.986 Y106.101 E0.06939
G1 X144.986 Y124.772 E0.58544
G1 X142.604 Y129.536 E0.16698
G1 X141.054 Y129.536 E0.04862
G1 X142.199 Y127.552 E0.07183
G1 X141.794 Y127.500 F10800.000
G1 F1200
G1 X139.997 Y124.388 E0.11267
G1 X136.403 Y124.388 E0.11267
G1 X134.606 Y127.500 E0.11267
G1 X136.000 Y129.913 E0.08736
G1 X133.563 Y129.913 E0.07640
G1 X131.037 Y124.861 E0.17708
G1 X131.037 Y106.257 E0.58333
G1 X129.693 Y104.913 E0.05959
G1 X129.243 Y104.913 E0.01411
G1 X128.587 Y104.257 E0.02909
G1 X128.587 Y80.743 E0.73725
G1 X129.243 Y80.087 E0.02909
G1 X147.157 Y80.087 E0.56167
G1 X147.813 Y80.743 E0.02909
G1 X147.813 Y104.257 E0.73725
G1 X147.157 Y104.913 E0.02909
G1 X146.707 Y104.913 E0.01411
G1 X145.363 Y106.257 E0.05959
G1 X145.363 Y124.861 E0.58333
G1 X142.837 Y129.913 E0.17708
G1 X140.400 Y129.913 E0.07640
G1 X141.764 Y127.552 E0.08548
G1 F8640
G1 X140.159 Y124.678 E-0.76000
G1 E-0.04000 F2100.00000
G1 Z0.800 F10800.000
G1 X143.070 Y130.290
G1 Z0.200
G1 E0.80000 F2100.00000
G1 F1200
G1 X133.330 Y130.290 E0.30540
G1 X130.660 Y124.950 E0.18718
G1 X130.660 Y106.413 E0.58123
G1 X129.537 Y105.290 E0.04980
G1 X129.087 Y105.290 E0.01411
G1 X128.210 Y104.413 E0.03889
G1 X128.210 Y80.587 E0.74705
G1 X129.087 Y79.710 E0.03889
G1 X147.313 Y79.710 E0.57146
G1 X148.190 Y80.587 E0.03889
G1 X148.190 Y104.413 E0.74705
G1 X147.313 Y105.290 E0.03889
G1 X146.863 Y105.290 E0.01411
G1 X145.740 Y106.413 E0.04980
G1 X145.740 Y124.950 E0.58123
G1 X143.097 Y130.236 E0.18530
G1 X142.731 Y130.077 F10800.000
G1 F8640
G1 X139.806 Y130.254 E-0.76000
G1 E-0.04000 F2100.00000
G1 Z0.800 F10800.000
G1 X142.118 Y129.423
G1 Z0.200
G1 E0.80000 F2100.00000
G1 F1200
G1 X141.692 Y128.996 E0.01896
G1 X141.887 Y128.657 E0.01229
G1 X142.447 Y129.217 E0.02488
G1 X142.625 Y128.861 E0.01252
G1 X142.083 Y128.318 E0.02410
G1 X142.279 Y127.980 E0.01229
G1 X142.804 Y128.505 E0.02333
G1 X142.982 Y128.148 E0.01252
G1 X142.474 Y127.641 E0.02255
G1 X142.555 Y127.500 E0.00511
G1 X142.129 Y126.761 E0.02681
G1 X143.286 Y127.919 E0.05143
G1 X143.464 Y127.562 F10800.000
G1 F1200
G1 X140.935 Y125.033 E0.11239
G1 F8640
G1 X143.263 Y127.360 E-0.76000
G1 E-0.04000 F2100.00000
G1 Z0.800 F10800.000
G1 X144.873 Y119.886
G1 Z0.200
G1 E0.80000 F2100.00000
G1 F1200
G1 X131.697 Y106.710 E0.58548
G1 X131.697 Y107.244 E0.01679
G1 X144.703 Y120.250 E0.57794
G1 X144.703 Y120.785 E0.01679
G1 X131.697 Y107.779 E0.57794
G1 X131.697 Y108.313 E0.01679
G1 X144.703 Y121.319 E0.57794
G1 X144.703 Y121.854 E0.01679
G1 X131.697 Y108.848 E0.57794
G1 X131.697 Y109.382 E0.01679
G1 X144.703 Y122.388 E0.57794
G1 X144.703 Y122.922 E0.01679
G1 X131.697 Y109.916 E0.57794
G1 X131.697 Y110.451 E0.01679
G1 X144.703 Y123.457 E0.57794
G1 X144.703 Y123.991 E0.01679
G1 X131.697 Y110.985 E0.57794
G1 X131.697 Y111.520 E0.01679
G1 X144.703 Y124.526 E0.57794
G1 X144.703 Y124.706 E0.00565
G1 X144.585 Y124.942 E0.00830
G1 X131.697 Y112.054 E0.57269
G1 X131.697 Y112.588 E0.01679
G1 X144.407 Y125.298 E0.56477
G1 X144.229 Y125.654 E0.01252
G1 X131.697 Y113.123 E0.55685
M73 Q3 S30
M73 P3 R30
G1 X131.697 Y113.657 E0.01679
G1 X144.051 Y126.011 E0.54894
G1 X143.872 Y126.367 E0.01252
G1 X131.697 Y114.192 E0.54102
G1 X131.697 Y114.726 E0.01679
G1 X143.694 Y126.723 E0.53311
G1 X143.516 Y127.080 E0.01252
G1 X131.697 Y115.260 E0.52519
G1 X131.697 Y115.795 E0.01679
G1 X139.630 Y123.728 E0.35252
G1 X139.096 Y123.728 E0.01679
G1 X131.697 Y116.329 E0.32877
G1 X131.697 Y116.864 E0.01679
G1 X138.561 Y123.728 E0.30503
G1 X138.027 Y123.728 E0.01679
G1 X131.697 Y117.398 E0.28128
G1 X131.697 Y117.932 E0.01679
G1 X137.493 Y123.728 E0.25753
G1 X136.958 Y123.728 E0.01679
G1 X131.697 Y118.467 E0.23379
G1 X131.697 Y119.001 E0.01679
G1 X136.424 Y123.728 E0.21004
G1 X136.022 Y123.728 E0.01262
G1 X135.974 Y123.812 E0.00306
G1 X131.697 Y119.536 E0.19004
G1 X131.697 Y120.070 E0.01679
G1 X135.778 Y124.151 E0.18135
G1 X135.582 Y124.490 E0.01229
G1 X131.697 Y120.604 E0.17265
G1 X131.697 Y121.139 E0.01679
G1 X135.387 Y124.829 E0.16396
G1 X135.191 Y125.167 E0.01229
G1 X131.697 Y121.673 E0.15527
G1 X131.697 Y122.208 E0.01679
G1 X134.996 Y125.506 E0.14658
G1 X134.800 Y125.845 E0.01229
G1 X131.697 Y122.742 E0.13789
G1 X131.697 Y123.276 E0.01679
G1 X134.604 Y126.184 E0.12920
G1 X134.409 Y126.523 E0.01229
G1 X131.697 Y123.811 E0.12050
G1 X131.697 Y124.345 E0.01679
G1 X134.213 Y126.861 E0.11181
G1 X134.018 Y127.200 E0.01229
G1 X131.527 Y124.710 E0.11066
G1 F8640
G1 X133.855 Y127.037 E-0.76000
G1 E-0.04000 F2100.00000
G1 Z0.800 F10800.000
G1 X132.026 Y125.743
G1 Z0.200
G1 E0.80000 F2100.00000
G1 F1200
G1 X134.392 Y128.109 E0.10515
G1 F8640
G1 X132.065 Y125.782 E-0.76000
G1 E-0.04000 F2100.00000
G1 Z0.800 F10800.000
G1 X133.095 Y127.881
G1 Z0.200
G1 E0.80000 F2100.00000
G1 F1200
G1 X134.637 Y129.423 E0.06853
G1 X135.122 Y129.374 F10800.000
G1 F1200
G1 X132.560 Y126.812 E0.11384
G1 F8640
G1 X134.888 Y129.139 E-0.76000
G1 E-0.04000 F2100.00000
G1 Z0.800 F10800.000
G1 X129.077 Y103.556
G1 Z0.200
G1 E0.80000 F2100.00000
G1 F1200
G1 X144.703 Y119.182 E0.69434
G1 X144.703 Y118.647 E0.01679
G1 X129.247 Y103.191 E0.68680
G1 X129.247 Y102.657 E0.01679
G1 X144.703 Y118.113 E0.68680
G1 X144.703 Y117.578 E0.01679
G1 X129.247 Y102.122 E0.68680
G1 X129.247 Y101.588 E0.01679
G1 X144.703 Y117.044 E0.68680
G1 X144.703 Y116.510 E0.01679
G1 X129.247 Y101.054 E0.68680
G1 X129.247 Y100.519 E0.01679
G1 X144.703 Y115.975 E0.68680
G1 X144.703 Y115.441 E0.01679
G1 X129.247 Y99.985 E0.68680
G1 X129.247 Y99.450 E0.01679
G1 X144.703 Y114.906 E0.68680
G1 X144.703 Y114.372 E0.01679
G1 X129.247 Y98.916 E0.68680
G1 X129.247 Y98.382 E0.01679
G1 X144.703 Y113.838 E0.68680
G1 X144.703 Y113.303 E0.01679
G1 X129.247 Y97.847 E0.68680
G1 X129.247 Y97.313 E0.01679
G1 X144.703 Y112.769 E0.68680
G1 X144.703 Y112.234 E0.01679
G1 X129.247 Y96.778 E0.68680
G1 X129.247 Y96.244 E0.01679
G1 X144.703 Y111.700 E0.68680
G1 X144.703 Y111.166 E0.01679
G1 X129.247 Y95.710 E0.68680
G1 X129.247 Y95.175 E0.01679
G1 X144.703 Y110.631 E0.68680
G1 X144.703 Y110.097 E0.01679
G1 X129.247 Y94.641 E0.68680
G1 X129.247 Y94.106 E0.01679
G1 X144.703 Y109.562 E0.68680
G1 X144.703 Y109.028 E0.01679
G1 X129.247 Y93.572 E0.68680
G1 X129.247 Y93.038 E0.01679
G1 X144.703 Y108.494 E0.68680
G1 X144.703 Y107.959 E0.01679
G1 X129.247 Y92.503 E0.68680
G1 X129.247 Y91.969 E0.01679
G1 X144.703 Y107.425 E0.68680
G1 X144.703 Y106.890 E0.01679
G1 X129.247 Y91.434 E0.68680
G1 X129.247 Y90.900 E0.01679
G1 X144.703 Y106.356 E0.68680
G1 X144.703 Y105.983 E0.01171
G1 X144.784 Y105.903 E0.00360
G1 X129.247 Y90.366 E0.69040
G1 X129.247 Y89.831 E0.01679
G1 X145.051 Y105.635 E0.70227
G1 X145.318 Y105.368 E0.01187
G1 X129.247 Y89.297 E0.71415
G1 X129.247 Y88.762 E0.01679
G1 X145.586 Y105.101 E0.72602
G1 X145.853 Y104.834 E0.01187
G1 X129.247 Y88.228 E0.73789
G1 X129.247 Y87.694 E0.01679
G1 X146.120 Y104.567 E0.74977
G1 X146.387 Y104.299 E0.01187
G1 X129.247 Y87.159 E0.76164
G1 X129.247 Y86.625 E0.01679
G1 X146.875 Y104.253 E0.78333
G1 X147.147 Y103.990 E0.01187
G1 X129.247 Y86.090 E0.79538
G1 X129.247 Y85.556 E0.01679
G1 X147.153 Y103.462 E0.79567
G1 X147.153 Y102.928 E0.01679
G1 X129.247 Y85.021 E0.79567
G1 X129.247 Y84.487 E0.01679
G1 X147.153 Y102.393 E0.79567
G1 X147.153 Y101.859 E0.01679
G1 X129.247 Y83.953 E0.79567
G1 X129.247 Y83.418 E0.01679
G1 X147.153 Y101.324 E0.79567
G1 X147.153 Y100.790 E0.01679
G1 X129.247 Y82.884 E0.79567
G1 X129.247 Y82.349 E0.01679
G1 X147.323 Y100.425 E0.80321
M73 Q6 S29
M73 P6 R29
G1 F8640
G1 X144.995 Y98.098 E-0.76000
G1 E-0.04000 F2100.00000
G1 Z0.800 F10800.000
G1 X147.323 Y90.272
G1 Z0.200
G1 E0.80000 F2100.00000
G1 F1200
G1 X142.154 Y85.103 E0.22968
G1 X141.958 Y85.442 E0.01229
G1 X147.153 Y90.636 E0.23083
G1 X147.153 Y91.171 E0.01679
G1 X141.763 Y85.780 E0.23953
G1 X141.567 Y86.119 E0.01229
G1 X147.153 Y91.705 E0.24822
G1 X147.153 Y92.240 E0.01679
G1 X141.371 Y86.458 E0.25691
G1 X141.176 Y86.797 E0.01229
G1 X147.153 Y92.774 E0.26560
G1 X147.153 Y93.308 E0.01679
G1 X140.980 Y87.136 E0.27429
G1 X140.785 Y87.474 E0.01229
G1 X147.153 Y93.843 E0.28299
G1 X147.153 Y94.377 E0.01679
G1 X140.589 Y87.813 E0.29168
G1 X140.393 Y88.152 E0.01229
G1 X147.153 Y94.912 E0.30037
G1 X147.153 Y95.446 E0.01679
G1 X140.198 Y88.491 E0.30906
G1 X140.002 Y88.830 E0.01229
G1 X147.153 Y95.980 E0.31775
G1 X147.153 Y96.515 E0.01679
G1 X139.510 Y88.872 E0.33961
G1 X138.976 Y88.872 E0.01679
G1 X147.153 Y97.049 E0.36336
G1 X147.153 Y97.584 E0.01679
G1 X138.441 Y88.872 E0.38711
G1 X137.907 Y88.872 E0.01679
G1 X147.153 Y98.118 E0.41085
G1 X147.153 Y98.652 E0.01679
G1 X137.373 Y88.872 E0.43460
G1 X136.838 Y88.872 E0.01679
G1 X147.153 Y99.187 E0.45835
G1 X147.153 Y99.721 E0.01679
G1 X136.134 Y88.702 E0.48963
G1 F8640
G1 X138.462 Y91.030 E-0.76000
G1 E-0.04000 F2100.00000
G1 Z0.800 F10800.000
G1 X135.155 Y87.723
G1 Z0.200
G1 E0.80000 F2100.00000
G1 F1200
G1 X129.247 Y81.815 E0.26252
G1 X129.247 Y81.281 E0.01679
G1 X134.425 Y86.459 E0.23008
G1 F8640
G1 X132.097 Y84.131 E-0.76000
G1 E-0.04000 F2100.00000
G1 Z0.800 F10800.000
G1 X133.695 Y85.194
G1 Z0.200
G1 E0.80000 F2100.00000
G1 F1200
G1 X129.382 Y80.881 E0.19164
G1 X129.517 Y80.747 E0.00597
G1 X129.782 Y80.747 E0.00834
G1 X133.697 Y84.662 E0.17398
G1 X133.893 Y84.323 E0.01229
G1 X130.316 Y80.747 E0.15892
G1 X130.851 Y80.747 E0.01679
G1 X134.088 Y83.985 E0.14387
G1 X134.284 Y83.646 E0.01229
G1 X131.385 Y80.747 E0.12881
G1 X131.920 Y80.747 E0.01679
G1 X134.480 Y83.307 E0.11376
G1 X134.675 Y82.968 E0.01229
G1 X132.454 Y80.747 E0.09870
G1 X132.988 Y80.747 E0.01679
G1 X134.871 Y82.629 E0.08365
G1 X135.067 Y82.291 E0.01229
G1 X133.523 Y80.747 E0.06860
G1 X134.057 Y80.747 E0.01679
G1 X135.262 Y81.952 E0.05354
G1 X135.458 Y81.613 E0.01229
G1 X134.592 Y80.747 E0.03849
G1 X135.126 Y80.747 E0.01679
G1 X135.707 Y81.328 E0.02582
G1 X136.242 Y81.328 E0.01679
G1 X135.660 Y80.747 E0.02582
G1 X136.195 Y80.747 E0.01679
G1 X136.776 Y81.328 E0.02582
G1 X137.310 Y81.328 E0.01679
G1 X136.729 Y80.747 E0.02582
G1 X137.264 Y80.747 E0.01679
G1 X137.845 Y81.328 E0.02582
G1 X138.379 Y81.328 E0.01679
G1 X137.798 Y80.747 E0.02582
G1 X138.332 Y80.747 E0.01679
G1 X138.914 Y81.328 E0.02582
G1 X139.448 Y81.328 E0.01679
G1 X138.867 Y80.747 E0.02582
G1 X139.401 Y80.747 E0.01679
G1 X147.153 Y88.499 E0.34446
G1 X147.153 Y87.964 E0.01679
G1 X139.936 Y80.747 E0.32071
G1 X140.470 Y80.747 E0.01679
G1 X147.153 Y87.430 E0.29696
G1 X147.153 Y86.896 E0.01679
G1 X141.004 Y80.747 E0.27322
G1 X141.539 Y80.747 E0.01679
G1 X147.153 Y86.361 E0.24947
G1 X147.153 Y85.827 E0.01679
G1 X142.073 Y80.747 E0.22572
G1 X142.608 Y80.747 E0.01679
G1 X147.153 Y85.292 E0.20198
G1 X147.153 Y84.758 E0.01679
G1 X143.142 Y80.747 E0.17823
G1 X143.676 Y80.747 E0.01679
G1 X147.153 Y84.224 E0.15449
G1 X147.153 Y83.689 E0.01679
G1 X144.211 Y80.747 E0.13074
