; generated by Slic3r Prusa Edition 1.41.0+win64 on 2018-11-18 at 15:06:32

; 

; external perimeters extrusion width = 0.45mm
; perimeters extrusion width = 0.45mm
; infill extrusion width = 0.45mm
; solid infill extrusion width = 0.45mm
; top infill extrusion width = 0.40mm
; support material extrusion width = 0.35mm
; first layer extrusion width = 0.42mm

M201 X1000 Y1000 Z1000 E5000 ; sets maximum accelerations, mm/sec^2
M203 X200 Y200 Z12 E120 ; sets maximum feedrates, mm/sec
M204 P1250 R1250 T1250 ; sets acceleration (P, T) and retract acceleration (R), mm/sec^2
M205 X8.00 Y8.00 Z0.40 E1.50 ; sets the jerk limits, mm/sec
M205 S0 T0 ; sets the minimum extruding and travel feed rate, mm/sec
M107
M115 U3.4.1 ; tell printer latest fw version
M83  ; extruder relative mode
M104 S215 ; set extruder temp
M140 S65 ; set bed temp
M190 S65 ; wait for bed temp
M109 S215 ; wait for extruder temp
G28 W ; home all without mesh bed level
G80 ; mesh bed leveling
G1 Y-3.0 F1000.0 ; go outside print area
G92 E0.0
G1 X60.0 E9.0  F1000.0 ; intro line
M73 Q0 S249
M73 P0 R242
G1 X100.0 E12.5  F1000.0 ; intro line
G92 E0.0
M221 S95
M900 K30; Filament gcode
G21 ; set units to millimeters
G90 ; use absolute coordinates
M83 ; use relative distances for extrusion
;BEFORE_LAYER_CHANGE
G92 E0.0
;0.1


G1 E-0.80000 F2100.00000
G1 Z0.600 F10800.000
;AFTER_LAYER_CHANGE
;0.1
G1 X27.387 Y80.212
G1 Z0.100
G1 E0.80000 F2100.00000
M204 S1000
G1 F1200
G1 X28.236 Y79.848 E0.01530
G1 X121.752 Y65.842 E1.56678
G1 X215.179 Y65.656 E1.54803
G1 X229.719 Y65.845 E0.24094
G1 X230.275 Y65.968 E0.00944
G1 X230.784 Y66.233 E0.00950
G1 X231.207 Y66.620 E0.00950
G1 X231.515 Y67.104 E0.00950
G1 X231.718 Y67.894 E0.01352
G1 X233.651 Y100.886 E0.54759
G1 X233.658 Y104.087 E0.05303
G1 X233.494 Y104.838 E0.01274
G1 X233.199 Y105.347 E0.00974
G1 X232.777 Y105.762 E0.00980
G1 X189.542 Y137.652 E0.89017
G1 X188.082 Y138.665 E0.02945
G1 X186.484 Y139.419 E0.02926
G1 X184.479 Y139.984 E0.03452
G1 X182.505 Y140.161 E0.03284
G1 X52.500 Y140.161 E2.15410
G1 X50.488 Y139.977 E0.03348
G1 X48.677 Y139.486 E0.03108
G1 X46.924 Y138.668 E0.03205
G1 X45.336 Y137.558 E0.03211
G1 X44.049 Y136.284 E0.02999
G1 X16.879 Y105.443 E0.68105
G1 X16.562 Y104.964 E0.00950
G1 X16.380 Y104.421 E0.00950
G1 X16.342 Y100.883 E0.05862
G1 X16.630 Y99.696 E0.02023
G1 X26.761 Y80.896 E0.35386
G1 X27.347 Y80.256 E0.01437
; PURGING FINISHED
G1 F8640
G1 X28.236 Y79.848 E-0.22598
G1 X30.523 Y79.506 E-0.53402
G1 E-0.04000 F2100.00000
G1 Z0.700 F10800.000
G1 X28.659 Y100.333
G1 Z0.100
G1 E0.80000 F2100.00000
G1 F1200
G1 X28.659 Y82.006 E0.30365
G1 X29.456 Y82.006 E0.01321
G1 X29.456 Y100.153 E0.30068
G1 X30.253 Y100.153 E0.01321
G1 X30.253 Y82.006 E0.30068
G1 X31.050 Y82.006 E0.01321
G1 X31.050 Y100.153 E0.30067
G1 X31.847 Y100.153 E0.01321
G1 X31.847 Y82.006 E0.30067
G1 X32.645 Y82.006 E0.01321
G1 X32.645 Y100.152 E0.30067
G1 X33.442 Y100.152 E0.01321
G1 X33.442 Y82.006 E0.30067
G1 X34.239 Y82.006 E0.01321
G1 X34.239 Y100.152 E0.30066
G1 X35.036 Y100.152 E0.01321
G1 X35.036 Y82.006 E0.30066
G1 X35.833 Y82.006 E0.01321
G1 X35.833 Y100.152 E0.30066
G1 X36.630 Y100.151 E0.01321
G1 X36.630 Y82.006 E0.30065
G1 X37.427 Y82.006 E0.01321
G1 X37.427 Y99.579 E0.29117
G1 X37.820 Y99.579 E0.00652
G1 X37.820 Y100.151 E0.00948
G1 X38.224 Y100.151 E0.00669
G1 X38.224 Y82.006 E0.30065
G1 X39.021 Y82.006 E0.01321
G1 X39.021 Y100.151 E0.30065
G1 X39.818 Y100.151 E0.01321
G1 X39.818 Y82.006 E0.30064
G1 X40.615 Y82.006 E0.01321
G1 X40.615 Y100.151 E0.30064
G1 X41.412 Y100.150 E0.01321
G1 X41.412 Y82.006 E0.30064
G1 X42.209 Y82.006 E0.01321
G1 X42.209 Y100.150 E0.30063
G1 X43.007 Y100.150 E0.01321
G1 X43.007 Y82.006 E0.30063
G1 X43.804 Y82.006 E0.01321
G1 X43.804 Y100.150 E0.30063
G1 X44.601 Y100.150 E0.01321
G1 X44.601 Y82.006 E0.30063
G1 X45.398 Y82.006 E0.01321
G1 X45.398 Y100.329 E0.30359
G1 F8640
G1 X45.398 Y97.038 E-0.76000
G1 E-0.04000 F2100.00000
G1 Z0.700 F10800.000
G1 X121.917 Y75.705
G1 Z0.100
G1 E0.80000 F2100.00000
G1 F1200
G1 X121.917 Y68.035 E0.12709
G1 X122.714 Y68.035 E0.01321
G1 X122.714 Y75.526 E0.12412
G1 X123.512 Y75.526 E0.01321
G1 X123.512 Y68.035 E0.12412
G1 X124.309 Y68.035 E0.01321
G1 X124.309 Y75.526 E0.12412
G1 X125.106 Y75.526 E0.01321
G1 X125.106 Y68.035 E0.12412
G1 X125.903 Y68.035 E0.01321
G1 X125.903 Y78.622 E0.17542
G1 X126.700 Y78.622 E0.01321
G1 X126.700 Y68.035 E0.17542
G1 X127.497 Y68.035 E0.01321
G1 X127.497 Y78.622 E0.17542
G1 X128.294 Y78.622 E0.01321
G1 X128.294 Y68.035 E0.17542
G1 X129.091 Y68.035 E0.01321
G1 X129.091 Y78.622 E0.17542
G1 X129.576 Y78.622 E0.00803
G1 X129.576 Y75.774 E0.04718
G1 X129.824 Y75.526 E0.00582
G1 X129.888 Y75.526 E0.00106
G1 X129.888 Y68.035 E0.12412
G1 X130.685 Y68.035 E0.01321
G1 X130.685 Y75.526 E0.12412
G1 X131.482 Y75.526 E0.01321
G1 X131.482 Y68.035 E0.12412
G1 X132.279 Y68.035 E0.01321
G1 X132.279 Y75.526 E0.12412
G1 X133.076 Y75.526 E0.01321
G1 X133.076 Y68.035 E0.12412
G1 X133.874 Y68.035 E0.01321
G1 X133.874 Y78.305 E0.17017
M73 Q0 S248
G1 F8640
G1 X133.874 Y75.014 E-0.76000
G1 E-0.04000 F2100.00000
G1 Z0.700 F10800.000
G1 X125.903 Y79.498
G1 Z0.100
G1 E0.80000 F2100.00000
M73 P0 R241
G1 F1200
G1 X125.903 Y87.936 E0.13981
G1 X126.700 Y87.936 E0.01321
G1 X126.700 Y79.678 E0.13684
G1 X127.497 Y79.678 E0.01321
G1 X127.497 Y87.936 E0.13684
G1 X128.294 Y87.936 E0.01321
G1 X128.294 Y79.678 E0.13684
G1 X129.091 Y79.678 E0.01321
G1 X129.091 Y88.115 E0.13981
G1 F8640
G1 X129.091 Y84.824 E-0.76000
G1 E-0.04000 F2100.00000
G1 Z0.700 F10800.000
G1 X177.713 Y88.813
G1 Z0.100
G1 E0.80000 F2100.00000
G1 F1200
G1 X177.713 Y100.159 E0.18800
G1 X178.510 Y100.159 E0.01321
G1 X178.510 Y88.992 E0.18503
G1 X179.307 Y88.992 E0.01321
G1 X179.307 Y100.159 E0.18503
G1 X180.104 Y100.159 E0.01321
G1 X180.104 Y88.992 E0.18503
G1 X180.901 Y88.992 E0.01321
G1 X180.901 Y100.159 E0.18503
G1 X181.698 Y100.159 E0.01321
G1 X181.698 Y88.992 E0.18503
G1 X182.495 Y88.992 E0.01321
G1 X182.495 Y100.159 E0.18503
G1 X183.292 Y100.159 E0.01321
G1 X183.292 Y88.992 E0.18503
G1 X184.090 Y88.992 E0.01321
G1 X184.090 Y100.159 E0.18503
G1 X184.887 Y100.159 E0.01321
G1 X184.887 Y88.992 E0.18503
G1 X185.684 Y88.992 E0.01321
G1 X185.684 Y100.159 E0.18503
G1 X185.791 Y100.159 E0.00178
G1 X185.791 Y99.579 E0.00961
G1 X186.481 Y99.579 E0.01143
G1 X186.481 Y88.992 E0.17542
G1 X187.278 Y88.992 E0.01321
G1 X187.278 Y99.579 E0.17542
G1 X188.075 Y99.579 E0.01321
G1 X188.075 Y88.992 E0.17542
G1 X188.872 Y88.992 E0.01321
G1 X188.872 Y99.579 E0.17542
G1 X189.175 Y99.579 E0.00503
G1 X189.175 Y100.159 E0.00961
G1 X189.669 Y100.159 E0.00818
G1 X189.669 Y88.992 E0.18503
G1 X190.466 Y88.992 E0.01321
G1 X190.466 Y100.159 E0.18503
G1 X191.263 Y100.159 E0.01321
G1 X191.263 Y88.992 E0.18503
G1 X192.060 Y88.992 E0.01321
G1 X192.060 Y100.159 E0.18503
G1 X192.857 Y100.159 E0.01321
G1 X192.857 Y88.992 E0.18503
G1 X193.654 Y88.992 E0.01321
G1 X193.654 Y100.159 E0.18503
G1 X194.452 Y100.159 E0.01321
G1 X194.452 Y88.992 E0.18503
G1 X195.249 Y88.992 E0.01321
G1 X195.249 Y100.159 E0.18503
G1 X196.046 Y100.159 E0.01321
G1 X196.046 Y88.992 E0.18503
G1 X196.843 Y88.992 E0.01321
G1 X196.843 Y100.338 E0.18800
G1 F8640
G1 X196.843 Y97.047 E-0.76000
G1 E-0.04000 F2100.00000
G1 Z0.700 F10800.000
G1 X215.176 Y67.856
G1 Z0.100
G1 E0.80000 F2100.00000
G1 F1200
G1 X215.176 Y78.126 E0.17017
G1 X215.973 Y78.126 E0.01321
G1 X215.973 Y68.035 E0.16719
G1 X216.770 Y68.035 E0.01321
G1 X216.770 Y75.526 E0.12412
G1 X217.567 Y75.526 E0.01321
G1 X217.567 Y68.035 E0.12412
G1 X218.364 Y68.035 E0.01321
G1 X218.364 Y75.526 E0.12412
G1 X219.161 Y75.526 E0.01321
G1 X219.161 Y68.035 E0.12412
G1 X219.958 Y68.035 E0.01321
G1 X219.958 Y75.526 E0.12412
G1 X220.134 Y75.526 E0.00292
G1 X220.383 Y75.774 E0.00582
G1 X220.383 Y87.936 E0.20151
G1 X220.755 Y87.936 E0.00617
G1 X220.755 Y68.035 E0.32975
G1 X221.552 Y68.035 E0.01321
G1 X221.552 Y87.936 E0.32975
G1 X222.349 Y87.936 E0.01321
G1 X222.349 Y68.035 E0.32975
G1 X223.146 Y68.035 E0.01321
G1 X223.146 Y87.936 E0.32975
G1 X223.943 Y87.936 E0.01321
G1 X223.943 Y68.035 E0.32975
G1 X224.741 Y68.035 E0.01321
G1 X224.741 Y75.651 E0.12619
G1 X224.866 Y75.526 E0.00294
G1 X225.538 Y75.526 E0.01113
G1 X225.538 Y68.035 E0.12412
G1 X226.335 Y68.035 E0.01321
G1 X226.335 Y75.526 E0.12412
G1 X227.132 Y75.526 E0.01321
G1 X227.132 Y68.035 E0.12412
G1 X227.929 Y68.035 E0.01321
G1 X227.929 Y75.526 E0.12412
G1 X228.676 Y75.526 E0.01238
G1 X228.726 Y75.576 E0.00118
G1 X228.726 Y68.035 E0.12495
G1 X229.523 Y68.035 E0.01321
G1 X229.523 Y78.305 E0.17017
G1 F8640
G1 X229.523 Y75.014 E-0.76000
G1 E-0.04000 F2100.00000
G1 Z0.700 F10800.000
G1 X122.111 Y112.313
G1 Z0.100
G1 E0.80000 F2100.00000
G1 F1200
G1 X122.336 Y113.147 E0.01431
G1 X122.411 Y114.000 E0.01419
G1 X122.336 Y114.853 E0.01418
G1 X122.115 Y115.680 E0.01418
G1 X121.756 Y116.448 E0.01405
G1 X121.262 Y117.156 E0.01431
G1 X120.657 Y117.762 E0.01419
G1 X119.955 Y118.253 E0.01418
G1 X119.180 Y118.615 E0.01418
G1 X118.353 Y118.836 E0.01418
G1 X117.500 Y118.911 E0.01418
G1 X116.647 Y118.836 E0.01418
G1 X115.820 Y118.615 E0.01418
G1 X115.045 Y118.253 E0.01418
G1 X114.343 Y117.762 E0.01418
G1 X113.738 Y117.157 E0.01418
G1 X113.247 Y116.455 E0.01418
G1 X112.889 Y115.687 E0.01405
G1 X112.664 Y114.853 E0.01431
G1 X112.589 Y114.000 E0.01419
G1 X112.664 Y113.147 E0.01418
G1 X112.885 Y112.320 E0.01418
G1 X113.247 Y111.545 E0.01418
G1 X113.738 Y110.843 E0.01418
G1 X114.343 Y110.238 E0.01418
G1 X115.045 Y109.747 E0.01418
G1 X115.820 Y109.385 E0.01418
G1 X116.647 Y109.164 E0.01418
G1 X117.492 Y109.090 E0.01405
G1 X118.353 Y109.164 E0.01431
G1 X119.180 Y109.385 E0.01419
G1 X119.955 Y109.747 E0.01418
G1 X120.657 Y110.238 E0.01418
G1 X121.262 Y110.843 E0.01418
G1 X121.753 Y111.545 E0.01418
G1 X122.086 Y112.259 E0.01306
G1 X122.505 Y112.382 F10800.000
G1 F8640
G1 X122.336 Y113.147 E-0.21310
G1 X122.411 Y114.000 E-0.19769
G1 X122.336 Y114.853 E-0.19765
G1 X122.166 Y115.487 E-0.15155
G1 E-0.04000 F2100.00000
G1 Z0.700 F10800.000
G1 X57.730 Y128.077
G1 Z0.100
G1 E0.80000 F2100.00000
G1 F1200
G1 X57.811 Y129.000 E0.01535
G1 X57.730 Y129.922 E0.01534
G1 X57.491 Y130.816 E0.01534
G1 X57.099 Y131.655 E0.01534
G1 X56.573 Y132.407 E0.01520
G1 X55.914 Y133.068 E0.01547
G1 X55.155 Y133.599 E0.01535
G1 X54.316 Y133.991 E0.01534
G1 X53.422 Y134.230 E0.01534
G1 X52.500 Y134.311 E0.01534
G1 X51.578 Y134.230 E0.01534
G1 X50.684 Y133.991 E0.01534
G1 X49.845 Y133.599 E0.01534
G1 X49.086 Y133.068 E0.01534
G1 X48.432 Y132.414 E0.01534
G1 X47.901 Y131.655 E0.01534
G1 X47.513 Y130.824 E0.01520
G1 X47.270 Y129.923 E0.01547
G1 X47.189 Y129.000 E0.01535
G1 X47.270 Y128.078 E0.01534
G1 X47.509 Y127.184 E0.01534
G1 X47.901 Y126.345 E0.01534
G1 X48.432 Y125.586 E0.01534
G1 X49.086 Y124.932 E0.01534
G1 X49.845 Y124.401 E0.01534
G1 X50.684 Y124.009 E0.01534
G1 X51.578 Y123.770 E0.01534
G1 X52.492 Y123.690 E0.01520
G1 X53.422 Y123.770 E0.01547
G1 X54.316 Y124.009 E0.01535
G1 X55.155 Y124.401 E0.01534
G1 X55.914 Y124.932 E0.01534
G1 X56.568 Y125.586 E0.01534
G1 X57.099 Y126.345 E0.01534
G1 X57.487 Y127.176 E0.01520
G1 X57.715 Y128.019 E0.01447
G1 X57.330 Y128.123 F10800.000
G1 F1200
G1 X57.411 Y129.000 E0.01459
G1 X57.336 Y129.853 E0.01418
G1 X57.115 Y130.680 E0.01418
G1 X56.753 Y131.455 E0.01418
G1 X56.267 Y132.150 E0.01405
G1 X55.657 Y132.762 E0.01431
G1 X54.955 Y133.253 E0.01419
G1 X54.180 Y133.615 E0.01418
G1 X53.353 Y133.836 E0.01418
G1 X52.500 Y133.911 E0.01418
G1 X51.647 Y133.836 E0.01418
G1 X50.820 Y133.615 E0.01418
G1 X50.045 Y133.253 E0.01418
G1 X49.343 Y132.762 E0.01418
G1 X48.738 Y132.157 E0.01418
G1 X48.247 Y131.455 E0.01418
G1 X47.889 Y130.687 E0.01405
G1 X47.664 Y129.853 E0.01431
G1 X47.589 Y129.000 E0.01419
G1 X47.664 Y128.147 E0.01418
G1 X47.885 Y127.320 E0.01418
G1 X48.247 Y126.545 E0.01418
G1 X48.738 Y125.843 E0.01418
G1 X49.343 Y125.238 E0.01418
G1 X50.045 Y124.747 E0.01418
G1 X50.820 Y124.385 E0.01418
G1 X51.647 Y124.164 E0.01418
G1 X52.492 Y124.090 E0.01405
G1 X53.353 Y124.164 E0.01431
G1 X54.180 Y124.385 E0.01419
G1 X54.955 Y124.747 E0.01418
G1 X55.657 Y125.238 E0.01418
G1 X56.262 Y125.843 E0.01418
G1 X56.753 Y126.545 E0.01418
G1 X57.111 Y127.313 E0.01405
G1 X57.314 Y128.065 E0.01291
G1 X57.706 Y128.259 F10800.000
G1 F8640
G1 X57.411 Y129.000 E-0.21700
G1 X57.336 Y129.853 E-0.19765
G1 X57.115 Y130.680 E-0.19766
G1 X56.844 Y131.259 E-0.14769
G1 E-0.04000 F2100.00000
G1 Z0.700 F10800.000
G1 X177.189 Y129.000
G1 Z0.100
G1 E0.80000 F2100.00000
G1 F1200
G1 X177.270 Y128.078 E0.01534
G1 X177.509 Y127.184 E0.01534
G1 X177.901 Y126.345 E0.01534
G1 X178.432 Y125.586 E0.01534
G1 X179.086 Y124.932 E0.01534
G1 X179.845 Y124.401 E0.01534
G1 X180.684 Y124.009 E0.01534
G1 X181.578 Y123.770 E0.01534
G1 X182.492 Y123.690 E0.01520
G1 X183.422 Y123.770 E0.01547
G1 X184.316 Y124.009 E0.01535
G1 X185.155 Y124.401 E0.01534
G1 X185.914 Y124.932 E0.01534
G1 X186.568 Y125.586 E0.01534
G1 X187.095 Y126.338 E0.01520
G1 X187.490 Y127.183 E0.01547
G1 X187.730 Y128.078 E0.01535
G1 X187.811 Y129.000 E0.01534
G1 X187.730 Y129.922 E0.01534
G1 X187.491 Y130.816 E0.01534
G1 X187.099 Y131.655 E0.01534
G1 X186.568 Y132.414 E0.01534
G1 X185.920 Y133.062 E0.01520
G1 X185.156 Y133.599 E0.01547
G1 X184.316 Y133.991 E0.01535
G1 X183.422 Y134.230 E0.01534
G1 X182.500 Y134.311 E0.01534
G1 X181.578 Y134.230 E0.01534
G1 X180.684 Y133.991 E0.01534
G1 X179.845 Y133.599 E0.01534
G1 X179.086 Y133.068 E0.01534
G1 X178.438 Y132.420 E0.01520
G1 X177.901 Y131.656 E0.01547
G1 X177.509 Y130.816 E0.01535
G1 X177.270 Y129.922 E0.01534
G1 X177.194 Y129.060 E0.01434
G1 X177.591 Y129.025 F10800.000
G1 F1200
G1 X177.664 Y128.147 E0.01459
G1 X177.885 Y127.320 E0.01418
G1 X178.247 Y126.545 E0.01418
G1 X178.738 Y125.843 E0.01418
G1 X179.343 Y125.238 E0.01418
G1 X180.045 Y124.747 E0.01418
G1 X180.820 Y124.385 E0.01418
G1 X181.647 Y124.164 E0.01418
G1 X182.492 Y124.090 E0.01405
G1 X183.353 Y124.164 E0.01431
G1 X184.180 Y124.385 E0.01419
G1 X184.955 Y124.747 E0.01418
G1 X185.657 Y125.238 E0.01418
G1 X186.262 Y125.843 E0.01418
G1 X186.748 Y126.538 E0.01405
G1 X187.115 Y127.320 E0.01431
G1 X187.336 Y128.147 E0.01419
G1 X187.411 Y129.000 E0.01418
G1 X187.336 Y129.853 E0.01418
G1 X187.115 Y130.680 E0.01418
G1 X186.753 Y131.455 E0.01418
G1 X186.262 Y132.157 E0.01418
G1 X185.662 Y132.756 E0.01405
G1 X184.956 Y133.253 E0.01431
G1 X184.180 Y133.615 E0.01419
G1 X183.353 Y133.836 E0.01418
G1 X182.500 Y133.911 E0.01418
G1 X181.647 Y133.836 E0.01418
G1 X180.820 Y133.615 E0.01418
G1 X180.045 Y133.253 E0.01418
G1 X179.343 Y132.762 E0.01418
G1 X178.744 Y132.162 E0.01405
G1 X178.247 Y131.456 E0.01431
G1 X177.885 Y130.680 E0.01419
G1 X177.664 Y129.853 E0.01418
G1 X177.597 Y129.085 E0.01277
G1 X177.244 Y128.826 F10800.000
G1 F8640
G1 X177.664 Y128.147 E-0.21704
G1 X177.885 Y127.320 E-0.19766
G1 X178.247 Y126.545 E-0.19766
G1 X178.614 Y126.021 E-0.14765
G1 E-0.04000 F2100.00000
G1 Z0.700 F10800.000
G1 X127.500 Y99.861
G1 Z0.100
G1 E0.80000 F2100.00000
G1 F1200
G1 X130.609 Y96.752 E0.07284
G1 X130.609 Y76.559 E0.33459
G1 X132.891 Y76.559 E0.03783
G1 X132.891 Y97.175 E0.34160
G1 X134.220 Y98.714 E0.03369
G1 X135.079 Y99.918 E0.02451
G1 X135.262 Y100.271 E0.00658
G1 X135.370 Y100.558 E0.00508
G1 X135.514 Y101.192 E0.01077
G1 X214.486 Y101.192 E1.30852
G1 X214.630 Y100.558 E0.01077
G1 X214.738 Y100.271 E0.00508
G1 X214.927 Y99.906 E0.00681
G1 X215.236 Y99.429 E0.00942
G1 X217.109 Y97.168 E0.04864
G1 X217.109 Y76.559 E0.34148
G1 X219.350 Y76.559 E0.03714
G1 X219.350 Y96.752 E0.33459
G1 X222.206 Y99.609 E0.06693
G1 X222.794 Y99.609 E0.00973
G1 X225.650 Y96.752 E0.06693
G1 X225.650 Y76.559 E0.33459
G1 X227.891 Y76.559 E0.03714
G1 X227.891 Y97.183 E0.34174
G1 X229.263 Y98.993 E0.03762
G1 X229.910 Y100.081 E0.02098
G1 X230.043 Y100.414 E0.00594
G1 X230.149 Y100.849 E0.00741
G1 X230.311 Y101.152 E0.00569
G1 X230.310 Y103.391 E0.03711
G1 X190.312 Y103.391 E0.66275
G1 X190.312 Y128.973 E0.42388
M73 Q0 S247
G1 X190.191 Y130.356 E0.02300
G1 X189.839 Y131.671 E0.02256
G1 X189.263 Y132.905 E0.02256
G1 X188.483 Y134.020 E0.02256
G1 X187.520 Y134.983 E0.02256
