; generated by Slic3r Prusa Edition 1.41.0+win64 on 2018-11-18 at 21:31:03

; 

; external perimeters extrusion width = 0.45mm
; perimeters extrusion width = 0.45mm
; infill extrusion width = 0.45mm
; solid infill extrusion width = 0.45mm
; top infill extrusion width = 0.40mm
; support material extrusion width = 0.35mm
; first layer extrusion width = 0.42mm

M201 X1000 Y1000 Z1000 E5000 ; sets maximum accelerations, mm/sec^2
M203 X200 Y200 Z12 E120 ; sets maximum feedrates, mm/sec
M204 P1250 R1250 T1250 ; sets acceleration (P, T) and retract acceleration (R), mm/sec^2
M205 X8.00 Y8.00 Z0.40 E1.50 ; sets the jerk limits, mm/sec
M205 S0 T0 ; sets the minimum extruding and travel feed rate, mm/sec
M107
M115 U3.4.1 ; tell printer latest fw version
M83  ; extruder relative mode
M104 S215 ; set extruder temp
M140 S65 ; set bed temp
M190 S65 ; wait for bed temp
M109 S215 ; wait for extruder temp
G28 W ; home all without mesh bed level
G80 ; mesh bed leveling
G1 Y-3.0 F1000.0 ; go outside print area
G92 E0.0
G1 X60.0 E9.0  F1000.0 ; intro line
M73 Q0 S167
M73 P0 R164
G1 X100.0 E12.5  F1000.0 ; intro line
G92 E0.0
M221 S95
M900 K30; Filament gcode
G21 ; set units to millimeters
G90 ; use absolute coordinates
M83 ; use relative distances for extrusion
;BEFORE_LAYER_CHANGE
G92 E0.0
;0.2


G1 E-0.80000 F2100.00000
G1 Z0.600 F10800.000
;AFTER_LAYER_CHANGE
;0.2
G1 X27.396 Y80.040
G1 Z0.200
G1 E0.80000 F2100.00000
M204 S1000
G1 F1200
G1 X28.017 Y79.669 E0.02270
G1 X28.470 Y79.546 E0.01471
G1 X116.298 Y65.677 E2.78790
G1 X234.701 Y65.847 E3.71245
G1 X235.387 Y65.958 E0.02179
G1 X235.929 Y66.226 E0.01896
G1 X236.377 Y66.632 E0.01896
G1 X236.699 Y67.149 E0.01908
G1 X236.865 Y67.730 E0.01896
G1 X236.885 Y76.526 E0.27578
G1 X233.891 Y104.688 E0.88798
G1 X233.592 Y105.275 E0.02066
G1 X233.129 Y105.749 E0.02078
G1 X188.411 Y138.864 E1.74470
G1 X186.273 Y139.864 E0.07402
G1 X184.485 Y140.334 E0.05796
G1 X182.500 Y140.506 E0.06246
G1 X52.496 Y140.506 E4.07617
G1 X50.424 Y140.316 E0.06525
G1 X48.559 Y139.810 E0.06060
G1 X46.751 Y138.967 E0.06254
G1 X45.113 Y137.822 E0.06266
G1 X43.787 Y136.508 E0.05854
G1 X16.532 Y105.438 E1.29588
G1 X16.144 Y104.797 E0.02349
G1 X15.995 Y104.085 E0.02281
G1 X15.996 Y100.898 E0.09992
G1 X16.110 Y100.091 E0.02554
G1 X16.399 Y99.383 E0.02398
G1 X26.927 Y80.596 E0.67523
G1 X27.357 Y80.086 E0.02093
; PURGING FINISHED
G1 F8640
G1 X28.017 Y79.669 E-0.18032
G1 X28.470 Y79.546 E-0.10833
G1 X30.487 Y79.228 E-0.47136
G1 E-0.04000 F2100.00000
G1 Z0.800 F10800.000
G1 X28.812 Y81.708
G1 Z0.200
G1 E0.80000 F2100.00000
G1 F1200
G1 X28.812 Y99.977 E0.57283
G1 X29.567 Y99.977 E0.02365
G1 X29.567 Y81.878 E0.56750
G1 X30.321 Y81.878 E0.02365
G1 X30.321 Y99.977 E0.56750
G1 X31.075 Y99.977 E0.02365
G1 X31.075 Y81.878 E0.56749
G1 X31.829 Y81.878 E0.02365
G1 X31.829 Y99.977 E0.56749
G1 X32.583 Y99.977 E0.02365
G1 X32.583 Y81.878 E0.56748
G1 X33.337 Y81.878 E0.02365
G1 X33.337 Y99.976 E0.56748
G1 X34.092 Y99.976 E0.02365
G1 X34.092 Y81.878 E0.56747
G1 X34.846 Y81.878 E0.02365
G1 X34.846 Y99.976 E0.56747
G1 X35.600 Y99.976 E0.02365
G1 X35.600 Y81.878 E0.56746
G1 X36.354 Y81.878 E0.02365
G1 X36.354 Y99.976 E0.56746
G1 X37.108 Y99.976 E0.02365
G1 X37.108 Y81.878 E0.56745
G1 X37.862 Y81.878 E0.02365
G1 X37.862 Y99.975 E0.56744
G1 X38.616 Y99.975 E0.02365
G1 X38.616 Y81.878 E0.56744
G1 X39.371 Y81.878 E0.02365
G1 X39.371 Y99.975 E0.56743
G1 X40.125 Y99.975 E0.02365
G1 X40.125 Y81.878 E0.56743
G1 X40.879 Y81.878 E0.02365
G1 X40.879 Y99.975 E0.56742
G1 X41.633 Y99.975 E0.02365
G1 X41.633 Y81.878 E0.56742
G1 X42.387 Y81.878 E0.02365
G1 X42.387 Y99.974 E0.56741
G1 X43.141 Y99.974 E0.02365
G1 X43.141 Y81.878 E0.56741
G1 X43.896 Y81.878 E0.02365
G1 X43.896 Y99.974 E0.56740
G1 X44.650 Y99.974 E0.02365
G1 X44.650 Y81.878 E0.56740
G1 X45.404 Y81.878 E0.02365
G1 X45.404 Y100.143 E0.57271
G1 F8640
G1 X45.404 Y96.852 E-0.76000
G1 E-0.04000 F2100.00000
G1 Z0.800 F10800.000
G1 X116.295 Y67.865
G1 Z0.200
G1 E0.80000 F2100.00000
G1 F1200
G1 X116.295 Y78.579 E0.33592
G1 X117.049 Y78.579 E0.02365
G1 X117.049 Y68.035 E0.33060
G1 X117.803 Y68.035 E0.02365
G1 X117.803 Y78.579 E0.33060
G1 X118.557 Y78.579 E0.02365
G1 X118.557 Y68.035 E0.33060
G1 X119.311 Y68.035 E0.02365
G1 X119.311 Y78.579 E0.33060
G1 X120.066 Y78.579 E0.02365
G1 X120.066 Y68.035 E0.33060
G1 X120.820 Y68.035 E0.02365
G1 X120.820 Y78.579 E0.33060
G1 X121.086 Y78.579 E0.00836
G1 X121.086 Y75.729 E0.08937
G1 X121.329 Y75.486 E0.01074
G1 X121.574 Y75.486 E0.00769
G1 X121.574 Y68.035 E0.23363
G1 X122.328 Y68.035 E0.02365
G1 X122.328 Y75.486 E0.23363
G1 X123.082 Y75.486 E0.02365
G1 X123.082 Y68.035 E0.23363
G1 X123.836 Y68.035 E0.02365
G1 X123.836 Y75.486 E0.23363
G1 X124.591 Y75.486 E0.02365
G1 X124.591 Y68.035 E0.23363
G1 X125.345 Y68.035 E0.02365
G1 X125.345 Y75.660 E0.23907
G1 X125.414 Y75.729 E0.00305
G1 X125.414 Y78.579 E0.08937
M73 Q0 S166
G1 X126.099 Y78.579 E0.02149
G1 X126.099 Y68.035 E0.33060
M73 P0 R163
G1 X126.853 Y68.035 E0.02365
G1 X126.853 Y78.579 E0.33060
G1 X127.607 Y78.579 E0.02365
G1 X127.607 Y68.035 E0.33060
G1 X128.361 Y68.035 E0.02365
G1 X128.361 Y78.579 E0.33060
G1 X129.116 Y78.579 E0.02365
G1 X129.116 Y68.035 E0.33060
G1 X129.870 Y68.035 E0.02365
G1 X129.870 Y75.486 E0.23363
G1 X130.624 Y75.486 E0.02365
G1 X130.624 Y68.035 E0.23363
G1 X131.378 Y68.035 E0.02365
G1 X131.378 Y75.486 E0.23363
G1 X132.132 Y75.486 E0.02365
G1 X132.132 Y68.035 E0.23363
G1 X132.886 Y68.035 E0.02365
G1 X132.886 Y75.486 E0.23363
G1 X133.640 Y75.486 E0.02365
G1 X133.640 Y68.035 E0.23363
G1 X134.395 Y68.035 E0.02365
G1 X134.395 Y78.579 E0.33060
G1 X135.149 Y78.579 E0.02365
G1 X135.149 Y68.035 E0.33060
G1 X135.903 Y68.035 E0.02365
G1 X135.903 Y78.579 E0.33060
G1 X136.657 Y78.579 E0.02365
G1 X136.657 Y68.035 E0.33060
G1 X137.411 Y68.035 E0.02365
G1 X137.411 Y78.579 E0.33060
G1 X138.126 Y78.579 E0.02241
G1 X138.126 Y76.272 E0.07234
G1 X138.165 Y76.272 E0.00124
G1 X138.165 Y68.035 E0.25826
G1 X138.920 Y68.035 E0.02365
G1 X138.920 Y76.272 E0.25826
G1 X139.674 Y76.272 E0.02365
G1 X139.674 Y68.035 E0.25826
G1 X140.428 Y68.035 E0.02365
G1 X140.428 Y76.442 E0.26358
G1 F8640
G1 X140.428 Y73.150 E-0.76000
G1 E-0.04000 F2100.00000
G1 Z0.800 F10800.000
G1 X178.890 Y88.629
G1 Z0.200
G1 E0.80000 F2100.00000
G1 F1200
G1 X178.890 Y99.966 E0.35547
G1 X179.644 Y99.966 E0.02365
G1 X179.644 Y88.799 E0.35015
G1 X180.398 Y88.799 E0.02365
G1 X180.398 Y99.966 E0.35015
G1 X181.153 Y99.966 E0.02365
G1 X181.153 Y88.799 E0.35015
G1 X181.907 Y88.799 E0.02365
G1 X181.907 Y99.966 E0.35015
G1 X182.661 Y99.966 E0.02365
G1 X182.661 Y88.799 E0.35015
G1 X183.415 Y88.799 E0.02365
G1 X183.415 Y99.966 E0.35015
G1 X184.169 Y99.966 E0.02365
G1 X184.169 Y88.799 E0.35015
G1 X184.923 Y88.799 E0.02365
G1 X184.923 Y99.966 E0.35015
G1 X185.677 Y99.966 E0.02365
G1 X185.677 Y88.799 E0.35015
G1 X186.432 Y88.799 E0.02365
G1 X186.432 Y99.966 E0.35015
G1 X187.186 Y99.966 E0.02365
G1 X187.186 Y88.799 E0.35015
G1 X187.940 Y88.799 E0.02365
G1 X187.940 Y99.966 E0.35015
G1 X188.694 Y99.966 E0.02365
G1 X188.694 Y88.799 E0.35015
G1 X189.448 Y88.799 E0.02365
G1 X189.448 Y99.966 E0.35015
G1 X190.202 Y99.966 E0.02365
G1 X190.202 Y88.799 E0.35015
G1 X190.957 Y88.799 E0.02365
G1 X190.957 Y99.966 E0.35015
G1 X191.711 Y99.966 E0.02365
G1 X191.711 Y88.799 E0.35015
G1 X192.465 Y88.799 E0.02365
G1 X192.465 Y99.966 E0.35015
G1 X193.219 Y99.966 E0.02365
G1 X193.219 Y88.799 E0.35015
G1 X193.973 Y88.799 E0.02365
G1 X193.973 Y99.966 E0.35015
G1 X194.727 Y99.966 E0.02365
G1 X194.727 Y88.799 E0.35015
G1 X195.482 Y88.799 E0.02365
G1 X195.482 Y100.136 E0.35547
G1 F8640
G1 X195.482 Y96.844 E-0.76000
G1 E-0.04000 F2100.00000
G1 Z0.800 F10800.000
G1 X211.319 Y76.442
G1 Z0.200
G1 E0.80000 F2100.00000
G1 F1200
G1 X211.319 Y68.035 E0.26358
G1 X212.073 Y68.035 E0.02365
G1 X212.073 Y76.272 E0.25826
G1 X212.827 Y76.272 E0.02365
G1 X212.827 Y68.035 E0.25826
G1 X213.581 Y68.035 E0.02365
G1 X213.581 Y78.579 E0.33060
G1 X214.336 Y78.579 E0.02365
G1 X214.336 Y68.035 E0.33060
G1 X215.090 Y68.035 E0.02365
G1 X215.090 Y78.579 E0.33060
G1 X215.844 Y78.579 E0.02365
G1 X215.844 Y68.035 E0.33060
G1 X216.598 Y68.035 E0.02365
G1 X216.598 Y75.486 E0.23363
G1 X217.352 Y75.486 E0.02365
G1 X217.352 Y68.035 E0.23363
G1 X218.106 Y68.035 E0.02365
G1 X218.106 Y75.486 E0.23363
G1 X218.860 Y75.486 E0.02365
G1 X218.860 Y68.035 E0.23363
G1 X219.615 Y68.035 E0.02365
G1 X219.615 Y75.486 E0.23363
G1 X220.130 Y75.486 E0.01615
G1 X220.369 Y75.726 E0.01060
G1 X220.369 Y68.035 E0.24113
G1 X221.123 Y68.035 E0.02365
G1 X221.123 Y87.807 E0.61995
G1 X221.877 Y87.807 E0.02365
G1 X221.877 Y68.035 E0.61995
G1 X222.631 Y68.035 E0.02365
G1 X222.631 Y87.807 E0.61995
G1 X223.385 Y87.807 E0.02365
G1 X223.385 Y68.035 E0.61995
G1 X224.140 Y68.035 E0.02365
G1 X224.140 Y87.807 E0.61995
G1 X224.628 Y87.807 E0.01532
G1 X224.628 Y75.729 E0.37872
G1 X224.870 Y75.486 E0.01074
G1 X224.894 Y75.486 E0.00073
G1 X224.894 Y68.035 E0.23363
G1 X225.648 Y68.035 E0.02365
G1 X225.648 Y75.486 E0.23363
G1 X226.402 Y75.486 E0.02365
G1 X226.402 Y68.035 E0.23363
G1 X227.156 Y68.035 E0.02365
G1 X227.156 Y75.486 E0.23363
G1 X227.910 Y75.486 E0.02365
G1 X227.910 Y68.035 E0.23363
G1 X228.665 Y68.035 E0.02365
G1 X228.665 Y75.486 E0.23363
G1 X228.914 Y75.729 E0.01089
G1 X228.914 Y78.579 E0.08937
G1 X229.419 Y78.579 E0.01584
G1 X229.419 Y68.035 E0.33060
G1 X230.173 Y68.035 E0.02365
G1 X230.173 Y78.579 E0.33060
G1 X230.927 Y78.579 E0.02365
G1 X230.927 Y68.035 E0.33060
G1 X231.681 Y68.035 E0.02365
G1 X231.681 Y78.579 E0.33060
G1 X232.435 Y78.579 E0.02365
G1 X232.435 Y68.035 E0.33060
G1 X233.189 Y68.035 E0.02365
G1 X233.189 Y76.272 E0.25826
G1 X233.944 Y76.272 E0.02365
G1 X233.944 Y68.035 E0.25826
G1 X234.698 Y68.035 E0.02365
G1 X234.698 Y76.442 E0.26358
G1 F8640
G1 X234.698 Y73.150 E-0.76000
G1 E-0.04000 F2100.00000
G1 Z0.800 F10800.000
G1 X57.416 Y127.193
G1 Z0.200
G1 E0.80000 F2100.00000
G1 F1200
G1 X57.660 Y128.089 E0.02912
G1 X57.739 Y129.000 E0.02867
G1 X57.660 Y129.910 E0.02863
G1 X57.423 Y130.792 E0.02864
G1 X57.037 Y131.620 E0.02864
G1 X56.523 Y132.354 E0.02811
G1 X55.869 Y133.013 E0.02912
G1 X55.120 Y133.537 E0.02867
G1 X54.292 Y133.923 E0.02863
G1 X53.410 Y134.160 E0.02864
G1 X52.500 Y134.239 E0.02864
G1 X51.590 Y134.160 E0.02864
G1 X50.724 Y133.928 E0.02811
G1 X49.881 Y133.538 E0.02912
G1 X49.132 Y133.014 E0.02867
G1 X48.486 Y132.368 E0.02864
G1 X47.963 Y131.620 E0.02863
G1 X47.577 Y130.792 E0.02864
G1 X47.340 Y129.910 E0.02864
G1 X47.261 Y129.000 E0.02863
G1 X47.340 Y128.090 E0.02863
G1 X47.577 Y127.208 E0.02864
G1 X47.963 Y126.380 E0.02864
G1 X48.486 Y125.632 E0.02863
G1 X49.132 Y124.986 E0.02864
G1 X49.880 Y124.463 E0.02863
G1 X50.708 Y124.077 E0.02864
G1 X51.590 Y123.840 E0.02863
G1 X52.483 Y123.762 E0.02811
G1 X53.409 Y123.840 E0.02912
G1 X54.292 Y124.077 E0.02867
G1 X55.120 Y124.463 E0.02864
G1 X55.868 Y124.986 E0.02864
G1 X56.514 Y125.632 E0.02863
G1 X57.037 Y126.380 E0.02863
G1 X57.391 Y127.139 E0.02623
G1 X57.049 Y127.298 F10800.000
G1 F1200
G1 X57.287 Y128.156 E0.02790
G1 X57.361 Y129.000 E0.02658
G1 X57.287 Y129.844 E0.02657
G1 X57.068 Y130.662 E0.02657
G1 X56.710 Y131.430 E0.02657
G1 X56.233 Y132.111 E0.02606
G1 X55.625 Y132.723 E0.02705
G1 X54.930 Y133.210 E0.02658
G1 X54.163 Y133.568 E0.02657
G1 X53.344 Y133.787 E0.02657
G1 X52.500 Y133.861 E0.02657
G1 X51.656 Y133.787 E0.02657
G1 X50.853 Y133.572 E0.02606
G1 X50.070 Y133.210 E0.02705
G1 X49.376 Y132.724 E0.02658
G1 X48.776 Y132.124 E0.02657
G1 X48.290 Y131.430 E0.02657
G1 X47.932 Y130.662 E0.02657
G1 X47.713 Y129.844 E0.02657
G1 X47.639 Y129.000 E0.02657
G1 X47.713 Y128.156 E0.02657
G1 X47.932 Y127.338 E0.02657
G1 X48.290 Y126.570 E0.02657
G1 X48.776 Y125.876 E0.02657
G1 X49.376 Y125.276 E0.02657
G1 X50.070 Y124.790 E0.02657
G1 X50.838 Y124.432 E0.02657
G1 X51.656 Y124.213 E0.02657
G1 X52.484 Y124.141 E0.02606
G1 X53.344 Y124.213 E0.02705
G1 X54.163 Y124.432 E0.02658
G1 X54.930 Y124.790 E0.02657
G1 X55.624 Y125.276 E0.02657
G1 X56.224 Y125.876 E0.02657
G1 X56.710 Y126.570 E0.02657
G1 X57.024 Y127.244 E0.02332
G1 X57.444 Y127.365 F10800.000
G1 F8640
G1 X57.287 Y128.156 E-0.21918
G1 X57.361 Y129.000 E-0.19572
G1 X57.287 Y129.844 E-0.19564
G1 X57.119 Y130.469 E-0.14946
G1 E-0.04000 F2100.00000
G1 Z0.800 F10800.000
G1 X112.340 Y114.910
G1 Z0.200
G1 E0.80000 F2100.00000
G1 F1200
G1 X112.261 Y114.000 E0.02864
G1 X112.340 Y113.090 E0.02864
G1 X112.577 Y112.208 E0.02864
G1 X112.963 Y111.380 E0.02863
G1 X113.486 Y110.632 E0.02864
G1 X114.132 Y109.986 E0.02863
G1 X114.880 Y109.463 E0.02864
G1 X115.708 Y109.077 E0.02864
G1 X116.590 Y108.840 E0.02863
G1 X117.483 Y108.762 E0.02811
G1 X118.409 Y108.840 E0.02912
G1 X119.292 Y109.077 E0.02867
G1 X120.120 Y109.463 E0.02863
G1 X120.868 Y109.986 E0.02864
G1 X121.514 Y110.632 E0.02864
G1 X122.037 Y111.380 E0.02864
G1 X122.423 Y112.208 E0.02863
G1 X122.660 Y113.090 E0.02864
G1 X122.739 Y114.000 E0.02864
G1 X122.660 Y114.910 E0.02864
G1 X122.423 Y115.792 E0.02864
G1 X122.037 Y116.620 E0.02863
G1 X121.514 Y117.368 E0.02864
G1 X120.880 Y118.002 E0.02811
G1 X120.121 Y118.537 E0.02912
G1 X119.292 Y118.923 E0.02867
G1 X118.410 Y119.160 E0.02864
G1 X117.500 Y119.239 E0.02864
G1 X116.590 Y119.160 E0.02864
G1 X115.708 Y118.923 E0.02864
G1 X114.880 Y118.537 E0.02864
G1 X114.132 Y118.014 E0.02863
G1 X113.498 Y117.380 E0.02811
G1 X112.963 Y116.621 E0.02912
G1 X112.577 Y115.792 E0.02867
G1 X112.356 Y114.968 E0.02675
G1 X112.720 Y114.870 F10800.000
G1 F1200
G1 X112.639 Y114.000 E0.02740
G1 X112.713 Y113.156 E0.02657
G1 X112.932 Y112.338 E0.02657
G1 X113.290 Y111.570 E0.02657
G1 X113.776 Y110.876 E0.02657
G1 X114.376 Y110.276 E0.02657
G1 X115.070 Y109.790 E0.02657
G1 X115.838 Y109.432 E0.02657
G1 X116.656 Y109.213 E0.02657
G1 X117.484 Y109.141 E0.02606
G1 X118.344 Y109.213 E0.02705
G1 X119.162 Y109.432 E0.02658
G1 X119.930 Y109.790 E0.02657
G1 X120.624 Y110.276 E0.02657
G1 X121.224 Y110.876 E0.02657
G1 X121.710 Y111.570 E0.02657
G1 X122.068 Y112.338 E0.02657
G1 X122.287 Y113.156 E0.02657
G1 X122.361 Y114.000 E0.02657
G1 X122.287 Y114.844 E0.02657
G1 X122.068 Y115.662 E0.02657
G1 X121.710 Y116.430 E0.02657
G1 X121.224 Y117.124 E0.02657
G1 X120.636 Y117.712 E0.02606
G1 X119.931 Y118.209 E0.02705
G1 X119.162 Y118.568 E0.02658
G1 X118.344 Y118.787 E0.02657
G1 X117.500 Y118.861 E0.02657
G1 X116.656 Y118.787 E0.02657
G1 X115.838 Y118.568 E0.02657
G1 X115.070 Y118.210 E0.02657
G1 X114.376 Y117.724 E0.02657
G1 X113.788 Y117.136 E0.02606
G1 X113.291 Y116.431 E0.02705
G1 X112.932 Y115.662 E0.02658
G1 X112.736 Y114.928 E0.02384
G1 X112.344 Y114.735 F10800.000
G1 F8640
G1 X112.639 Y114.000 E-0.21546
G1 X112.713 Y113.156 E-0.19564
G1 X112.932 Y112.338 E-0.19564
G1 X113.213 Y111.736 E-0.15326
G1 E-0.04000 F2100.00000
G1 Z0.800 F10800.000
G1 X177.340 Y128.090
G1 Z0.200
G1 E0.80000 F2100.00000
G1 F1200
G1 X177.577 Y127.208 E0.02864
G1 X177.963 Y126.380 E0.02864
G1 X178.486 Y125.632 E0.02863
G1 X179.132 Y124.986 E0.02863
G1 X179.880 Y124.463 E0.02864
G1 X180.708 Y124.077 E0.02864
G1 X181.590 Y123.840 E0.02863
G1 X182.483 Y123.762 E0.02811
G1 X183.409 Y123.840 E0.02912
G1 X184.292 Y124.077 E0.02867
G1 X185.120 Y124.463 E0.02864
G1 X185.868 Y124.986 E0.02863
G1 X186.514 Y125.632 E0.02863
G1 X187.037 Y126.380 E0.02863
G1 X187.416 Y127.193 E0.02811
G1 X187.660 Y128.089 E0.02912
G1 X187.739 Y129.000 E0.02867
G1 X187.660 Y129.910 E0.02863
G1 X187.423 Y130.792 E0.02864
G1 X187.037 Y131.620 E0.02864
G1 X186.523 Y132.354 E0.02811
G1 X185.869 Y133.013 E0.02912
G1 X185.120 Y133.537 E0.02867
G1 X184.292 Y133.923 E0.02864
G1 X183.410 Y134.160 E0.02864
G1 X182.500 Y134.239 E0.02864
G1 X181.590 Y134.160 E0.02863
G1 X180.708 Y133.923 E0.02863
G1 X179.880 Y133.537 E0.02864
G1 X179.132 Y133.014 E0.02864
G1 X178.498 Y132.380 E0.02811
G1 X177.963 Y131.621 E0.02912
G1 X177.577 Y130.792 E0.02867
G1 X177.340 Y129.910 E0.02864
G1 X177.261 Y129.000 E0.02863
G1 X177.335 Y128.150 E0.02675
G1 X177.711 Y128.183 F10800.000
G1 F1200
G1 X177.932 Y127.338 E0.02740
G1 X178.290 Y126.570 E0.02657
G1 X178.776 Y125.876 E0.02657
G1 X179.376 Y125.276 E0.02657
G1 X180.070 Y124.790 E0.02657
