; generated by Slic3r Prusa Edition 1.41.0+win64 on 2019-01-28 at 20:13:30

; 

; external perimeters extrusion width = 0.45mm
; perimeters extrusion width = 0.45mm
; infill extrusion width = 0.45mm
; solid infill extrusion width = 0.45mm
; top infill extrusion width = 0.40mm
; first layer extrusion width = 0.42mm

M201 X1000 Y1000 Z1000 E5000 ; sets maximum accelerations, mm/sec^2
M203 X200 Y200 Z12 E120 ; sets maximum feedrates, mm/sec
M204 P1250 R1250 T1250 ; sets acceleration (P, T) and retract acceleration (R), mm/sec^2
M205 X8.00 Y8.00 Z0.40 E1.50 ; sets the jerk limits, mm/sec
M205 S0 T0 ; sets the minimum extruding and travel feed rate, mm/sec
M107
M115 U3.4.1 ; tell printer latest fw version
M83  ; extruder relative mode
M104 S215 ; set extruder temp
M140 S65 ; set bed temp
M190 S65 ; wait for bed temp
M109 S215 ; wait for extruder temp
G28 W ; home all without mesh bed level
G80 ; mesh bed leveling
G1 Y-3.0 F1000.0 ; go outside print area
G92 E0.0
G1 X60.0 E9.0  F1000.0 ; intro line
M73 Q0 S39
M73 P0 R39
G1 X100.0 E12.5  F1000.0 ; intro line
G92 E0.0
M221 S95
M900 K30; Filament gcode
G21 ; set units to millimeters
G90 ; use absolute coordinates
M83 ; use relative distances for extrusion
;BEFORE_LAYER_CHANGE
G92 E0.0
;0.2


G1 E-0.80000 F2100.00000
G1 Z0.600 F10800.000
;AFTER_LAYER_CHANGE
;0.2
G1 X114.986 Y95.143
G1 Z0.200
G1 E0.80000 F2100.00000
M204 S1000
G1 F1200
G1 X115.903 Y94.936 E0.02949
G1 X134.004 Y94.934 E0.56753
G1 X134.928 Y95.108 E0.02949
G1 X135.731 Y95.606 E0.02961
G1 X136.297 Y96.357 E0.02949
G1 X136.555 Y97.265 E0.02961
G1 X136.563 Y112.615 E0.48127
G1 X136.342 Y113.549 E0.03010
G1 X135.792 Y114.336 E0.03010
G1 X135.014 Y114.857 E0.02936
G1 X134.097 Y115.064 E0.02949
G1 X115.996 Y115.066 E0.56753
G1 X115.489 Y115.014 E0.01598
G1 X115.002 Y114.864 E0.01598
G1 X114.555 Y114.620 E0.01598
G1 X114.164 Y114.292 E0.01598
G1 X113.645 Y113.518 E0.02924
G1 X113.437 Y112.612 E0.02912
G1 X113.434 Y97.496 E0.47396
G1 X113.486 Y96.989 E0.01598
G1 X113.636 Y96.502 E0.01598
G1 X113.880 Y96.055 E0.01598
G1 X114.208 Y95.664 E0.01598
G1 X114.936 Y95.177 E0.02748
G1 F8640
G1 X115.903 Y94.936 E-0.23013
G1 X118.198 Y94.936 E-0.52987
G1 E-0.04000 F2100.00000
G1 Z0.800 F10800.000
G1 X113.989 Y96.636
G1 Z0.200
G1 E0.80000 F2100.00000
G1 F1200
G1 X114.488 Y95.917 E0.02743
G1 X115.154 Y95.482 E0.02496
G1 X115.932 Y95.313 E0.02496
G1 X134.004 Y95.311 E0.56662
G1 X134.796 Y95.461 E0.02529
G1 X135.483 Y95.891 E0.02541
G1 X135.967 Y96.541 E0.02541
G1 X136.181 Y97.323 E0.02541
G1 X136.187 Y112.588 E0.47863
G1 X135.995 Y113.401 E0.02620
G1 X135.512 Y114.083 E0.02620
G1 X134.846 Y114.518 E0.02496
G1 X134.068 Y114.687 E0.02496
G1 X115.993 Y114.689 E0.56674
G1 X115.136 Y114.511 E0.02743
G1 X114.417 Y114.012 E0.02743
G1 X113.983 Y113.349 E0.02484
G1 X113.813 Y112.579 E0.02473
G1 X113.811 Y97.493 E0.47302
G1 X113.977 Y96.695 E0.02555
; PURGING FINISHED
G1 F8640
G1 X114.488 Y95.917 E-0.21483
G1 X115.154 Y95.482 E-0.18379
G1 X115.932 Y95.313 E-0.18379
G1 X116.701 Y95.312 E-0.17760
G1 E-0.04000 F2100.00000
G1 Z0.800 F10800.000
G1 X122.940 Y103.271
G1 Z0.200
G1 E0.80000 F2100.00000
G1 F1200
G1 X123.271 Y102.940 E0.01470
G1 X123.655 Y102.671 E0.01470
G1 X124.080 Y102.473 E0.01470
G1 X124.533 Y102.352 E0.01470
G1 X124.959 Y102.314 E0.01340
G1 X125.462 Y102.350 E0.01583
G1 X125.920 Y102.473 E0.01484
G1 X126.345 Y102.671 E0.01470
G1 X126.729 Y102.940 E0.01470
G1 X127.060 Y103.271 E0.01470
G1 X127.329 Y103.655 E0.01470
G1 X127.527 Y104.080 E0.01470
G1 X127.648 Y104.533 E0.01470
G1 X127.689 Y105.000 E0.01470
G1 X127.648 Y105.467 E0.01470
G1 X127.527 Y105.920 E0.01470
G1 X127.329 Y106.345 E0.01470
G1 X127.060 Y106.729 E0.01470
G1 X126.729 Y107.060 E0.01470
G1 X126.345 Y107.329 E0.01470
G1 X125.920 Y107.527 E0.01470
G1 X125.467 Y107.648 E0.01470
G1 X125.000 Y107.689 E0.01470
G1 X124.533 Y107.648 E0.01470
G1 X124.080 Y107.527 E0.01470
G1 X123.655 Y107.329 E0.01470
G1 X123.271 Y107.060 E0.01470
G1 X122.940 Y106.729 E0.01470
G1 X122.671 Y106.345 E0.01470
G1 X122.473 Y105.920 E0.01470
G1 X122.352 Y105.467 E0.01470
G1 X122.311 Y105.000 E0.01470
G1 X122.352 Y104.533 E0.01470
G1 X122.473 Y104.080 E0.01470
G1 X122.671 Y103.655 E0.01470
G1 X122.905 Y103.320 E0.01282
G1 X123.214 Y103.537 F10800.000
G1 F1200
G1 X123.515 Y103.230 E0.01346
G1 X123.845 Y102.999 E0.01263
G1 X124.210 Y102.829 E0.01263
G1 X124.599 Y102.724 E0.01263
G1 X124.962 Y102.693 E0.01143
G1 X125.400 Y102.724 E0.01376
G1 X125.790 Y102.829 E0.01268
G1 X126.155 Y102.999 E0.01263
G1 X126.485 Y103.230 E0.01263
G1 X126.770 Y103.515 E0.01263
G1 X127.001 Y103.845 E0.01263
G1 X127.171 Y104.210 E0.01263
G1 X127.276 Y104.599 E0.01263
G1 X127.311 Y105.000 E0.01263
G1 X127.276 Y105.401 E0.01263
G1 X127.171 Y105.790 E0.01263
G1 X127.001 Y106.155 E0.01263
G1 X126.770 Y106.485 E0.01263
G1 X126.485 Y106.770 E0.01263
G1 X126.155 Y107.001 E0.01263
G1 X125.790 Y107.171 E0.01263
G1 X125.401 Y107.276 E0.01263
G1 X125.000 Y107.311 E0.01263
G1 X124.599 Y107.276 E0.01263
G1 X124.210 Y107.171 E0.01263
G1 X123.845 Y107.001 E0.01263
G1 X123.515 Y106.770 E0.01263
G1 X123.230 Y106.485 E0.01263
G1 X122.999 Y106.155 E0.01263
G1 X122.829 Y105.790 E0.01263
G1 X122.724 Y105.401 E0.01263
G1 X122.689 Y105.000 E0.01263
G1 X122.724 Y104.599 E0.01263
G1 X122.829 Y104.210 E0.01263
G1 X122.999 Y103.845 E0.01263
G1 X123.180 Y103.586 E0.00990
G1 X123.074 Y103.162 F10800.000
G1 F8640
G1 X123.515 Y103.230 E-0.11285
G1 X123.845 Y102.999 E-0.09301
G1 X124.210 Y102.829 E-0.09301
G1 X124.599 Y102.724 E-0.09301
G1 X124.962 Y102.693 E-0.08417
G1 X125.400 Y102.724 E-0.10134
G1 X125.790 Y102.829 E-0.09339
G1 X126.141 Y102.992 E-0.08922
G1 E-0.04000 F2100.00000
G1 Z0.800 F10800.000
G1 X116.587 Y98.087
G1 Z0.200
G1 E0.80000 F2100.00000
G1 F1200
G1 X133.413 Y98.087 E0.52756
G1 X133.413 Y111.913 E0.43350
G1 X116.587 Y111.913 E0.52756
G1 X116.587 Y98.147 E0.43162
G1 X116.210 Y97.710 F10800.000
G1 F1200
G1 X133.790 Y97.710 E0.55121
G1 X133.790 Y112.290 E0.45715
G1 X116.210 Y112.290 E0.55121
G1 X116.210 Y97.770 E0.45526
G1 X116.599 Y97.801 F10800.000
G1 F8640
G1 X119.501 Y97.759 E-0.76000
G1 E-0.04000 F2100.00000
G1 Z0.800 F10800.000
G1 X121.714 Y98.200
G1 Z0.200
G1 E0.80000 F2100.00000
G1 F1200
G1 X125.611 Y102.097 E0.17519
G1 X125.510 Y102.070 E0.00335
G1 X125.008 Y102.034 E0.01600
G1 X121.343 Y98.370 E0.16472
G1 X120.803 Y98.370 E0.01718
G1 X124.503 Y102.070 E0.16634
G1 X124.074 Y102.182 E0.01409
G1 X120.262 Y98.370 E0.17136
G1 X119.721 Y98.370 E0.01718
G1 X123.693 Y102.341 E0.17853
G1 X123.513 Y102.425 E0.00630
G1 X123.350 Y102.539 E0.00633
G1 X119.181 Y98.370 E0.18743
G1 X118.640 Y98.370 E0.01718
G1 X123.041 Y102.771 E0.19782
G1 X122.770 Y103.041 E0.01215
G1 X118.100 Y98.370 E0.20997
G1 X117.559 Y98.370 E0.01718
G1 X122.539 Y103.350 E0.22388
G1 X122.425 Y103.513 E0.00633
G1 X122.341 Y103.693 E0.00630
G1 X117.018 Y98.370 E0.23929
G1 X116.870 Y98.370 E0.00472
G1 X116.870 Y98.762 E0.01247
G1 X122.182 Y104.074 E0.23878
G1 X122.070 Y104.503 E0.01409
G1 X116.870 Y99.303 E0.23377
G1 X116.870 Y99.843 E0.01718
G1 X122.027 Y105.000 E0.23182
G1 X122.072 Y105.516 E0.01646
G1 X122.098 Y105.612 E0.00314
G1 X116.870 Y100.384 E0.23500
G1 X116.870 Y100.925 E0.01718
G1 X127.575 Y111.630 E0.48124
G1 X128.116 Y111.630 E0.01718
G1 X124.388 Y107.902 E0.16757
G1 X124.484 Y107.928 E0.00314
G1 X125.000 Y107.973 E0.01646
G1 X128.657 Y111.630 E0.16439
G1 X129.197 Y111.630 E0.01718
G1 X125.497 Y107.930 E0.16634
G1 X125.926 Y107.818 E0.01409
G1 X129.738 Y111.630 E0.17135
G1 X130.279 Y111.630 E0.01718
G1 X126.307 Y107.659 E0.17853
G1 X126.487 Y107.575 E0.00630
G1 X126.650 Y107.461 E0.00633
G1 X130.819 Y111.630 E0.18743
G1 X131.360 Y111.630 E0.01718
G1 X126.959 Y107.230 E0.19782
G1 X127.229 Y106.959 E0.01215
G1 X131.900 Y111.630 E0.20997
G1 X132.441 Y111.630 E0.01718
G1 X127.461 Y106.650 E0.22388
G1 X127.575 Y106.487 E0.00633
G1 X127.659 Y106.307 E0.00630
G1 X132.982 Y111.630 E0.23929
G1 X133.130 Y111.630 E0.00472
G1 X133.130 Y111.238 E0.01246
G1 X127.818 Y105.926 E0.23878
G1 X127.930 Y105.497 E0.01409
G1 X133.130 Y110.697 E0.23377
G1 X133.130 Y110.157 E0.01718
G1 X127.973 Y105.000 E0.23182
G1 X127.928 Y104.484 E0.01647
G1 X127.903 Y104.389 E0.00313
G1 X133.130 Y109.616 E0.23500
G1 X133.130 Y109.076 E0.01718
G1 X122.424 Y98.370 E0.48125
G1 X122.965 Y98.370 E0.01718
G1 X133.130 Y108.535 E0.45695
G1 X133.130 Y107.994 E0.01718
G1 X123.506 Y98.370 E0.43264
G1 X124.046 Y98.370 E0.01718
G1 X133.130 Y107.454 E0.40834
G1 X133.130 Y106.913 E0.01718
G1 X124.587 Y98.370 E0.38404
G1 X125.128 Y98.370 E0.01718
G1 X133.130 Y106.372 E0.35974
G1 X133.130 Y105.832 E0.01718
G1 X125.668 Y98.370 E0.33543
G1 X126.209 Y98.370 E0.01718
G1 X133.130 Y105.291 E0.31113
G1 X133.130 Y104.751 E0.01718
G1 X126.749 Y98.370 E0.28683
G1 X127.290 Y98.370 E0.01718
G1 X133.130 Y104.210 E0.26253
G1 X133.130 Y103.669 E0.01718
G1 X127.831 Y98.370 E0.23823
G1 X128.371 Y98.370 E0.01718
G1 X133.130 Y103.129 E0.21392
G1 X133.130 Y102.588 E0.01718
G1 X128.912 Y98.370 E0.18962
G1 X129.453 Y98.370 E0.01718
G1 X133.130 Y102.047 E0.16532
G1 X133.130 Y101.507 E0.01718
G1 X129.993 Y98.370 E0.14102
G1 X130.534 Y98.370 E0.01718
G1 X133.130 Y100.966 E0.11671
G1 X133.130 Y100.426 E0.01718
G1 X131.074 Y98.370 E0.09241
G1 X131.615 Y98.370 E0.01718
G1 X133.130 Y99.885 E0.06811
G1 X133.130 Y99.344 E0.01718
G1 X132.156 Y98.370 E0.04381
G1 X132.696 Y98.370 E0.01718
G1 X133.300 Y98.973 E0.02713
G1 F8640
G1 X132.696 Y98.370 E-0.19711
G1 X132.156 Y98.370 E-0.12483
G1 X133.130 Y99.344 E-0.31823
G1 X133.130 Y99.863 E-0.11983
G1 E-0.04000 F2100.00000
G1 Z0.800 F10800.000
G1 X127.205 Y111.800
G1 Z0.200
G1 E0.80000 F2100.00000
G1 F1200
G1 X116.870 Y101.465 E0.46457
G1 X116.870 Y102.006 E0.01718
G1 X126.494 Y111.630 E0.43264
G1 X125.954 Y111.630 E0.01718
G1 X116.870 Y102.546 E0.40834
G1 X116.870 Y103.087 E0.01718
G1 X125.413 Y111.630 E0.38404
G1 X124.872 Y111.630 E0.01718
G1 X116.870 Y103.628 E0.35973
G1 X116.870 Y104.168 E0.01718
G1 X124.332 Y111.630 E0.33543
G1 X123.791 Y111.630 E0.01718
G1 X116.870 Y104.709 E0.31113
G1 X116.870 Y105.249 E0.01718
G1 X123.251 Y111.630 E0.28683
G1 X122.710 Y111.630 E0.01718
G1 X116.870 Y105.790 E0.26252
G1 X116.870 Y106.331 E0.01718
G1 X122.169 Y111.630 E0.23822
G1 X121.629 Y111.630 E0.01718
G1 X116.870 Y106.871 E0.21392
G1 X116.870 Y107.412 E0.01718
G1 X121.088 Y111.630 E0.18962
G1 X120.547 Y111.630 E0.01718
G1 X116.870 Y107.953 E0.16532
G1 X116.870 Y108.493 E0.01718
G1 X120.007 Y111.630 E0.14101
G1 X119.466 Y111.630 E0.01718
G1 X116.870 Y109.034 E0.11671
G1 X116.870 Y109.574 E0.01718
G1 X118.926 Y111.630 E0.09241
G1 X118.385 Y111.630 E0.01718
G1 X116.870 Y110.115 E0.06811
G1 X116.870 Y110.656 E0.01718
G1 X117.844 Y111.630 E0.04380
G1 X117.304 Y111.630 E0.01718
G1 X116.700 Y111.027 E0.02713
M106 S255
;BEFORE_LAYER_CHANGE
G92 E0.0
;0.3


G1 F8640
G1 X117.304 Y111.630 E-0.19708
G1 X117.844 Y111.630 E-0.12483
G1 X116.870 Y110.656 E-0.31820
G1 X116.870 Y110.136 E-0.11989
G1 E-0.04000 F2100.00000
G1 Z0.800 F10800.000
;AFTER_LAYER_CHANGE
;0.3
M104 S210 ; set temperature
M140 S60 ; set bed temperature
G1 X113.645 Y113.518
G1 Z0.300
G1 E0.80000 F2100.00000
G1 F2231
G1 X113.437 Y112.612 E0.01539
G1 X113.434 Y97.496 E0.25047
G1 X113.486 Y96.989 E0.00844
G1 X113.636 Y96.502 E0.00844
G1 X113.880 Y96.055 E0.00844
G1 X114.208 Y95.664 E0.00844
G1 X114.986 Y95.143 E0.01552
G1 X115.903 Y94.936 E0.01558
G1 X134.004 Y94.934 E0.29991
G1 X134.928 Y95.108 E0.01558
G1 X135.731 Y95.606 E0.01565
G1 X136.297 Y96.357 E0.01558
G1 X136.555 Y97.265 E0.01565
G1 X136.563 Y112.615 E0.25433
G1 X136.342 Y113.549 E0.01590
G1 X135.792 Y114.336 E0.01590
G1 X135.014 Y114.857 E0.01552
G1 X134.097 Y115.064 E0.01558
G1 X115.996 Y115.066 E0.29991
G1 X115.489 Y115.014 E0.00844
G1 X115.002 Y114.864 E0.00844
G1 X114.555 Y114.620 E0.00844
G1 X114.164 Y114.292 E0.00844
G1 X113.678 Y113.567 E0.01446
; PURGING FINISHED
G1 F8640
G1 X113.437 Y112.612 E-0.22745
G1 X113.436 Y110.306 E-0.53255
G1 E-0.04000 F2100.00000
G1 Z0.900 F10800.000
G1 X122.889 Y106.772
G1 Z0.300
G1 E0.80000 F2100.00000
M204 S800
G1 F1500
G1 X122.613 Y106.378 E0.00856
G1 X122.410 Y105.943 E0.00856
G1 X122.286 Y105.479 E0.00856
G1 X122.244 Y105.000 E0.00856
G1 X122.286 Y104.521 E0.00856
G1 X122.410 Y104.057 E0.00856
G1 X122.613 Y103.622 E0.00856
G1 X122.889 Y103.228 E0.00856
G1 X123.228 Y102.889 E0.00856
G1 X123.622 Y102.613 E0.00856
G1 X124.057 Y102.410 E0.00856
G1 X124.521 Y102.286 E0.00856
G1 X125.000 Y102.244 E0.00856
G1 X125.479 Y102.286 E0.00856
G1 X125.943 Y102.410 E0.00856
G1 X126.378 Y102.613 E0.00856
G1 X126.772 Y102.889 E0.00856
G1 X127.111 Y103.228 E0.00856
G1 X127.387 Y103.622 E0.00856
G1 X127.590 Y104.057 E0.00856
G1 X127.714 Y104.521 E0.00856
G1 X127.756 Y105.000 E0.00856
G1 X127.714 Y105.479 E0.00856
G1 X127.590 Y105.943 E0.00856
G1 X127.387 Y106.378 E0.00856
G1 X127.111 Y106.772 E0.00856
G1 X126.772 Y107.111 E0.00856
G1 X126.378 Y107.387 E0.00856
G1 X125.943 Y107.590 E0.00856
G1 X125.479 Y107.714 E0.00856
G1 X125.000 Y107.756 E0.00856
G1 X124.521 Y107.714 E0.00856
G1 X124.057 Y107.590 E0.00856
G1 X123.622 Y107.387 E0.00856
G1 X123.228 Y107.111 E0.00856
G1 X122.931 Y106.814 E0.00749
M204 S1000
G1 X123.234 Y106.511 F10800.000
M204 S800
G1 F1500
G1 X122.986 Y106.163 E0.00762
G1 X122.814 Y105.795 E0.00722
G1 X122.709 Y105.404 E0.00722
G1 X122.674 Y105.000 E0.00722
G1 X122.709 Y104.596 E0.00722
G1 X122.814 Y104.205 E0.00722
G1 X122.986 Y103.837 E0.00722
G1 X123.218 Y103.505 E0.00722
G1 X123.505 Y103.218 E0.00722
G1 X123.837 Y102.986 E0.00722
G1 X124.205 Y102.814 E0.00722
G1 X124.596 Y102.709 E0.00722
G1 X124.889 Y102.684 E0.00524
G1 X125.000 Y102.674 E0.00198
G1 X125.404 Y102.709 E0.00722
G1 X125.795 Y102.814 E0.00722
G1 X126.163 Y102.986 E0.00722
G1 X126.495 Y103.218 E0.00722
G1 X126.782 Y103.505 E0.00722
G1 X127.014 Y103.837 E0.00722
G1 X127.186 Y104.205 E0.00722
G1 X127.291 Y104.596 E0.00722
G1 X127.326 Y105.000 E0.00722
G1 X127.291 Y105.404 E0.00722
G1 X127.186 Y105.795 E0.00722
G1 X127.014 Y106.163 E0.00722
G1 X126.782 Y106.495 E0.00722
G1 X126.495 Y106.782 E0.00722
G1 X126.163 Y107.014 E0.00722
G1 X125.795 Y107.186 E0.00722
G1 X125.404 Y107.291 E0.00722
G1 X125.000 Y107.326 E0.00722
G1 X124.596 Y107.291 E0.00722
G1 X124.205 Y107.186 E0.00722
G1 X123.837 Y107.014 E0.00722
G1 X123.505 Y106.782 E0.00722
G1 X123.277 Y106.553 E0.00575
M204 S1000
G1 X122.841 Y106.583 F10800.000
G1 F8640
G1 X122.986 Y106.163 E-0.11242
G1 X122.814 Y105.795 E-0.09361
G1 X122.709 Y105.404 E-0.09361
G1 X122.674 Y105.000 E-0.09361
G1 X122.709 Y104.596 E-0.09361
G1 X122.814 Y104.205 E-0.09361
G1 X122.986 Y103.837 E-0.09361
G1 X123.199 Y103.532 E-0.08590
G1 E-0.04000 F2100.00000
G1 Z0.900 F10800.000
G1 X116.654 Y111.846
G1 Z0.300
G1 E0.80000 F2100.00000
M204 S800
G1 F2231
G1 X116.654 Y98.154 E0.24396
G1 X133.346 Y98.154 E0.29741
G1 X133.346 Y111.846 E0.24396
G1 X116.714 Y111.846 E0.29634
M204 S1000
G1 X116.225 Y112.275 F10800.000
M204 S800
G1 F2100
G1 X116.225 Y97.725 E0.25923
G1 X133.775 Y97.725 E0.31268
G1 X133.775 Y112.275 E0.25923
G1 X116.285 Y112.275 E0.31161
M204 S1000
G1 X116.340 Y111.892 F10800.000
G1 F8640
G1 X116.271 Y108.984 E-0.76000
G1 E-0.04000 F2100.00000
G1 Z0.900 F10800.000
G1 X116.782 Y108.938
G1 Z0.300
G1 E0.80000 F2100.00000
M204 S1250
G1 F2231
G1 X127.245 Y98.475 E0.26596
G1 X126.634 Y98.475 E0.01099
G1 X116.975 Y108.134 E0.24551
G1 X116.975 Y107.523 E0.01099
G1 X126.023 Y98.475 E0.22997
G1 X125.411 Y98.475 E0.01099
G1 X116.975 Y106.911 E0.21443
M73 Q2 S38
G1 X116.975 Y106.300 E0.01099
G1 X124.800 Y98.475 E0.19889
M73 P2 R38
G1 X124.189 Y98.475 E0.01099
G1 X116.975 Y105.689 E0.18335
G1 X116.975 Y105.077 E0.01099
G1 X123.577 Y98.475 E0.16781
G1 X122.966 Y98.475 E0.01099
G1 X116.975 Y104.466 E0.15227
G1 X116.975 Y103.854 E0.01099
G1 X122.354 Y98.475 E0.13673
G1 X121.743 Y98.475 E0.01099
G1 X116.975 Y103.243 E0.12119
G1 X116.975 Y102.632 E0.01099
G1 X121.132 Y98.475 E0.10565
G1 X120.520 Y98.475 E0.01099
G1 X116.975 Y102.020 E0.09012
G1 X116.975 Y101.409 E0.01099
G1 X119.909 Y98.475 E0.07458
G1 X119.298 Y98.475 E0.01099
G1 X116.975 Y100.798 E0.05904
