; generated by Slic3r Prusa Edition 1.41.0+win64 on 2018-10-22 at 17:37:20

; 

; external perimeters extrusion width = 0.45mm
; perimeters extrusion width = 0.45mm
; infill extrusion width = 0.45mm
; solid infill extrusion width = 0.45mm
; top infill extrusion width = 0.40mm
; first layer extrusion width = 0.42mm

M201 X1000 Y1000 Z1000 E5000 ; sets maximum accelerations, mm/sec^2
M203 X200 Y200 Z12 E120 ; sets maximum feedrates, mm/sec
M204 P1250 R1250 T1250 ; sets acceleration (P, T) and retract acceleration (R), mm/sec^2
M205 X8.00 Y8.00 Z0.40 E1.50 ; sets the jerk limits, mm/sec
M205 S0 T0 ; sets the minimum extruding and travel feed rate, mm/sec
M107
M115 U3.4.0 ; tell printer latest fw version
M83  ; extruder relative mode
M104 S215 ; set extruder temp
M140 S65 ; set bed temp
M190 S65 ; wait for bed temp
M109 S215 ; wait for extruder temp
G28 W ; home all without mesh bed level
G80 ; mesh bed leveling
G1 Y-3.0 F1000.0 ; go outside print area
G92 E0.0
G1 X60.0 E9.0  F1000.0 ; intro line
M73 Q0 S43
M73 P0 R43
G1 X100.0 E12.5  F1000.0 ; intro line
G92 E0.0
M221 S95
M900 K30; Filament gcode
G21 ; set units to millimeters
G90 ; use absolute coordinates
M83 ; use relative distances for extrusion
;BEFORE_LAYER_CHANGE
G92 E0.0
;0.2


G1 E-0.80000 F2100.00000
G1 Z0.600 F10800.000
;AFTER_LAYER_CHANGE
;0.2
G1 X129.257 Y68.745
G1 Z0.200
G1 E0.80000 F2100.00000
M204 S1000
G1 F1200
G1 X131.663 Y69.096 E0.07625
G1 X132.476 Y69.257 E0.02598
G1 X132.921 Y69.429 E0.01498
G1 X151.359 Y79.785 E0.66304
G1 X151.762 Y80.086 E0.01578
G1 X152.337 Y80.707 E0.02653
G1 X153.751 Y82.387 E0.06885
G1 X154.060 Y82.933 E0.01964
G1 X161.516 Y102.694 E0.66224
G1 X161.631 Y103.239 E0.01749
G1 X161.680 Y104.753 E0.04747
G1 X161.665 Y106.241 E0.04667
G1 X161.562 Y106.789 E0.01749
G1 X154.575 Y126.717 E0.66213
G1 X154.277 Y127.272 E0.01976
G1 X152.898 Y128.985 E0.06895
G1 X152.344 Y129.616 E0.02632
G1 X151.948 Y129.926 E0.01578
G1 X133.759 Y140.714 E0.66304
G1 X133.318 Y140.896 E0.01498
G1 X132.503 Y141.080 E0.02619
G1 X130.078 Y141.482 E0.07706
G1 X108.815 Y138.021 E0.67547
G1 X108.330 Y137.852 E0.01612
G1 X106.999 Y137.138 E0.04735
G1 X105.724 Y136.384 E0.04644
G1 X105.283 Y135.997 E0.01839
G1 X91.525 Y119.986 E0.66190
G1 X91.228 Y119.509 E0.01760
G1 X90.667 Y118.107 E0.04735
G1 X90.172 Y116.704 E0.04667
G1 X90.081 Y116.154 E0.01749
G1 X89.831 Y95.059 E0.66144
G1 X89.896 Y94.505 E0.01749
G1 X90.237 Y93.432 E0.03530
G1 X90.888 Y91.661 E0.05917
G1 X91.151 Y91.190 E0.01692
G1 X104.561 Y74.816 E0.66362
G1 X105.034 Y74.388 E0.01998
G1 X107.512 Y72.918 E0.09033
G1 X108.076 Y72.700 E0.01896
G1 X129.198 Y68.756 E0.67369
; PURGING FINISHED
G1 F8640
G1 X131.663 Y69.096 E-0.57465
G1 X132.450 Y69.252 E-0.18535
G1 E-0.04000 F2100.00000
G1 Z0.800 F10800.000
G1 X122.967 Y107.082
G1 Z0.200
G1 E0.80000 F2100.00000
G1 F1200
G1 X122.967 Y103.257 E0.11992
G1 X123.992 Y102.729 E0.03614
G1 X124.421 Y102.594 E0.01409
G1 X124.866 Y102.534 E0.01408
G1 X125.315 Y102.550 E0.01410
G1 X125.755 Y102.642 E0.01409
G1 X126.173 Y102.808 E0.01409
G1 X126.557 Y103.042 E0.01409
G1 X126.895 Y103.337 E0.01409
G1 X127.178 Y103.686 E0.01409
G1 X127.398 Y104.078 E0.01409
G1 X127.549 Y104.502 E0.01409
G1 X127.625 Y104.944 E0.01409
G1 X127.625 Y105.394 E0.01409
G1 X127.549 Y105.837 E0.01409
G1 X127.398 Y106.260 E0.01409
G1 X127.178 Y106.652 E0.01409
G1 X126.895 Y107.001 E0.01409
G1 X126.557 Y107.297 E0.01409
G1 X126.173 Y107.531 E0.01409
G1 X125.755 Y107.696 E0.01409
G1 X125.315 Y107.788 E0.01409
G1 X124.866 Y107.805 E0.01409
G1 X124.421 Y107.744 E0.01409
G1 X123.992 Y107.609 E0.01409
G1 X123.021 Y107.109 E0.03426
G1 X123.344 Y106.852 F10800.000
G1 F1200
G1 X123.344 Y103.487 E0.10550
G1 X124.136 Y103.079 E0.02792
G1 X124.503 Y102.963 E0.01207
G1 X124.884 Y102.912 E0.01206
G1 X125.269 Y102.926 E0.01207
G1 X125.646 Y103.005 E0.01207
G1 X126.004 Y103.146 E0.01207
G1 X126.333 Y103.347 E0.01207
G1 X126.623 Y103.600 E0.01207
G1 X126.865 Y103.899 E0.01207
G1 X127.054 Y104.234 E0.01207
G1 X127.183 Y104.597 E0.01207
G1 X127.248 Y104.977 E0.01207
G1 X127.248 Y105.362 E0.01207
G1 X127.183 Y105.741 E0.01207
G1 X127.054 Y106.104 E0.01207
G1 X126.865 Y106.439 E0.01207
G1 X126.623 Y106.738 E0.01207
G1 X126.333 Y106.992 E0.01207
G1 X126.004 Y107.192 E0.01207
G1 X125.646 Y107.334 E0.01207
G1 X125.269 Y107.413 E0.01207
G1 X124.885 Y107.427 E0.01207
G1 X124.503 Y107.375 E0.01207
G1 X124.136 Y107.259 E0.01207
G1 X123.398 Y106.879 E0.02604
G1 X123.721 Y106.622 F10800.000
G1 F1200
G1 X123.721 Y103.717 E0.09108
G1 X124.280 Y103.429 E0.01970
G1 X124.586 Y103.333 E0.01005
G1 X124.903 Y103.290 E0.01004
G1 X125.224 Y103.301 E0.01005
G1 X125.537 Y103.367 E0.01005
G1 X125.835 Y103.485 E0.01005
G1 X126.109 Y103.652 E0.01005
G1 X126.350 Y103.863 E0.01005
G1 X126.552 Y104.112 E0.01005
G1 X126.709 Y104.391 E0.01005
G1 X126.816 Y104.693 E0.01005
G1 X126.871 Y105.009 E0.01005
G1 X126.871 Y105.329 E0.01005
G1 X126.816 Y105.645 E0.01005
G1 X126.709 Y105.947 E0.01005
G1 X126.552 Y106.227 E0.01005
G1 X126.350 Y106.476 E0.01005
G1 X126.109 Y106.686 E0.01005
G1 X125.835 Y106.853 E0.01005
G1 X125.537 Y106.971 E0.01005
G1 X125.224 Y107.037 E0.01005
G1 X124.903 Y107.049 E0.01005
G1 X124.586 Y107.006 E0.01005
G1 X124.280 Y106.909 E0.01005
G1 X123.775 Y106.649 E0.01782
G1 X124.098 Y106.392 F10800.000
G1 F1200
G1 X124.098 Y103.947 E0.07666
G1 X124.424 Y103.779 E0.01148
G1 X124.668 Y103.702 E0.00803
G1 X124.922 Y103.668 E0.00802
G1 X125.178 Y103.677 E0.00803
G1 X125.428 Y103.729 E0.00803
G1 X125.666 Y103.824 E0.00803
G1 X125.885 Y103.957 E0.00803
G1 X126.078 Y104.125 E0.00803
G1 X126.239 Y104.324 E0.00803
G1 X126.365 Y104.547 E0.00803
G1 X126.450 Y104.789 E0.00803
G1 X126.494 Y105.041 E0.00803
G1 X126.494 Y105.297 E0.00803
G1 X126.450 Y105.549 E0.00803
G1 X126.365 Y105.791 E0.00803
G1 X126.239 Y106.014 E0.00803
G1 X126.078 Y106.213 E0.00803
G1 X125.885 Y106.381 E0.00803
G1 X125.666 Y106.515 E0.00803
G1 X125.428 Y106.609 E0.00803
G1 X125.178 Y106.661 E0.00803
G1 X124.922 Y106.671 E0.00803
G1 X124.668 Y106.636 E0.00803
G1 X124.424 Y106.559 E0.00803
G1 X124.152 Y106.419 E0.00960
G1 X123.702 Y106.338 F10800.000
G1 F8640
G1 X124.098 Y103.947 E-0.57105
G1 X124.424 Y103.779 E-0.08454
G1 X124.668 Y103.702 E-0.05912
G1 X124.863 Y103.676 E-0.04528
G1 E-0.04000 F2100.00000
G1 Z0.800 F10800.000
G1 X120.453 Y108.980
G1 Z0.200
G1 E0.80000 F2100.00000
G1 F1200
G1 X119.066 Y105.168 E0.12718
G1 X120.454 Y101.357 E0.12718
G1 X123.967 Y99.329 E0.12718
G1 X127.962 Y100.034 E0.12718
G1 X130.568 Y103.142 E0.12718
G1 X130.568 Y107.198 E0.12718
G1 X127.960 Y110.305 E0.12718
G1 X123.965 Y111.008 E0.12718
G1 X120.505 Y109.010 E0.12529
G1 X120.316 Y109.336 F10800.000
G1 F1200
G1 X120.238 Y109.291 E0.00284
G1 X130.756 Y138.189 E0.96423
G1 X130.682 Y138.203 E0.00235
G1 X118.702 Y105.268 E1.09883
G1 X108.183 Y134.166 E0.96423
G1 X108.118 Y134.129 E0.00235
G1 X120.110 Y101.199 E1.09883
G1 X93.478 Y116.575 E0.96423
G1 X93.452 Y116.505 E0.00235
G1 X123.805 Y98.988 E1.09883
G1 X93.520 Y93.647 E0.96423
G1 X93.545 Y93.577 E0.00235
G1 X128.057 Y99.668 E1.09883
G1 X108.290 Y76.110 E0.96423
G1 X108.355 Y76.073 E0.00235
G1 X130.877 Y102.923 E1.09883
G1 X130.877 Y72.166 E0.96436
G1 X130.951 Y72.179 E0.00235
G1 X130.945 Y107.229 E1.09894
G1 X150.712 Y83.671 E0.96423
G1 X150.761 Y83.728 E0.00235
G1 X128.229 Y110.571 E1.09883
G1 X158.519 Y105.230 E0.96436
G1 X158.518 Y105.305 E0.00235
G1 X124.001 Y111.385 E1.09894
G1 X150.633 Y126.762 E0.96423
G1 X150.585 Y126.819 E0.00235
G1 X120.368 Y109.366 E1.09411
G1 F8640
G1 X120.238 Y109.291 E-0.03474
G1 X121.312 Y112.243 E-0.72526
G1 E-0.04000 F2100.00000
G1 Z0.800 F10800.000
G1 X131.322 Y106.192
G1 Z0.200
G1 E0.80000 F2100.00000
G1 F1200
G1 X150.712 Y83.085 E0.94581
G1 X151.253 Y83.728 E0.02635
G1 X129.184 Y110.019 E1.07628
G1 X158.897 Y104.781 E0.94600
G1 X158.895 Y105.622 E0.02638
G1 X125.087 Y111.577 E1.07635
G1 X151.210 Y126.660 E0.94581
G1 X150.671 Y127.304 E0.02635
G1 X120.947 Y110.136 E1.07628
M73 Q2 S42
M73 P2 R42
G1 X131.263 Y138.482 E0.94581
G1 X130.436 Y138.629 E0.02635
G1 X118.701 Y106.371 E1.07628
G1 X108.384 Y134.717 E0.94581
G1 X107.655 Y134.298 E0.02635
G1 X119.401 Y102.044 E1.07628
G1 X93.278 Y117.126 E0.94581
G1 X92.989 Y116.337 E0.02635
G1 X122.719 Y99.179 E1.07628
G1 X93.012 Y93.940 E0.94581
G1 X93.299 Y93.150 E0.02635
G1 X127.102 Y99.117 E1.07628
G1 X107.713 Y76.009 E0.94581
G1 X108.440 Y75.587 E0.02635
G1 X130.500 Y101.887 E1.07628
G1 X130.500 Y71.716 E0.94600
G1 X131.328 Y71.864 E0.02637
G1 X131.322 Y106.132 E1.07446
G1 F8640
G1 X133.441 Y103.614 E-0.76000
G1 E-0.04000 F2100.00000
G1 Z0.800 F10800.000
G1 X131.699 Y105.156
G1 Z0.200
G1 E0.80000 F2100.00000
G1 F1200
G1 X150.711 Y82.499 E0.92738
G1 X151.746 Y83.727 E0.05036
G1 X130.139 Y109.468 E1.05372
G1 X159.274 Y104.331 E0.92761
G1 X159.271 Y105.938 E0.05039
G1 X126.173 Y111.768 E1.05375
G1 X151.787 Y126.557 E0.92738
G1 X150.757 Y127.789 E0.05036
G1 X121.655 Y110.981 E1.05372
G1 X131.771 Y138.775 E0.92738
G1 X130.190 Y139.056 E0.05036
G1 X118.701 Y107.474 E1.05372
G1 X108.585 Y135.267 E0.92738
G1 X107.193 Y134.467 E0.05036
G1 X118.693 Y102.889 E1.05372
G1 X93.078 Y117.677 E0.92738
G1 X92.526 Y116.169 E0.05036
G1 X121.633 Y99.370 E1.05372
G1 X92.505 Y94.234 E0.92738
G1 X93.052 Y92.724 E0.05036
G1 X126.147 Y98.565 E1.05372
G1 X107.136 Y75.908 E0.92738
G1 X108.525 Y75.102 E0.05036
G1 X130.123 Y100.850 E1.05372
G1 X130.123 Y71.266 E0.92761
G1 X131.705 Y71.548 E0.05039
G1 X131.699 Y105.096 E1.05187
G1 X131.924 Y105.487 F10800.000
G1 F8640
G1 X133.818 Y102.578 E-0.76000
G1 E-0.04000 F2100.00000
G1 Z0.800 F10800.000
G1 X130.455 Y103.474
G1 Z0.200
G1 E0.80000 F2100.00000
G1 F1200
G1 X127.162 Y100.180 E0.14766
G1 X126.507 Y100.065 E0.02108
G1 X130.285 Y103.843 E0.16940
G1 X130.285 Y104.382 E0.01709
G1 X125.852 Y99.949 E0.19875
G1 X125.197 Y99.834 E0.02108
G1 X130.285 Y104.921 E0.22810
G1 X130.285 Y105.461 E0.01709
G1 X124.543 Y99.718 E0.25746
G1 X124.020 Y99.626 E0.01684
G1 X123.951 Y99.665 E0.00252
G1 X130.285 Y106.000 E0.28399
G1 X130.285 Y106.539 E0.01709
G1 X123.609 Y99.863 E0.29931
G1 X123.267 Y100.060 E0.01251
G1 X125.508 Y102.301 E0.10049
G1 X125.349 Y102.268 E0.00515
G1 X124.921 Y102.253 E0.01360
G1 X122.925 Y100.257 E0.08946
G1 X122.583 Y100.455 E0.01251
G1 X124.435 Y102.307 E0.08303
G1 X124.015 Y102.425 E0.01385
G1 X122.241 Y100.652 E0.07951
G1 X121.900 Y100.849 E0.01251
G1 X123.642 Y102.591 E0.07810
G1 X123.286 Y102.775 E0.01269
G1 X121.558 Y101.047 E0.07748
G1 X121.216 Y101.244 E0.01251
G1 X122.930 Y102.958 E0.07685
G1 X122.684 Y103.084 E0.00875
G1 X122.684 Y103.252 E0.00531
G1 X120.874 Y101.441 E0.08118
G1 X120.685 Y101.550 E0.00692
G1 X120.620 Y101.727 E0.00596
G1 X122.684 Y103.791 E0.09254
G1 X122.684 Y104.330 E0.01709
G1 X120.476 Y102.122 E0.09899
G1 X120.333 Y102.517 E0.01334
G1 X122.684 Y104.869 E0.10544
G1 X122.684 Y105.409 E0.01709
G1 X120.189 Y102.913 E0.11190
G1 X120.045 Y103.308 E0.01334
G1 X122.684 Y105.948 E0.11835
G1 X122.684 Y106.487 E0.01709
G1 X119.901 Y103.703 E0.12480
G1 X119.757 Y104.098 E0.01334
G1 X126.018 Y110.360 E0.28072
G1 X126.476 Y110.279 E0.01476
G1 X124.154 Y107.957 E0.10411
G1 X124.359 Y108.021 E0.00679
G1 X124.820 Y108.084 E0.01477
G1 X126.935 Y110.198 E0.09480
G1 X127.393 Y110.118 E0.01476
G1 X125.346 Y108.070 E0.09179
G1 X125.792 Y107.977 E0.01445
G1 X127.832 Y110.017 E0.09145
G1 X128.078 Y109.724 E0.01213
G1 X126.185 Y107.830 E0.08490
G1 X126.299 Y107.785 E0.00392
G1 X126.535 Y107.641 E0.00874
G1 X128.324 Y109.431 E0.08023
G1 X128.570 Y109.138 E0.01213
G1 X126.849 Y107.417 E0.07717
G1 X127.131 Y107.159 E0.01210
G1 X128.816 Y108.845 E0.07557
G1 X129.062 Y108.551 E0.01213
G1 X127.373 Y106.862 E0.07576
G1 X127.574 Y106.524 E0.01246
G1 X129.309 Y108.258 E0.07774
G1 X129.555 Y107.965 E0.01213
G1 X127.738 Y106.149 E0.08144
G1 X127.823 Y105.909 E0.00808
G1 X127.855 Y105.726 E0.00587
G1 X129.801 Y107.672 E0.08724
G1 X130.047 Y107.379 E0.01213
G1 X127.908 Y105.240 E0.09590
G1 X127.908 Y104.920 E0.01014
G1 X127.862 Y104.655 E0.00853
G1 X130.413 Y107.206 E0.11438
G1 F8640
G1 X128.086 Y104.879 E-0.76000
G1 E-0.04000 F2100.00000
G1 Z0.800 F10800.000
G1 X125.706 Y110.587
G1 Z0.200
G1 E0.80000 F2100.00000
G1 F1200
G1 X119.613 Y104.494 E0.27319
G1 X119.469 Y104.889 E0.01334
G1 X125.101 Y110.521 E0.25252
G1 X124.643 Y110.602 E0.01476
G1 X119.458 Y105.417 E0.23246
G1 X119.766 Y106.265 E0.02859
G1 X124.184 Y110.683 E0.19808
M73 Q4 S41
M73 P4 R41
G1 X124.018 Y110.712 E0.00537
G1 X123.205 Y110.243 E0.02974
G1 X120.074 Y107.112 E0.14037
G1 X120.383 Y107.960 E0.02859
G1 X122.393 Y109.970 E0.09012
M106 S255
;BEFORE_LAYER_CHANGE
G92 E0.0
;0.4


G1 F8640
G1 X120.383 Y107.960 E-0.65638
G1 X120.229 Y107.538 E-0.10362
G1 E-0.04000 F2100.00000
G1 Z0.800 F10800.000
;AFTER_LAYER_CHANGE
;0.4
M104 S210 ; set temperature
M140 S60 ; set bed temperature
G1 X130.078 Y141.482
G1 Z0.400
G1 E0.80000 F2100.00000
G1 F3000
G1 X108.815 Y138.021 E0.67547
G1 X108.330 Y137.852 E0.01612
G1 X106.999 Y137.138 E0.04735
G1 X105.724 Y136.384 E0.04644
G1 X105.283 Y135.997 E0.01839
G1 X91.525 Y119.986 E0.66190
G1 X91.228 Y119.509 E0.01760
G1 X90.667 Y118.107 E0.04735
G1 X90.172 Y116.704 E0.04667
G1 X90.081 Y116.154 E0.01749
G1 X89.831 Y95.059 E0.66144
G1 X89.896 Y94.505 E0.01749
G1 X90.237 Y93.432 E0.03530
G1 X90.888 Y91.661 E0.05917
G1 X91.151 Y91.190 E0.01692
G1 X104.561 Y74.816 E0.66362
G1 X105.034 Y74.388 E0.01998
G1 X107.512 Y72.918 E0.09033
G1 X108.076 Y72.700 E0.01896
G1 X129.257 Y68.745 E0.67557
G1 X131.663 Y69.096 E0.07625
G1 X132.476 Y69.257 E0.02598
G1 X132.921 Y69.429 E0.01498
G1 X151.359 Y79.785 E0.66304
G1 X151.762 Y80.086 E0.01578
G1 X152.337 Y80.707 E0.02653
G1 X153.751 Y82.387 E0.06885
G1 X154.060 Y82.933 E0.01964
G1 X161.516 Y102.694 E0.66224
G1 X161.631 Y103.239 E0.01749
G1 X161.680 Y104.753 E0.04747
G1 X161.665 Y106.241 E0.04667
G1 X161.562 Y106.789 E0.01749
G1 X154.575 Y126.717 E0.66213
G1 X154.277 Y127.272 E0.01976
G1 X152.898 Y128.985 E0.06895
G1 X152.344 Y129.616 E0.02632
G1 X151.948 Y129.926 E0.01578
G1 X133.759 Y140.714 E0.66304
G1 X133.318 Y140.896 E0.01498
G1 X132.503 Y141.080 E0.02619
G1 X130.138 Y141.472 E0.07518
; PURGING FINISHED
G1 F8640
G1 X126.888 Y140.947 E-0.76000
G1 E-0.04000 F2100.00000
G1 Z1.000 F10800.000
G1 X122.862 Y107.146
G1 Z0.400
G1 E0.80000 F2100.00000
M204 S800
G1 F1500
G1 X122.862 Y103.193 E0.13380
G1 X123.952 Y102.632 E0.04149
G1 X124.398 Y102.491 E0.01582
G1 X124.841 Y102.431 E0.01514
G1 X125.321 Y102.444 E0.01626
G1 X125.785 Y102.541 E0.01606
G1 X126.220 Y102.713 E0.01582
G1 X126.619 Y102.957 E0.01582
G1 X126.971 Y103.264 E0.01582
G1 X127.266 Y103.627 E0.01582
G1 X127.494 Y104.034 E0.01582
G1 X127.651 Y104.475 E0.01582
G1 X127.730 Y104.935 E0.01582
G1 X127.730 Y105.403 E0.01582
G1 X127.651 Y105.863 E0.01582
G1 X127.494 Y106.304 E0.01582
G1 X127.266 Y106.711 E0.01582
G1 X126.984 Y107.059 E0.01514
G1 X126.625 Y107.378 E0.01626
G1 X126.220 Y107.625 E0.01606
G1 X125.785 Y107.797 E0.01582
G1 X125.328 Y107.893 E0.01582
G1 X124.861 Y107.910 E0.01582
G1 X124.398 Y107.847 E0.01582
G1 X123.952 Y107.707 E0.01582
G1 X122.916 Y107.173 E0.03946
M204 S1000
G1 X123.269 Y106.897 F10800.000
M204 S800
G1 F1500
G1 X123.269 Y103.441 E0.11699
G1 X124.107 Y103.009 E0.03191
G1 X124.487 Y102.890 E0.01347
G1 X124.863 Y102.839 E0.01285
G1 X125.274 Y102.850 E0.01391
G1 X125.668 Y102.932 E0.01363
G1 X126.038 Y103.079 E0.01347
G1 X126.377 Y103.286 E0.01346
G1 X126.677 Y103.548 E0.01346
G1 X126.928 Y103.856 E0.01346
G1 X127.122 Y104.203 E0.01346
G1 X127.255 Y104.578 E0.01347
G1 X127.323 Y104.970 E0.01346
G1 X127.323 Y105.368 E0.01346
G1 X127.255 Y105.760 E0.01346
G1 X127.122 Y106.135 E0.01346
G1 X126.928 Y106.482 E0.01346
G1 X126.688 Y106.776 E0.01285
G1 X126.382 Y107.050 E0.01391
G1 X126.038 Y107.259 E0.01363
G1 X125.668 Y107.406 E0.01346
G1 X125.278 Y107.487 E0.01346
G1 X124.881 Y107.502 E0.01346
G1 X124.487 Y107.448 E0.01346
G1 X124.107 Y107.329 E0.01346
G1 X123.323 Y106.925 E0.02988
M204 S1000
G1 X123.676 Y106.649 F10800.000
M204 S800
G1 F1500
G1 X123.676 Y103.689 E0.10019
G1 X124.263 Y103.387 E0.02233
