; generated by Slic3r Prusa Edition 1.41.0+win64 on 2018-10-14 at 02:56:36

; 

; external perimeters extrusion width = 0.45mm
; perimeters extrusion width = 0.45mm
; infill extrusion width = 0.45mm
; solid infill extrusion width = 0.45mm
; top infill extrusion width = 0.40mm
; support material extrusion width = 0.35mm
; first layer extrusion width = 0.42mm

M201 X1000 Y1000 Z1000 E5000 ; sets maximum accelerations, mm/sec^2
M203 X200 Y200 Z12 E120 ; sets maximum feedrates, mm/sec
M204 P1250 R1250 T1250 ; sets acceleration (P, T) and retract acceleration (R), mm/sec^2
M205 X8.00 Y8.00 Z0.40 E1.50 ; sets the jerk limits, mm/sec
M205 S0 T0 ; sets the minimum extruding and travel feed rate, mm/sec
M107
M115 U3.4.0 ; tell printer latest fw version
M83  ; extruder relative mode
M104 S215 ; set extruder temp
M140 S65 ; set bed temp
M190 S65 ; wait for bed temp
M109 S215 ; wait for extruder temp
G28 W ; home all without mesh bed level
G80 ; mesh bed leveling
G1 Y-3.0 F1000.0 ; go outside print area
G92 E0.0
G1 X60.0 E9.0  F1000.0 ; intro line
M73 Q0 S84
M73 P0 R83
G1 X100.0 E12.5  F1000.0 ; intro line
G92 E0.0
M221 S95
M900 K30; Filament gcode
G21 ; set units to millimeters
G90 ; use absolute coordinates
M83 ; use relative distances for extrusion
;BEFORE_LAYER_CHANGE
G92 E0.0
;0.2


G1 E-0.80000 F2100.00000
G1 Z0.600 F10800.000
;AFTER_LAYER_CHANGE
;0.2
G1 X90.751 Y87.371
G1 Z0.200
G1 E0.80000 F2100.00000
M204 S1000
G1 F1200
G1 X91.041 Y86.903 E0.01726
G1 X102.375 Y73.035 E0.56158
G1 X102.784 Y72.656 E0.01749
G1 X103.273 Y72.395 E0.01737
G1 X103.797 Y72.266 E0.01692
G1 X124.177 Y69.949 E0.64314
G1 X136.482 Y69.944 E0.38580
G1 X137.024 Y70.012 E0.01714
G1 X137.533 Y70.213 E0.01714
G1 X154.150 Y79.455 E0.59618
G1 X154.722 Y79.921 E0.02315
G1 X155.122 Y80.589 E0.02439
G1 X161.951 Y99.169 E0.62067
G1 X162.049 Y99.810 E0.02032
G1 X162.049 Y110.542 E0.33650
G1 X161.996 Y111.009 E0.01475
G1 X155.063 Y129.898 E0.63088
G1 X154.611 Y130.545 E0.02473
G1 X152.287 Y132.741 E0.10026
G1 X151.901 Y133.022 E0.01498
G1 X137.443 Y140.182 E0.50587
G1 X136.825 Y140.377 E0.02032
G1 X124.231 Y140.227 E0.39488
G1 X106.028 Y137.909 E0.57536
G1 X105.405 Y137.729 E0.02032
G1 X104.854 Y137.368 E0.02066
G1 X102.380 Y135.012 E0.10713
G1 X92.631 Y123.257 E0.47883
G1 X90.907 Y120.785 E0.09449
G1 X90.640 Y120.202 E0.02010
G1 X90.552 Y119.596 E0.01919
G1 X90.552 Y88.274 E0.98208
G1 X90.738 Y87.430 E0.02712
; PURGING FINISHED
G1 F8640
G1 X91.041 Y86.903 E-0.14023
G1 X92.739 Y84.825 E-0.61977
G1 E-0.04000 F2100.00000
G1 Z0.800 F10800.000
G1 X104.053 Y85.153
G1 Z0.200
G1 E0.80000 F2100.00000
G1 F1200
G1 X104.053 Y74.439 E0.33592
G1 X104.807 Y74.439 E0.02365
G1 X104.807 Y84.983 E0.33060
G1 X105.561 Y84.983 E0.02365
G1 X105.561 Y74.439 E0.33060
G1 X106.316 Y74.439 E0.02365
G1 X106.316 Y88.039 E0.42642
G1 X107.070 Y88.475 E0.02730
G1 X107.070 Y74.439 E0.44007
G1 X107.824 Y74.439 E0.02365
G1 X107.824 Y88.910 E0.45372
G1 X108.578 Y89.345 E0.02730
G1 X108.578 Y74.439 E0.46737
G1 X109.332 Y74.439 E0.02365
G1 X109.332 Y89.781 E0.48103
G1 X110.086 Y90.216 E0.02730
G1 X110.086 Y74.439 E0.49468
G1 X110.840 Y74.439 E0.02365
G1 X110.840 Y90.652 E0.50833
G1 X111.595 Y91.087 E0.02730
G1 X111.595 Y74.439 E0.52198
G1 X112.349 Y74.439 E0.02365
G1 X112.349 Y91.523 E0.53564
G1 X113.103 Y91.958 E0.02730
G1 X113.103 Y74.439 E0.54929
G1 X113.857 Y74.439 E0.02365
G1 X113.857 Y92.393 E0.56294
G1 X114.611 Y92.829 E0.02730
G1 X114.611 Y74.439 E0.57659
G1 X115.365 Y74.439 E0.02365
G1 X115.365 Y93.264 E0.59024
G1 X116.120 Y93.700 E0.02730
G1 X116.120 Y74.439 E0.60390
G1 X116.425 Y74.439 E0.00957
G1 X116.425 Y76.746 E0.07234
G1 X116.874 Y76.746 E0.01408
G1 X116.874 Y94.135 E0.54521
G1 X117.628 Y94.570 E0.02730
G1 X117.628 Y77.515 E0.53477
G1 X118.382 Y79.587 E0.06914
G1 X118.382 Y95.006 E0.48345
G1 X119.136 Y95.441 E0.02730
G1 X119.136 Y83.668 E0.36916
G1 X119.685 Y83.668 E0.01721
G1 X119.136 Y82.160 E0.05031
G1 X119.136 Y81.659 E0.01571
G1 X119.890 Y83.731 E0.06914
G1 X119.890 Y95.877 E0.38082
G1 X120.645 Y96.312 E0.02730
G1 X120.645 Y85.803 E0.32951
G1 X121.399 Y87.875 E0.06914
G1 X121.399 Y88.376 E0.01571
G1 X121.351 Y88.244 E0.00441
G1 X121.039 Y88.299 E0.00993
G1 X121.039 Y90.589 E0.07181
G1 X121.399 Y90.589 E0.01128
G1 X121.399 Y96.748 E0.19310
G1 X122.153 Y97.183 E0.02730
G1 X122.153 Y89.947 E0.22688
G1 X122.907 Y92.019 E0.06914
G1 X122.907 Y97.315 E0.16604
G1 X123.346 Y97.195 E0.01426
G1 X123.346 Y94.637 E0.08020
G1 X123.661 Y94.592 E0.00999
G1 X123.661 Y94.091 E0.01571
G1 X124.415 Y96.163 E0.06914
G1 X124.415 Y97.160 E0.03126
G1 F8640
G1 X124.415 Y96.163 E-0.23023
G1 X123.661 Y94.091 E-0.50914
G1 X123.661 Y94.180 E-0.02063
G1 E-0.04000 F2100.00000
G1 Z0.800 F10800.000
G1 X119.136 Y98.995
G1 Z0.200
G1 E0.80000 F2100.00000
G1 F1200
G1 X119.136 Y98.707 E0.00903
G1 X118.382 Y98.272 E0.02730
G1 X118.382 Y100.624 E0.07374
G1 X118.296 Y100.744 E0.00463
G1 X117.628 Y100.862 E0.02128
G1 X117.628 Y97.837 E0.09486
G1 X116.874 Y97.401 E0.02730
G1 X116.874 Y100.995 E0.11268
G1 X116.120 Y101.128 E0.02401
G1 X116.120 Y96.966 E0.13050
G1 X115.365 Y96.530 E0.02730
G1 X115.365 Y101.261 E0.14832
G1 X114.611 Y101.394 E0.02401
G1 X114.611 Y96.095 E0.16614
G1 X113.857 Y95.660 E0.02730
G1 X113.857 Y101.527 E0.18396
G1 X113.103 Y101.660 E0.02401
G1 X113.103 Y95.224 E0.20179
G1 X112.349 Y94.789 E0.02730
G1 X112.349 Y101.793 E0.21961
G1 X111.595 Y101.926 E0.02401
G1 X111.595 Y94.353 E0.23743
G1 X110.840 Y93.918 E0.02730
G1 X110.840 Y102.059 E0.25525
G1 X110.086 Y102.192 E0.02401
G1 X110.086 Y93.482 E0.27307
G1 X109.332 Y93.047 E0.02730
G1 X109.332 Y102.325 E0.29089
G1 X108.578 Y102.458 E0.02401
G1 X108.578 Y92.612 E0.30872
G1 X108.188 Y92.386 E0.01413
G1 X108.188 Y92.584 E0.00620
G1 X108.243 Y92.616 E0.00199
G1 X108.169 Y92.896 E0.00908
G1 X107.824 Y92.896 E0.01082
G1 X107.824 Y102.591 E0.30397
G1 X107.070 Y102.724 E0.02401
G1 X107.070 Y91.741 E0.34436
G1 X106.316 Y91.305 E0.02730
G1 X106.316 Y102.857 E0.36218
G1 X105.561 Y102.990 E0.02401
G1 X105.561 Y90.870 E0.38000
G1 X105.074 Y90.589 E0.01763
G1 X104.889 Y90.589 E0.00580
G1 X104.889 Y90.482 E0.00335
G1 X104.807 Y90.435 E0.00297
G1 X104.807 Y103.123 E0.39782
G1 X104.053 Y103.256 E0.02401
G1 X104.053 Y89.999 E0.41564
G1 X103.299 Y89.564 E0.02730
G1 X103.299 Y103.389 E0.43347
G1 X102.545 Y103.521 E0.02401
G1 X102.545 Y89.128 E0.45129
G1 X101.791 Y88.693 E0.02730
G1 X101.791 Y103.654 E0.46911
G1 X101.036 Y103.787 E0.02401
G1 X101.036 Y88.282 E0.48617
G1 X100.282 Y88.282 E0.02365
G1 X100.282 Y103.920 E0.49034
G1 X99.528 Y104.053 E0.02401
G1 X99.528 Y88.282 E0.49451
G1 X98.774 Y88.282 E0.02365
G1 X98.774 Y103.440 E0.47527
G1 X98.020 Y103.440 E0.02365
G1 X98.020 Y88.282 E0.47527
G1 X97.266 Y88.282 E0.02365
G1 X97.266 Y103.440 E0.47527
G1 X96.511 Y103.440 E0.02365
G1 X96.511 Y88.282 E0.47527
G1 X95.757 Y88.282 E0.02365
G1 X95.757 Y103.440 E0.47527
G1 X95.003 Y103.440 E0.02365
G1 X95.003 Y88.282 E0.47527
G1 X94.249 Y88.282 E0.02365
G1 X94.249 Y101.133 E0.40294
G1 X93.495 Y101.133 E0.02365
G1 X93.495 Y88.282 E0.40294
G1 X92.741 Y88.282 E0.02365
G1 X92.741 Y101.302 E0.40826
G1 F8640
G1 X92.741 Y98.011 E-0.76000
G1 E-0.04000 F2100.00000
G1 Z0.800 F10800.000
G1 X92.741 Y108.876
G1 Z0.200
G1 E0.80000 F2100.00000
G1 F1200
G1 X92.741 Y119.589 E0.33592
G1 X93.495 Y119.589 E0.02365
G1 X93.495 Y109.045 E0.33060
G1 X94.249 Y109.045 E0.02365
G1 X94.249 Y119.589 E0.33060
M73 Q1 S83
G1 X94.345 Y119.589 E0.00302
G1 X94.345 Y121.897 E0.07234
G1 X95.003 Y121.897 E0.02063
G1 X95.003 Y109.045 E0.40294
M73 P1 R82
G1 X95.757 Y109.045 E0.02365
G1 X95.757 Y121.897 E0.40294
G1 X96.511 Y121.897 E0.02365
G1 X96.511 Y109.045 E0.40294
G1 X96.652 Y109.045 E0.00442
G1 X96.652 Y107.433 E0.05057
G1 X97.266 Y107.325 E0.01952
G1 X97.266 Y121.897 E0.45689
G1 X98.020 Y121.897 E0.02365
G1 X98.020 Y107.192 E0.46106
G1 X98.774 Y107.059 E0.02401
G1 X98.774 Y121.897 E0.46523
G1 X99.528 Y121.897 E0.02365
G1 X99.528 Y106.926 E0.46940
G1 X100.282 Y106.793 E0.02401
G1 X100.282 Y121.897 E0.47357
G1 X101.036 Y121.897 E0.02365
G1 X101.036 Y106.738 E0.47527
G1 X101.791 Y106.738 E0.02365
G1 X101.791 Y121.897 E0.47527
G1 X102.545 Y121.897 E0.02365
G1 X102.545 Y106.738 E0.47527
G1 X103.299 Y106.738 E0.02365
G1 X103.299 Y119.589 E0.40294
G1 X104.053 Y119.589 E0.02365
G1 X104.053 Y106.738 E0.40294
G1 X104.807 Y106.738 E0.02365
G1 X104.807 Y119.589 E0.40294
G1 X105.561 Y119.589 E0.02365
G1 X105.561 Y106.738 E0.40294
G1 X106.316 Y106.738 E0.02365
G1 X106.316 Y118.983 E0.38394
G1 X107.070 Y118.085 E0.03679
G1 X107.070 Y106.738 E0.35576
G1 X107.824 Y106.738 E0.02365
G1 X107.824 Y117.186 E0.32758
G1 X108.578 Y116.287 E0.03679
G1 X108.578 Y105.330 E0.34356
G1 X109.332 Y105.197 E0.02401
G1 X109.332 Y115.388 E0.31955
G1 X110.086 Y114.490 E0.03679
G1 X110.086 Y105.064 E0.29554
G1 X110.840 Y104.931 E0.02401
G1 X110.840 Y113.591 E0.27153
G1 X111.595 Y112.692 E0.03679
G1 X111.595 Y104.798 E0.24751
G1 X112.349 Y104.665 E0.02401
G1 X112.349 Y111.793 E0.22350
G1 X113.103 Y110.895 E0.03679
G1 X113.103 Y104.532 E0.19949
G1 X113.857 Y104.399 E0.02401
G1 X113.857 Y109.996 E0.17548
G1 X114.611 Y109.097 E0.03679
G1 X114.611 Y104.266 E0.15147
G1 X115.365 Y104.133 E0.02401
G1 X115.365 Y108.198 E0.12746
G1 X116.120 Y107.299 E0.03679
G1 X116.120 Y104.000 E0.10345
G1 X116.874 Y103.867 E0.02401
G1 X116.874 Y104.041 E0.00546
G1 X116.614 Y104.087 E0.00827
G1 X116.644 Y104.431 E0.01084
G1 X116.874 Y104.431 E0.00720
G1 X116.874 Y106.665 E0.07003
G1 F8640
G1 X116.874 Y104.431 E-0.51569
G1 X116.644 Y104.431 E-0.05303
G1 X116.614 Y104.087 E-0.07983
G1 X116.874 Y104.041 E-0.06090
G1 X116.874 Y103.867 E-0.04017
G1 X116.829 Y103.875 E-0.01038
G1 E-0.04000 F2100.00000
G1 Z0.800 F10800.000
G1 X118.382 Y109.534
G1 Z0.200
G1 E0.80000 F2100.00000
G1 F1200
G1 X118.382 Y109.202 E0.01041
G1 X118.306 Y109.094 E0.00414
G1 X117.628 Y109.902 E0.03309
G1 X117.628 Y110.433 E0.01663
G1 X117.628 Y111.183 F10800.000
G1 F1200
G1 X117.628 Y133.432 E0.69760
G1 X118.382 Y133.432 E0.02365
G1 X118.382 Y111.353 E0.69228
G1 X119.136 Y111.353 E0.02365
G1 X119.136 Y131.295 E0.62527
G1 F8640
G1 X119.136 Y128.003 E-0.76000
G1 E-0.04000 F2100.00000
G1 Z0.800 F10800.000
G1 X116.874 Y133.602
G1 Z0.200
G1 E0.80000 F2100.00000
G1 F1200
G1 X116.874 Y110.801 E0.71489
G1 X116.120 Y111.700 E0.03679
G1 X116.120 Y135.739 E0.75373
G1 X115.365 Y135.739 E0.02365
G1 X115.365 Y112.599 E0.72555
G1 X114.611 Y113.497 E0.03679
G1 X114.611 Y135.739 E0.69737
G1 X113.857 Y135.739 E0.02365
G1 X113.857 Y114.396 E0.66919
G1 X113.103 Y115.295 E0.03679
G1 X113.103 Y135.739 E0.64101
G1 X112.349 Y135.739 E0.02365
G1 X112.349 Y116.194 E0.61283
G1 X111.595 Y117.093 E0.03679
G1 X111.595 Y135.739 E0.58465
G1 X110.840 Y135.739 E0.02365
G1 X110.840 Y117.991 E0.55647
G1 X110.086 Y118.890 E0.03679
G1 X110.086 Y135.739 E0.52829
G1 X109.332 Y135.739 E0.02365
G1 X109.332 Y119.789 E0.50011
G1 X108.578 Y120.688 E0.03679
G1 X108.578 Y135.739 E0.47193
G1 X107.824 Y135.739 E0.02365
G1 X107.824 Y121.586 E0.44375
G1 X107.070 Y122.485 E0.03679
G1 X107.070 Y135.739 E0.41556
G1 X106.316 Y135.739 E0.02365
G1 X106.316 Y123.384 E0.38738
G1 X105.881 Y123.902 E0.02121
G1 X105.881 Y125.195 E0.04054
G1 X105.561 Y125.195 E0.01001
G1 X105.561 Y133.432 E0.25826
G1 X104.807 Y133.432 E0.02365
G1 X104.807 Y125.195 E0.25826
G1 X104.053 Y126.080 E0.03647
G1 X104.053 Y133.602 E0.23582
G1 F8640
G1 X104.053 Y130.310 E-0.76000
G1 E-0.04000 F2100.00000
G1 Z0.800 F10800.000
G1 X104.053 Y106.474
G1 Z0.200
G1 E0.80000 F2100.00000
G1 F1200
G1 X104.053 Y106.128 E0.01086
G1 X104.807 Y105.995 E0.02401
G1 X104.807 Y106.169 E0.00545
G1 X105.561 Y106.036 E0.02401
G1 X105.561 Y105.862 E0.00545
G1 X106.316 Y105.729 E0.02401
G1 X106.316 Y105.903 E0.00545
G1 X107.070 Y105.770 E0.02401
G1 X107.070 Y105.596 E0.00546
G1 X107.824 Y105.463 E0.02401
G1 X107.824 Y105.809 E0.01086
G1 F8640
G1 X107.824 Y105.463 E-0.07996
G1 X107.070 Y105.596 E-0.17682
G1 X107.070 Y105.770 E-0.04017
G1 X106.316 Y105.903 E-0.17682
G1 X106.316 Y105.729 E-0.04017
G1 X105.561 Y105.862 E-0.17682
G1 X105.561 Y106.036 E-0.04017
G1 X105.437 Y106.058 E-0.02905
G1 E-0.04000 F2100.00000
G1 Z0.800 F10800.000
G1 X124.415 Y112.604
G1 Z0.200
G1 E0.80000 F2100.00000
G1 F1200
G1 X124.415 Y138.046 E0.79773
G1 X125.169 Y138.046 E0.02365
G1 X125.169 Y113.313 E0.77550
G1 X125.924 Y114.211 E0.03679
G1 X125.924 Y138.046 E0.74732
G1 X126.678 Y138.046 E0.02365
G1 X126.678 Y115.110 E0.71914
G1 X127.432 Y116.009 E0.03679
G1 X127.432 Y138.046 E0.69096
G1 X128.186 Y138.046 E0.02365
G1 X128.186 Y116.908 E0.66278
G1 X128.940 Y117.806 E0.03679
G1 X128.940 Y138.046 E0.63460
G1 X129.694 Y138.046 E0.02365
G1 X129.694 Y118.705 E0.60642
G1 X130.449 Y119.604 E0.03679
G1 X130.449 Y138.046 E0.57824
G1 X131.203 Y138.046 E0.02365
G1 X131.203 Y120.503 E0.55006
G1 X131.957 Y121.402 E0.03679
G1 X131.957 Y138.046 E0.52188
G1 X132.711 Y138.046 E0.02365
G1 X132.711 Y122.300 E0.49370
G1 X133.465 Y123.199 E0.03679
G1 X133.465 Y138.046 E0.46552
G1 X134.219 Y138.046 E0.02365
G1 X134.219 Y124.098 E0.43734
G1 X134.974 Y124.997 E0.03679
G1 X134.974 Y138.046 E0.40916
G1 X135.728 Y138.046 E0.02365
G1 X135.728 Y125.895 E0.38098
G1 X136.482 Y126.794 E0.03679
G1 X136.482 Y138.216 E0.35812
G1 F8640
G1 X136.482 Y134.924 E-0.76000
G1 E-0.04000 F2100.00000
G1 Z0.800 F10800.000
G1 X153.073 Y128.987
G1 Z0.200
G1 E0.80000 F2100.00000
G1 F1200
G1 X153.073 Y118.274 E0.33592
G1 X152.319 Y118.274 E0.02365
G1 X152.319 Y128.818 E0.33060
G1 X151.565 Y128.818 E0.02365
G1 X151.565 Y118.274 E0.33060
G1 X151.031 Y118.274 E0.01675
G1 X151.031 Y114.854 E0.10721
G1 X150.811 Y114.816 E0.00700
G1 X150.811 Y131.125 E0.51136
M73 Q2 S82
G1 X150.057 Y131.125 E0.02365
G1 X150.057 Y114.683 E0.51552
M73 P2 R81
G1 X149.303 Y114.550 E0.02401
G1 X149.303 Y131.125 E0.51969
G1 X148.548 Y131.125 E0.02365
G1 X148.548 Y114.417 E0.52386
G1 X147.794 Y114.284 E0.02401
G1 X147.794 Y131.125 E0.52803
G1 X147.040 Y131.125 E0.02365
G1 X147.040 Y114.151 E0.53220
G1 X146.286 Y114.018 E0.02401
G1 X146.286 Y131.125 E0.53637
G1 X145.532 Y131.125 E0.02365
G1 X145.532 Y113.885 E0.54054
G1 X144.778 Y113.752 E0.02401
G1 X144.778 Y131.125 E0.54471
G1 X144.023 Y131.125 E0.02365
G1 X144.023 Y113.619 E0.54888
G1 X143.269 Y113.486 E0.02401
G1 X143.269 Y131.125 E0.55305
G1 X142.794 Y131.125 E0.01491
G1 X142.794 Y128.818 E0.07234
G1 X142.515 Y128.818 E0.00874
G1 X142.515 Y113.353 E0.48488
G1 X141.761 Y113.220 E0.02401
G1 X141.761 Y128.685 E0.48489
G1 X141.007 Y127.786 E0.03678
G1 X141.007 Y113.087 E0.46088
G1 X140.253 Y112.954 E0.02401
G1 X140.253 Y126.511 E0.42505
G1 X139.936 Y126.511 E0.00992
G1 X139.499 Y125.989 E0.02136
G1 X139.499 Y112.821 E0.41286
G1 X138.744 Y112.688 E0.02401
G1 X138.744 Y125.090 E0.38885
G1 X138.180 Y124.417 E0.02754
G1 X138.180 Y124.204 E0.00670
G1 X137.990 Y124.191 E0.00596
G1 X137.990 Y112.555 E0.36484
G1 X137.236 Y112.422 E0.02401
G1 X137.236 Y123.292 E0.34083
G1 X136.482 Y122.394 E0.03679
G1 X136.482 Y112.289 E0.31682
G1 X135.728 Y112.156 E0.02401
G1 X135.728 Y121.495 E0.29281
G1 X134.974 Y120.596 E0.03679
G1 X134.974 Y112.023 E0.26879
G1 X134.219 Y111.890 E0.02401
G1 X134.219 Y119.697 E0.24478
G1 X133.465 Y118.799 E0.03679
G1 X133.465 Y111.757 E0.22077
G1 X132.711 Y111.624 E0.02401
G1 X132.711 Y117.900 E0.19676
G1 X131.957 Y117.001 E0.03679
G1 X131.957 Y111.491 E0.17275
G1 X131.203 Y111.358 E0.02401
G1 X131.203 Y116.102 E0.14874
G1 X130.449 Y115.204 E0.03679
G1 X130.449 Y111.225 E0.12473
G1 X129.877 Y111.125 E0.01821
G1 X129.694 Y111.250 E0.00694
G1 X129.694 Y114.305 E0.09578
G1 X128.940 Y113.406 E0.03679
G1 X128.940 Y113.139 E0.00836
G1 X128.186 Y112.241 E0.03679
G1 X128.186 Y112.771 E0.01663
G1 F8640
G1 X128.186 Y112.241 E-0.12250
G1 X128.940 Y113.139 E-0.27091
G1 X128.940 Y113.406 E-0.06155
G1 X129.694 Y114.305 E-0.27091
G1 X129.694 Y114.157 E-0.03413
G1 E-0.04000 F2100.00000
G1 Z0.800 F10800.000
G1 X132.711 Y108.925
G1 Z0.200
G1 E0.80000 F2100.00000
G1 F1200
G1 X132.711 Y108.578 E0.01086
G1 X133.465 Y108.711 E0.02401
G1 X133.465 Y108.885 E0.00545
G1 X134.219 Y109.018 E0.02401
G1 X134.219 Y108.844 E0.00545
G1 X134.974 Y108.977 E0.02401
