; generated by Slic3r Prusa Edition 1.41.0+win64 on 2018-10-14 at 10:58:48

; 

; external perimeters extrusion width = 0.45mm
; perimeters extrusion width = 0.45mm
; infill extrusion width = 0.45mm
; solid infill extrusion width = 0.45mm
; top infill extrusion width = 0.40mm
; support material extrusion width = 0.35mm
; first layer extrusion width = 0.42mm

M201 X1000 Y1000 Z1000 E5000 ; sets maximum accelerations, mm/sec^2
M203 X200 Y200 Z12 E120 ; sets maximum feedrates, mm/sec
M204 P1250 R1250 T1250 ; sets acceleration (P, T) and retract acceleration (R), mm/sec^2
M205 X8.00 Y8.00 Z0.40 E1.50 ; sets the jerk limits, mm/sec
M205 S0 T0 ; sets the minimum extruding and travel feed rate, mm/sec
M107
M115 U3.4.0 ; tell printer latest fw version
M83  ; extruder relative mode
M104 S215 ; set extruder temp
M140 S65 ; set bed temp
M190 S65 ; wait for bed temp
M109 S215 ; wait for extruder temp
G28 W ; home all without mesh bed level
G80 ; mesh bed leveling
G1 Y-3.0 F1000.0 ; go outside print area
G92 E0.0
G1 X60.0 E9.0  F1000.0 ; intro line
M73 Q0 S91
M73 P0 R91
G1 X100.0 E12.5  F1000.0 ; intro line
G92 E0.0
M221 S95
M900 K30; Filament gcode
G21 ; set units to millimeters
G90 ; use absolute coordinates
M83 ; use relative distances for extrusion
;BEFORE_LAYER_CHANGE
G92 E0.0
;0.2


G1 E-0.80000 F2100.00000
G1 Z0.600 F10800.000
;AFTER_LAYER_CHANGE
;0.2
G1 X90.593 Y120.167
G1 Z0.200
G1 E0.80000 F2100.00000
M204 S1000
G1 F1200
G1 X90.550 Y88.065 E1.00652
G1 X90.627 Y87.506 E0.01771
G1 X90.845 Y86.985 E0.01771
G1 X91.159 Y86.568 E0.01635
G1 X106.622 Y70.572 E0.69757
G1 X107.004 Y70.262 E0.01544
G1 X107.449 Y70.043 E0.01555
G1 X108.176 Y69.915 E0.02315
G1 X138.742 Y69.915 E0.95836
G1 X139.284 Y69.984 E0.01714
G1 X139.793 Y70.184 E0.01714
G1 X151.957 Y77.162 E0.43969
G1 X155.050 Y79.972 E0.13103
G1 X155.332 Y80.436 E0.01703
G1 X157.393 Y85.206 E0.16290
G1 X161.971 Y99.217 E0.46218
G1 X162.047 Y99.784 E0.01794
G1 X162.047 Y110.513 E0.33640
G1 X161.992 Y110.988 E0.01498
G1 X154.962 Y130.061 E0.63736
G1 X154.650 Y130.475 E0.01623
G1 X150.280 Y134.940 E0.19588
G1 X149.797 Y135.309 E0.01908
G1 X137.266 Y140.230 E0.42212
G1 X136.691 Y140.366 E0.01851
G1 X119.581 Y140.185 E0.53650
G1 X105.764 Y137.829 E0.43948
G1 X100.688 Y135.296 E0.17788
G1 X100.290 Y134.999 E0.01555
G1 X99.967 Y134.618 E0.01567
G1 X90.903 Y120.924 E0.51492
G1 X90.616 Y120.222 E0.02375
; PURGING FINISHED
G1 F8640
G1 X90.609 Y116.931 E-0.76000
G1 E-0.04000 F2100.00000
G1 Z0.800 F10800.000
G1 X92.738 Y119.731
G1 Z0.200
G1 E0.80000 F2100.00000
G1 F1200
G1 X92.738 Y104.403 E0.48059
G1 X93.492 Y104.403 E0.02365
G1 X93.492 Y119.561 E0.47527
G1 X94.246 Y119.561 E0.02365
G1 X94.246 Y104.403 E0.47527
G1 X94.595 Y104.403 E0.01094
G1 X94.584 Y104.870 E0.01466
G1 X94.881 Y105.125 E0.01226
G1 X95.001 Y105.104 E0.00381
G1 X95.001 Y121.868 E0.52564
G1 X95.755 Y121.868 E0.02365
G1 X95.755 Y104.971 E0.52981
G1 X96.509 Y104.838 E0.02401
G1 X96.509 Y121.868 E0.53399
G1 X97.263 Y121.868 E0.02365
G1 X97.263 Y104.704 E0.53818
G1 X98.017 Y104.569 E0.02402
G1 X98.017 Y121.868 E0.54239
G1 X98.771 Y121.868 E0.02365
G1 X98.771 Y104.436 E0.54658
G1 X99.525 Y104.303 E0.02401
G1 X99.525 Y121.868 E0.55075
G1 X100.280 Y121.868 E0.02365
G1 X100.280 Y104.170 E0.55492
G1 X101.034 Y104.037 E0.02401
G1 X101.034 Y121.255 E0.53986
G1 X101.788 Y120.354 E0.03685
G1 X101.788 Y103.904 E0.51577
G1 X102.542 Y103.771 E0.02401
G1 X102.542 Y119.453 E0.49169
G1 X103.296 Y118.553 E0.03682
G1 X103.296 Y103.638 E0.46764
G1 X104.050 Y103.505 E0.02401
G1 X104.050 Y117.654 E0.44362
G1 X104.805 Y116.754 E0.03680
G1 X104.805 Y103.372 E0.41959
G1 X105.559 Y103.239 E0.02401
G1 X105.559 Y115.855 E0.39557
G1 X106.313 Y114.956 E0.03680
G1 X106.313 Y103.106 E0.37155
G1 X107.067 Y102.973 E0.02401
G1 X107.067 Y114.057 E0.34753
G1 X107.821 Y113.158 E0.03679
G1 X107.821 Y102.840 E0.32352
G1 X108.575 Y102.707 E0.02401
G1 X108.575 Y112.259 E0.29950
G1 X109.330 Y111.361 E0.03679
G1 X109.330 Y102.574 E0.27549
G1 X110.084 Y102.441 E0.02401
G1 X110.084 Y110.462 E0.25148
G1 X110.838 Y109.563 E0.03679
G1 X110.838 Y102.308 E0.22746
G1 X111.592 Y102.175 E0.02401
G1 X111.592 Y108.664 E0.20345
G1 X112.346 Y107.765 E0.03679
G1 X112.346 Y102.042 E0.17944
G1 X113.100 Y101.909 E0.02401
G1 X113.100 Y106.866 E0.15542
G1 X113.855 Y105.967 E0.03679
G1 X113.855 Y101.776 E0.13141
G1 X114.609 Y101.643 E0.02401
G1 X114.609 Y105.333 E0.11568
G1 X116.871 Y102.636 F10800.000
G1 F1200
G1 X116.871 Y102.096 E0.01695
G1 X116.117 Y102.096 E0.02365
G1 X116.117 Y103.271 E0.03685
G1 X115.363 Y104.170 E0.03679
G1 X115.363 Y102.096 E0.06503
G1 X115.008 Y102.096 E0.01111
G1 X114.978 Y101.752 E0.01084
G1 X115.363 Y101.684 E0.01224
G1 X115.363 Y101.510 E0.00543
G1 X116.117 Y101.377 E0.02401
G1 X116.117 Y101.551 E0.00543
G1 X116.871 Y101.418 E0.02401
G1 X116.871 Y101.244 E0.00543
G1 X117.625 Y101.111 E0.02401
G1 X117.625 Y101.457 E0.01084
G1 F8640
G1 X117.625 Y101.111 E-0.07980
G1 X116.871 Y101.244 E-0.17682
G1 X116.871 Y101.418 E-0.04001
G1 X116.117 Y101.551 E-0.17682
G1 X116.117 Y101.377 E-0.04001
G1 X115.363 Y101.510 E-0.17682
G1 X115.363 Y101.684 E-0.04002
G1 X115.236 Y101.706 E-0.02969
G1 E-0.04000 F2100.00000
G1 Z0.800 F10800.000
G1 X121.396 Y97.422
G1 Z0.200
G1 E0.80000 F2100.00000
G1 F1200
G1 X121.396 Y97.029 E0.01232
G1 X120.642 Y96.593 E0.02730
G1 X120.642 Y97.707 E0.03491
G1 X119.888 Y97.840 E0.02401
G1 X119.888 Y96.158 E0.05274
G1 X119.134 Y95.722 E0.02730
G1 X119.134 Y97.973 E0.07056
G1 X118.379 Y98.106 E0.02401
G1 X118.379 Y95.287 E0.08838
G1 X117.625 Y94.851 E0.02730
G1 X117.625 Y98.239 E0.10620
G1 X116.871 Y98.372 E0.02401
G1 X116.871 Y94.416 E0.12402
G1 X116.117 Y93.981 E0.02730
G1 X116.117 Y98.505 E0.14184
G1 X115.363 Y98.638 E0.02401
G1 X115.363 Y93.545 E0.15966
G1 X114.609 Y93.110 E0.02730
G1 X114.609 Y98.771 E0.17749
G1 X113.855 Y98.904 E0.02401
G1 X113.855 Y92.674 E0.19531
G1 X113.100 Y92.239 E0.02730
G1 X113.100 Y99.037 E0.21313
G1 X112.346 Y99.170 E0.02401
G1 X112.346 Y91.804 E0.23096
G1 X111.592 Y91.368 E0.02730
G1 X111.592 Y99.303 E0.24878
G1 X110.838 Y99.436 E0.02401
G1 X110.838 Y90.933 E0.26660
G1 X110.084 Y90.497 E0.02730
G1 X110.084 Y99.569 E0.28442
G1 X109.330 Y99.702 E0.02401
G1 X109.330 Y90.062 E0.30225
G1 X108.575 Y89.627 E0.02730
G1 X108.575 Y99.835 E0.32007
G1 X107.821 Y99.968 E0.02401
G1 X107.821 Y89.191 E0.33789
G1 X107.067 Y88.756 E0.02730
G1 X107.067 Y100.101 E0.35572
G1 X106.313 Y100.234 E0.02401
G1 X106.313 Y88.320 E0.37354
G1 X105.559 Y87.885 E0.02730
G1 X105.559 Y100.367 E0.39136
G1 X104.805 Y100.500 E0.02401
G1 X104.805 Y87.450 E0.40918
G1 X104.050 Y87.016 E0.02728
G1 X104.050 Y100.633 E0.42695
G1 X103.296 Y100.766 E0.02401
G1 X103.296 Y86.582 E0.44474
G1 X102.542 Y86.146 E0.02730
G1 X102.542 Y100.899 E0.46256
G1 X101.788 Y101.032 E0.02401
G1 X101.788 Y85.946 E0.47301
G1 X101.034 Y85.946 E0.02365
G1 X101.034 Y101.165 E0.47718
G1 X100.280 Y101.299 E0.02401
G1 X100.280 Y85.946 E0.48136
G1 X99.525 Y85.946 E0.02365
G1 X99.525 Y101.432 E0.48554
G1 X98.771 Y101.565 E0.02401
G1 X98.771 Y85.946 E0.48972
G1 X98.017 Y85.946 E0.02365
G1 X98.017 Y101.699 E0.49391
G1 X97.263 Y101.833 E0.02402
G1 X97.263 Y85.946 E0.49811
G1 X96.509 Y85.946 E0.02365
G1 X96.509 Y101.968 E0.50235
G1 X95.755 Y102.100 E0.02400
G1 X95.755 Y85.946 E0.50648
G1 X95.001 Y85.946 E0.02365
G1 X95.001 Y102.231 E0.51060
G1 X94.874 Y102.253 E0.00404
G1 X94.681 Y102.472 E0.00913
G1 X94.640 Y103.412 E0.02949
G1 X94.343 Y103.412 E0.00931
G1 X94.343 Y101.105 E0.07234
G1 X94.246 Y101.105 E0.00302
G1 X94.246 Y88.253 E0.40294
G1 X93.492 Y88.253 E0.02365
G1 X93.492 Y101.105 E0.40294
G1 X92.738 Y101.105 E0.02365
G1 X92.738 Y88.084 E0.40826
M73 Q1 S90
G1 F8640
G1 X92.738 Y91.375 E-0.76000
G1 E-0.04000 F2100.00000
G1 Z0.800 F10800.000
G1 X104.050 Y76.548
G1 Z0.200
G1 E0.80000 F2100.00000
M73 P1 R90
G1 F1200
G1 X104.050 Y83.752 E0.22585
G1 X104.805 Y84.189 E0.02733
G1 X104.805 Y76.718 E0.23424
G1 X105.559 Y76.718 E0.02365
G1 X105.559 Y84.623 E0.24785
G1 X106.313 Y85.057 E0.02728
G1 X106.313 Y74.411 E0.33379
G1 X107.067 Y74.411 E0.02365
G1 X107.067 Y85.491 E0.34742
G1 X107.821 Y85.926 E0.02729
G1 X107.821 Y74.411 E0.36105
G1 X108.185 Y74.411 E0.01141
G1 X108.185 Y72.104 E0.07234
G1 X108.575 Y72.104 E0.01224
G1 X108.575 Y86.361 E0.44703
G1 X109.330 Y86.796 E0.02730
G1 X109.330 Y72.104 E0.46067
G1 X110.084 Y72.104 E0.02365
G1 X110.084 Y87.232 E0.47432
G1 X110.838 Y87.667 E0.02730
G1 X110.838 Y72.104 E0.48796
G1 X111.592 Y72.104 E0.02365
G1 X111.592 Y88.102 E0.50161
G1 X112.346 Y88.537 E0.02730
G1 X112.346 Y72.104 E0.51526
G1 X113.100 Y72.104 E0.02365
G1 X113.100 Y88.973 E0.52891
G1 X113.855 Y89.408 E0.02730
G1 X113.855 Y72.104 E0.54256
G1 X114.609 Y72.104 E0.02365
G1 X114.609 Y89.843 E0.55621
G1 X115.363 Y90.279 E0.02730
G1 X115.363 Y72.104 E0.56986
G1 X116.117 Y72.104 E0.02365
G1 X116.117 Y90.714 E0.58351
G1 X116.871 Y91.149 E0.02730
G1 X116.871 Y72.104 E0.59716
G1 X117.625 Y72.104 E0.02365
G1 X117.625 Y91.585 E0.61081
G1 X118.379 Y92.020 E0.02730
G1 X118.379 Y72.104 E0.62446
G1 X119.134 Y72.104 E0.02365
G1 X119.134 Y92.651 E0.64426
G1 F8640
G1 X119.134 Y89.360 E-0.76000
G1 E-0.04000 F2100.00000
G1 Z0.800 F10800.000
G1 X127.429 Y97.441
G1 Z0.200
G1 E0.80000 F2100.00000
G1 F1200
G1 X127.429 Y96.865 E0.01806
G1 X126.675 Y94.793 E0.06914
G1 X126.675 Y95.292 E0.01564
G1 X126.272 Y94.183 E0.03699
G1 X125.921 Y94.183 E0.01099
G1 X125.921 Y92.721 E0.04586
G1 X125.167 Y90.649 E0.06914
G1 X125.167 Y95.939 E0.16586
G1 X124.413 Y95.503 E0.02730
G1 X124.413 Y88.577 E0.21718
G1 X123.659 Y86.505 E0.06914
G1 X123.659 Y95.068 E0.26849
G1 X122.904 Y94.632 E0.02730
G1 X122.904 Y84.433 E0.31981
G1 X122.150 Y82.361 E0.06914
G1 X122.150 Y94.197 E0.37112
G1 X121.396 Y93.762 E0.02730
G1 X121.396 Y80.289 E0.42244
G1 X120.642 Y78.218 E0.06908
G1 X120.642 Y93.326 E0.47369
G1 X119.888 Y92.891 E0.02730
G1 X119.888 Y76.152 E0.52482
G1 X119.579 Y75.304 E0.02832
G1 X119.778 Y74.967 E0.01226
G1 X119.888 Y74.950 E0.00349
G1 X119.888 Y72.104 E0.08924
G1 X120.642 Y72.104 E0.02365
G1 X120.642 Y75.016 E0.09130
G1 F8640
G1 X120.642 Y72.104 E-0.67237
G1 X120.262 Y72.104 E-0.08763
G1 E-0.04000 F2100.00000
G1 Z0.800 F10800.000
G1 X122.150 Y74.241
G1 Z0.200
G1 E0.80000 F2100.00000
G1 F1200
G1 X122.150 Y74.647 E0.01274
G1 X122.405 Y74.798 E0.00928
G1 X122.904 Y76.177 E0.04599
G1 X122.904 Y74.411 E0.05538
G1 X123.659 Y74.411 E0.02365
G1 X123.659 Y78.240 E0.12004
G1 X124.413 Y80.309 E0.06905
G1 X124.413 Y72.104 E0.25725
G1 X125.167 Y72.104 E0.02365
G1 X125.167 Y82.379 E0.32217
G1 X125.921 Y84.450 E0.06911
G1 X125.921 Y72.104 E0.38711
G1 X126.675 Y72.104 E0.02365
G1 X126.675 Y86.522 E0.45207
G1 X127.429 Y88.594 E0.06913
G1 X127.429 Y72.104 E0.51702
G1 X128.184 Y72.104 E0.02365
G1 X128.184 Y90.665 E0.58198
G1 X128.938 Y92.737 E0.06913
G1 X128.938 Y72.104 E0.64694
G1 X129.692 Y72.104 E0.02365
G1 X129.692 Y94.809 E0.71190
G1 X130.446 Y96.881 E0.06914
G1 X130.446 Y72.104 E0.77686
G1 X131.200 Y72.104 E0.02365
G1 X131.200 Y98.797 E0.83696
G1 X131.954 Y98.797 E0.02365
G1 X131.954 Y72.104 E0.83696
G1 X132.708 Y72.104 E0.02365
G1 X132.708 Y98.493 E0.82742
G1 X133.463 Y96.421 E0.06914
G1 X133.463 Y72.104 E0.76245
G1 X134.217 Y72.104 E0.02365
G1 X134.217 Y94.349 E0.69749
G1 X134.971 Y92.277 E0.06914
G1 X134.971 Y72.104 E0.63252
G1 X135.725 Y72.104 E0.02365
G1 X135.725 Y90.205 E0.56755
G1 X136.479 Y88.133 E0.06914
G1 X136.479 Y72.104 E0.50258
G1 X137.233 Y72.104 E0.02365
G1 X137.233 Y86.061 E0.43762
G1 X137.988 Y83.989 E0.06914
G1 X137.988 Y72.104 E0.37265
G1 X138.742 Y72.104 E0.02365
G1 X138.742 Y82.413 E0.32324
G1 X131.954 Y99.570 F10800.000
G1 F1200
G1 X131.954 Y101.061 E0.04676
G1 F8640
G1 X131.954 Y99.570 E-0.34432
G1 E-0.45568 F2100.00000
G1 Z0.800 F10800.000
G1 X133.463 Y106.063
G1 Z0.200
G1 E0.80000 F2100.00000
G1 F1200
G1 X133.463 Y104.693 E0.04295
G1 X134.217 Y102.621 E0.06914
G1 X134.217 Y105.432 E0.08812
G1 X134.971 Y104.996 E0.02730
G1 X134.971 Y100.549 E0.13943
G1 X135.725 Y98.477 E0.06914
G1 X135.725 Y104.561 E0.19076
G1 X136.479 Y104.126 E0.02730
G1 X136.479 Y96.405 E0.24208
G1 X137.233 Y94.332 E0.06915
G1 X137.233 Y103.690 E0.29341
G1 X137.988 Y103.255 E0.02730
G1 X137.988 Y92.260 E0.34473
G1 X138.742 Y90.188 E0.06915
G1 X138.742 Y102.819 E0.39606
G1 X139.496 Y102.384 E0.02730
G1 X139.496 Y88.115 E0.44740
G1 X140.250 Y86.041 E0.06918
G1 X140.250 Y101.948 E0.49876
G1 X141.004 Y101.513 E0.02730
G1 X141.004 Y83.967 E0.55015
G1 X141.758 Y81.885 E0.06942
G1 X141.758 Y101.078 E0.60177
G1 X142.513 Y100.642 E0.02730
G1 X142.513 Y81.332 E0.60545
G1 X142.791 Y81.332 E0.00874
G1 X142.791 Y79.025 E0.07234
G1 X143.267 Y79.025 E0.01491
G1 X143.267 Y100.207 E0.66414
G1 X144.021 Y99.771 E0.02730
G1 X144.021 Y79.025 E0.65048
G1 X144.775 Y79.025 E0.02365
G1 X144.775 Y99.336 E0.63683
G1 X145.529 Y98.901 E0.02730
G1 X145.529 Y79.025 E0.62318
G1 X146.283 Y79.025 E0.02365
G1 X146.283 Y98.465 E0.60953
G1 X147.037 Y98.030 E0.02730
G1 X147.038 Y79.025 E0.59588
M73 Q2 S89
G1 X147.792 Y79.025 E0.02365
G1 X147.792 Y97.594 E0.58222
M73 P2 R89
G1 X148.546 Y97.159 E0.02730
G1 X148.546 Y79.025 E0.56857
G1 X149.300 Y79.025 E0.02365
G1 X149.300 Y96.723 E0.55492
G1 X150.054 Y96.288 E0.02730
G1 X150.054 Y79.025 E0.54127
G1 X150.808 Y79.025 E0.02365
G1 X150.808 Y95.851 E0.52757
G1 X151.562 Y95.414 E0.02733
G1 X151.562 Y81.332 E0.44154
G1 X152.317 Y81.332 E0.02365
G1 X152.317 Y94.979 E0.42788
G1 X153.071 Y94.543 E0.02731
G1 X153.071 Y81.332 E0.41422
G1 X153.335 Y81.332 E0.00830
G1 X153.335 Y85.946 E0.14467
G1 X153.825 Y85.946 E0.01535
G1 X153.825 Y95.265 E0.29218
G1 X154.210 Y96.490 E0.04028
G1 X154.579 Y96.490 E0.01157
G1 X154.579 Y85.946 E0.33060
G1 X155.333 Y85.946 E0.02365
G1 X155.333 Y96.660 E0.33592
G1 F8640
G1 X155.333 Y93.369 E-0.76000
G1 E-0.04000 F2100.00000
G1 Z0.800 F10800.000
G1 X159.858 Y110.503
G1 Z0.200
G1 E0.80000 F2100.00000
G1 F1200
G1 X159.858 Y99.789 E0.33592
G1 X159.104 Y99.789 E0.02365
G1 X159.104 Y110.333 E0.33060
G1 X158.350 Y110.333 E0.02365
G1 X158.350 Y99.789 E0.33060
G1 X157.949 Y99.789 E0.01255
G1 X157.949 Y97.482 E0.07234
G1 X157.596 Y97.482 E0.01109
G1 X157.596 Y114.947 E0.54761
G1 X156.842 Y114.947 E0.02365
G1 X156.842 Y97.482 E0.54761
G1 X156.087 Y97.482 E0.02365
G1 X156.087 Y114.947 E0.54761
G1 X155.333 Y114.947 E0.02365
G1 X155.333 Y97.482 E0.54761
G1 X154.579 Y97.482 E0.02365
G1 X154.579 Y114.947 E0.54761
G1 X153.825 Y114.947 E0.02365
G1 X153.825 Y97.482 E0.54761
G1 X153.637 Y97.482 E0.00591
G1 X153.071 Y97.807 E0.02046
G1 X153.071 Y114.947 E0.53741
G1 X152.781 Y114.947 E0.00908
G1 X152.317 Y114.865 E0.01479
G1 X152.317 Y98.244 E0.52115
G1 X151.562 Y98.681 E0.02733
G1 X151.562 Y114.732 E0.50328
G1 X150.808 Y114.600 E0.02400
G1 X150.808 Y99.117 E0.48547
G1 X150.054 Y99.553 E0.02731
G1 X150.054 Y114.469 E0.46767
G1 X149.300 Y114.336 E0.02401
G1 X149.300 Y99.989 E0.44985
G1 X148.546 Y100.424 E0.02731
G1 X148.546 Y114.203 E0.43202
G1 X147.792 Y114.070 E0.02401
G1 X147.792 Y100.860 E0.41419
G1 X147.037 Y101.296 E0.02731
G1 X147.037 Y113.937 E0.39636
G1 X146.283 Y113.804 E0.02401
G1 X146.283 Y101.731 E0.37853
G1 X145.529 Y102.167 E0.02731
G1 X145.529 Y113.671 E0.36071
G1 X144.775 Y113.538 E0.02401
G1 X144.775 Y102.602 E0.34288
G1 X144.021 Y103.038 E0.02731
G1 X144.021 Y113.405 E0.32506
G1 X143.267 Y113.272 E0.02401
G1 X143.267 Y103.473 E0.30724
G1 X142.513 Y103.909 E0.02731
G1 X142.513 Y113.139 E0.28941
G1 X141.758 Y113.006 E0.02401
G1 X141.758 Y104.344 E0.27159
G1 X141.004 Y104.780 E0.02731
G1 X141.004 Y112.873 E0.25377
G1 X140.250 Y112.740 E0.02401
G1 X140.250 Y105.215 E0.23594
G1 X139.496 Y105.651 E0.02731
G1 X139.496 Y112.607 E0.21812
G1 X138.742 Y112.474 E0.02401
G1 X138.742 Y106.086 E0.20030
G1 X137.988 Y106.522 E0.02730
G1 X137.988 Y112.341 E0.18248
G1 X137.233 Y112.208 E0.02401
G1 X137.233 Y106.957 E0.16465
G1 X136.479 Y107.392 E0.02731
G1 X136.479 Y112.075 E0.14683
G1 X135.725 Y111.942 E0.02401
G1 X135.725 Y107.828 E0.12901
G1 X134.971 Y108.263 E0.02730
G1 X134.971 Y111.809 E0.11119
G1 X134.217 Y111.676 E0.02401
G1 X134.217 Y108.699 E0.09336
G1 X133.463 Y109.134 E0.02730
G1 X133.463 Y111.543 E0.07554
