; generated by Slic3r Prusa Edition 1.41.0+win64 on 2018-10-14 at 13:15:07

; 

; external perimeters extrusion width = 0.45mm
; perimeters extrusion width = 0.45mm
; infill extrusion width = 0.45mm
; solid infill extrusion width = 0.45mm
; top infill extrusion width = 0.40mm
; first layer extrusion width = 0.42mm

M201 X1000 Y1000 Z1000 E5000 ; sets maximum accelerations, mm/sec^2
M203 X200 Y200 Z12 E120 ; sets maximum feedrates, mm/sec
M204 P1250 R1250 T1250 ; sets acceleration (P, T) and retract acceleration (R), mm/sec^2
M205 X8.00 Y8.00 Z0.40 E1.50 ; sets the jerk limits, mm/sec
M205 S0 T0 ; sets the minimum extruding and travel feed rate, mm/sec
M107
M115 U3.4.0 ; tell printer latest fw version
M83  ; extruder relative mode
M104 S215 ; set extruder temp
M140 S65 ; set bed temp
M190 S65 ; wait for bed temp
M109 S215 ; wait for extruder temp
G28 W ; home all without mesh bed level
G80 ; mesh bed leveling
G1 Y-3.0 F1000.0 ; go outside print area
G92 E0.0
G1 X60.0 E9.0  F1000.0 ; intro line
M73 Q0 S22
M73 P0 R22
G1 X100.0 E12.5  F1000.0 ; intro line
G92 E0.0
M221 S95
M900 K30; Filament gcode
G21 ; set units to millimeters
G90 ; use absolute coordinates
M83 ; use relative distances for extrusion
;BEFORE_LAYER_CHANGE
G92 E0.0
;0.2


G1 E-0.80000 F2100.00000
G1 Z0.600 F10800.000
;AFTER_LAYER_CHANGE
;0.2
G1 X83.329 Y74.796
G1 Z0.200
G1 E0.80000 F2100.00000
M204 S1000
G1 F1200
G1 X83.990 Y74.690 E0.02100
G1 X166.004 Y74.690 E2.57147
G1 X166.827 Y74.852 E0.02631
G1 X167.531 Y75.315 E0.02642
G1 X168.008 Y76.009 E0.02642
G1 X168.188 Y76.833 E0.02642
G1 X168.188 Y133.154 E1.76592
G1 X168.121 Y133.660 E0.01601
G1 X167.939 Y134.137 E0.01601
G1 X167.648 Y134.561 E0.01612
G1 X167.270 Y134.904 E0.01601
G1 X166.671 Y135.204 E0.02100
G1 X166.010 Y135.310 E0.02100
G1 X83.989 Y135.310 E2.57169
G1 X83.479 Y135.247 E0.01612
G1 X82.994 Y135.065 E0.01623
G1 X82.566 Y134.774 E0.01623
G1 X82.217 Y134.391 E0.01623
G1 X81.918 Y133.796 E0.02089
G1 X81.812 Y133.138 E0.02089
G1 X81.812 Y76.860 E1.76455
G1 X81.876 Y76.350 E0.01612
G1 X82.058 Y75.870 E0.01612
G1 X82.347 Y75.444 E0.01612
G1 X82.730 Y75.096 E0.01623
G1 X83.275 Y74.823 E0.01912
; PURGING FINISHED
G1 F8640
G1 X83.990 Y74.690 E-0.16793
G1 X86.555 Y74.690 E-0.59207
G1 E-0.04000 F2100.00000
G1 Z0.800 F10800.000
G1 X92.821 Y131.450
G1 Z0.200
G1 E0.80000 F2100.00000
G1 F1200
G1 X93.045 Y131.409 E0.00716
G1 X93.299 Y131.450 E0.00805
G1 X93.514 Y131.575 E0.00781
G1 X93.673 Y131.764 E0.00775
G1 X93.752 Y131.978 E0.00715
G1 X93.768 Y132.129 E0.00475
G1 X93.726 Y132.365 E0.00753
G1 X93.602 Y132.580 E0.00777
G1 X93.420 Y132.733 E0.00747
G1 X93.291 Y132.793 E0.00447
G1 X93.056 Y132.834 E0.00747
G1 X92.821 Y132.793 E0.00747
G1 X92.692 Y132.733 E0.00445
G1 X92.517 Y132.587 E0.00716
G1 X92.386 Y132.367 E0.00805
G1 X92.343 Y132.121 E0.00781
G1 X92.386 Y131.877 E0.00777
G1 X92.509 Y131.663 E0.00777
G1 X92.692 Y131.510 E0.00747
G1 X92.766 Y131.475 E0.00257
G1 X92.867 Y131.226 F10800.000
G1 F8640
G1 X93.045 Y131.409 E-0.06621
G1 X93.299 Y131.450 E-0.05926
G1 X93.514 Y131.575 E-0.05751
G1 X93.673 Y131.764 E-0.05708
G1 X93.752 Y131.978 E-0.05263
G1 X93.768 Y132.129 E-0.03499
G1 X93.726 Y132.365 E-0.05542
G1 X93.602 Y132.580 E-0.05720
G1 X93.420 Y132.733 E-0.05503
G1 X93.291 Y132.793 E-0.03289
G1 X93.056 Y132.834 E-0.05503
G1 X92.821 Y132.793 E-0.05503
G1 X92.692 Y132.733 E-0.03278
G1 X92.517 Y132.587 E-0.05272
G1 X92.437 Y132.452 E-0.03623
G1 E-0.04000 F2100.00000
G1 Z0.800 F10800.000
G1 X94.568 Y131.331
G1 Z0.200
G1 E0.80000 F2100.00000
G1 F1200
G1 X97.028 Y127.071 E0.15425
G1 X104.115 Y127.071 E0.22219
G1 X106.574 Y131.331 E0.15425
G1 X94.628 Y131.331 E0.37456
G1 X94.177 Y131.248 F10800.000
G1 F8640
G1 X96.244 Y128.463 E-0.76000
G1 E-0.04000 F2100.00000
G1 Z0.800 F10800.000
G1 X86.413 Y125.513
G1 Z0.200
G1 E0.80000 F2100.00000
G1 F1200
G1 X86.352 Y125.408 E0.00380
G1 X86.182 Y125.238 E0.00754
G1 X85.872 Y125.059 E0.01123
G1 X85.486 Y124.996 E0.01224
G1 X85.150 Y125.057 E0.01072
G1 X84.932 Y125.159 E0.00754
G1 X84.660 Y125.386 E0.01111
G1 X84.587 Y125.513 E0.00459
G1 X84.587 Y119.652 E0.18377
G1 X84.795 Y119.900 E0.01016
G1 X85.125 Y120.091 E0.01194
G1 X85.500 Y120.157 E0.01194
G1 X85.875 Y120.091 E0.01194
G1 X86.205 Y119.900 E0.01194
G1 X86.413 Y119.652 E0.01016
G1 X86.413 Y125.453 E0.18188
G1 X86.051 Y125.640 F10800.000
G1 F1200
G1 X86.166 Y125.837 E0.00716
G1 X86.213 Y126.090 E0.00805
G1 X86.170 Y126.335 E0.00781
G1 X86.051 Y126.541 E0.00747
G1 X85.950 Y126.642 E0.00447
G1 X85.744 Y126.761 E0.00747
G1 X85.500 Y126.804 E0.00777
G1 X85.265 Y126.763 E0.00747
G1 X85.137 Y126.703 E0.00445
G1 X84.961 Y126.557 E0.00716
G1 X84.830 Y126.336 E0.00805
G1 X84.787 Y126.091 E0.00781
G1 X84.830 Y125.847 E0.00777
G1 X84.954 Y125.632 E0.00777
G1 X85.136 Y125.479 E0.00747
G1 X85.265 Y125.419 E0.00445
G1 X85.490 Y125.379 E0.00716
G1 X85.743 Y125.420 E0.00805
G1 X85.950 Y125.540 E0.00751
G1 X86.008 Y125.598 E0.00257
G1 X86.277 Y125.607 F10800.000
G1 F8640
G1 X86.166 Y125.837 E-0.06621
G1 X86.213 Y126.090 E-0.05926
G1 X86.170 Y126.335 E-0.05750
G1 X86.051 Y126.541 E-0.05503
G1 X85.950 Y126.642 E-0.03289
G1 X85.744 Y126.761 E-0.05503
G1 X85.500 Y126.804 E-0.05720
G1 X85.265 Y126.763 E-0.05503
G1 X85.137 Y126.703 E-0.03278
G1 X84.961 Y126.557 E-0.05271
G1 X84.830 Y126.336 E-0.05926
G1 X84.787 Y126.091 E-0.05750
G1 X84.830 Y125.847 E-0.05720
G1 X84.954 Y125.632 E-0.05720
G1 X84.971 Y125.618 E-0.00520
G1 E-0.04000 F2100.00000
G1 Z0.800 F10800.000
G1 X86.413 Y126.669
G1 Z0.200
G1 E0.80000 F2100.00000
G1 F1200
G1 X86.413 Y131.708 E0.15802
G1 X92.048 Y131.708 E0.17668
G1 X92.026 Y131.746 E0.00138
G1 X91.960 Y132.121 E0.01194
G1 X92.026 Y132.500 E0.01205
G1 X92.047 Y132.534 E0.00125
G1 X84.587 Y132.534 E0.23390
G1 X84.587 Y126.666 E0.18401
G1 X84.670 Y126.805 E0.00509
G1 X84.933 Y127.024 E0.01072
G1 X85.151 Y127.126 E0.00754
G1 X85.500 Y127.187 E0.01111
G1 X85.875 Y127.121 E0.01194
G1 X86.182 Y126.944 E0.01111
G1 X86.353 Y126.773 E0.00758
G1 X86.383 Y126.721 E0.00189
G1 F8640
G1 X86.403 Y130.012 E-0.76000
G1 E-0.04000 F2100.00000
G1 Z0.800 F10800.000
G1 X86.790 Y120.019
G1 Z0.200
G1 E0.80000 F2100.00000
G1 F1200
G1 X91.900 Y120.019 E0.16023
G1 X95.443 Y126.156 E0.22219
G1 X92.455 Y131.331 E0.18738
G1 X86.790 Y131.331 E0.17763
G1 X86.790 Y120.079 E0.35281
G1 X86.728 Y119.624 F10800.000
G1 F8640
G1 X90.081 Y120.040 E-0.76000
G1 E-0.04000 F2100.00000
G1 Z0.800 F10800.000
G1 X86.413 Y118.482
G1 Z0.200
G1 E0.80000 F2100.00000
G1 F1200
G1 X86.352 Y118.378 E0.00380
G1 X86.182 Y118.208 E0.00754
G1 X85.872 Y118.029 E0.01123
G1 X85.486 Y117.966 E0.01224
G1 X85.150 Y118.027 E0.01073
G1 X84.932 Y118.128 E0.00754
G1 X84.660 Y118.356 E0.01111
G1 X84.587 Y118.483 E0.00459
G1 X84.587 Y112.622 E0.18377
G1 X84.795 Y112.870 E0.01016
G1 X85.125 Y113.060 E0.01194
G1 X85.500 Y113.126 E0.01194
G1 X85.875 Y113.060 E0.01194
G1 X86.205 Y112.870 E0.01194
G1 X86.413 Y112.622 E0.01016
G1 X86.413 Y118.422 E0.18188
G1 X86.051 Y118.610 F10800.000
G1 F1200
G1 X86.166 Y118.807 E0.00716
G1 X86.213 Y119.059 E0.00805
G1 X86.172 Y119.295 E0.00751
G1 X86.112 Y119.424 E0.00447
G1 X85.958 Y119.607 E0.00747
G1 X85.744 Y119.731 E0.00777
G1 X85.500 Y119.774 E0.00777
G1 X85.256 Y119.731 E0.00777
G1 X85.042 Y119.607 E0.00777
G1 X84.888 Y119.424 E0.00747
G1 X84.828 Y119.295 E0.00447
G1 X84.787 Y119.061 E0.00747
G1 X84.830 Y118.817 E0.00777
G1 X84.954 Y118.602 E0.00777
G1 X85.136 Y118.449 E0.00747
G1 X85.265 Y118.389 E0.00445
G1 X85.490 Y118.348 E0.00716
G1 X85.743 Y118.390 E0.00805
G1 X85.950 Y118.510 E0.00751
G1 X86.008 Y118.568 E0.00257
G1 X86.277 Y118.577 F10800.000
G1 F8640
G1 X86.166 Y118.807 E-0.06621
G1 X86.213 Y119.059 E-0.05926
G1 X86.172 Y119.295 E-0.05534
G1 X86.112 Y119.424 E-0.03289
G1 X85.958 Y119.607 E-0.05503
G1 X85.744 Y119.731 E-0.05719
G1 X85.500 Y119.774 E-0.05720
G1 X85.256 Y119.731 E-0.05720
G1 X85.042 Y119.607 E-0.05719
G1 X84.888 Y119.424 E-0.05503
G1 X84.828 Y119.295 E-0.03289
G1 X84.787 Y119.061 E-0.05503
G1 X84.830 Y118.817 E-0.05720
G1 X84.954 Y118.602 E-0.05720
G1 X84.971 Y118.588 E-0.00514
G1 E-0.04000 F2100.00000
G1 Z0.800 F10800.000
G1 X85.500 Y112.744
G1 Z0.200
G1 E0.80000 F2100.00000
G1 F1200
G1 X85.256 Y112.701 E0.00777
G1 X85.042 Y112.577 E0.00777
G1 X84.888 Y112.394 E0.00747
G1 X84.828 Y112.265 E0.00447
G1 X84.787 Y112.030 E0.00747
G1 X84.830 Y111.786 E0.00777
G1 X84.954 Y111.572 E0.00777
G1 X85.136 Y111.419 E0.00747
G1 X85.265 Y111.359 E0.00445
G1 X85.490 Y111.318 E0.00716
G1 X85.743 Y111.359 E0.00805
G1 X85.950 Y111.479 E0.00751
G1 X86.051 Y111.580 E0.00445
G1 X86.166 Y111.777 E0.00716
G1 X86.213 Y112.029 E0.00805
G1 X86.172 Y112.265 E0.00751
G1 X86.112 Y112.394 E0.00447
G1 X85.958 Y112.577 E0.00747
G1 X85.744 Y112.701 E0.00777
G1 X85.559 Y112.733 E0.00589
G1 X85.376 Y112.958 F10800.000
G1 F8640
G1 X85.256 Y112.701 E-0.07037
G1 X85.042 Y112.577 E-0.05719
G1 X84.888 Y112.394 E-0.05503
G1 X84.828 Y112.265 E-0.03289
G1 X84.787 Y112.030 E-0.05503
G1 X84.830 Y111.786 E-0.05720
G1 X84.954 Y111.572 E-0.05720
G1 X85.136 Y111.419 E-0.05503
G1 X85.265 Y111.359 E-0.03278
G1 X85.490 Y111.318 E-0.05272
G1 X85.743 Y111.359 E-0.05926
G1 X85.950 Y111.479 E-0.05534
G1 X86.051 Y111.580 E-0.03278
G1 X86.166 Y111.777 E-0.05272
G1 X86.194 Y111.924 E-0.03447
G1 E-0.04000 F2100.00000
G1 Z0.800 F10800.000
G1 X86.413 Y111.452
G1 Z0.200
G1 E0.80000 F2100.00000
G1 F1200
G1 X86.352 Y111.347 E0.00380
G1 X86.182 Y111.178 E0.00754
G1 X85.872 Y110.998 E0.01123
G1 X85.486 Y110.935 E0.01224
G1 X85.150 Y110.996 E0.01073
G1 X84.932 Y111.098 E0.00754
G1 X84.660 Y111.326 E0.01111
G1 X84.587 Y111.453 E0.00459
G1 X84.587 Y105.578 E0.18420
G1 X84.662 Y105.708 E0.00471
G1 X84.964 Y105.955 E0.01224
G1 X85.286 Y106.071 E0.01072
G1 X85.526 Y106.092 E0.00754
G1 X85.879 Y106.029 E0.01123
G1 X86.214 Y105.830 E0.01224
G1 X86.413 Y105.591 E0.00974
G1 X86.413 Y111.392 E0.18189
G1 F8640
G1 X86.352 Y111.347 E-0.01748
G1 X86.182 Y111.178 E-0.05550
G1 X85.872 Y110.998 E-0.08271
G1 X85.486 Y110.935 E-0.09017
G1 X85.150 Y110.996 E-0.07898
G1 X84.932 Y111.098 E-0.05550
G1 X84.660 Y111.326 E-0.08184
G1 X84.587 Y111.453 E-0.03382
G1 X84.587 Y110.309 E-0.26399
G1 E-0.04000 F2100.00000
G1 Z0.800 F10800.000
G1 X85.509 Y105.712
G1 Z0.200
G1 E0.80000 F2100.00000
G1 F1200
G1 X85.368 Y105.699 E0.00445
G1 X85.153 Y105.622 E0.00716
G1 X84.954 Y105.460 E0.00805
G1 X84.830 Y105.244 E0.00781
G1 X84.787 Y105.000 E0.00777
G1 X84.830 Y104.756 E0.00777
G1 X84.954 Y104.542 E0.00777
G1 X85.136 Y104.388 E0.00747
G1 X85.265 Y104.328 E0.00445
G1 X85.490 Y104.288 E0.00716
G1 X85.743 Y104.329 E0.00805
G1 X85.950 Y104.449 E0.00751
G1 X86.051 Y104.549 E0.00445
G1 X86.166 Y104.747 E0.00716
G1 X86.213 Y104.999 E0.00805
G1 X86.172 Y105.235 E0.00751
G1 X86.112 Y105.363 E0.00445
G1 X85.966 Y105.539 E0.00716
G1 X85.745 Y105.670 E0.00805
G1 X85.568 Y105.701 E0.00563
G1 X85.446 Y105.839 F10800.000
G1 F8640
G1 X85.368 Y105.699 E-0.04630
G1 X85.153 Y105.622 E-0.05272
G1 X84.954 Y105.460 E-0.05926
G1 X84.830 Y105.244 E-0.05751
G1 X84.787 Y105.000 E-0.05720
G1 X84.830 Y104.756 E-0.05720
G1 X84.954 Y104.542 E-0.05720
G1 X85.136 Y104.388 E-0.05503
G1 X85.265 Y104.328 E-0.03278
G1 X85.490 Y104.288 E-0.05272
G1 X85.743 Y104.329 E-0.05926
G1 X85.950 Y104.449 E-0.05534
G1 X86.051 Y104.549 E-0.03278
G1 X86.166 Y104.747 E-0.05272
G1 X86.192 Y104.883 E-0.03201
G1 E-0.04000 F2100.00000
G1 Z0.800 F10800.000
G1 X86.413 Y104.422
G1 Z0.200
G1 E0.80000 F2100.00000
G1 F1200
G1 X86.352 Y104.317 E0.00380
G1 X86.182 Y104.147 E0.00754
G1 X85.872 Y103.968 E0.01123
G1 X85.486 Y103.905 E0.01224
G1 X85.150 Y103.966 E0.01072
G1 X84.932 Y104.068 E0.00754
G1 X84.660 Y104.295 E0.01111
G1 X84.587 Y104.422 E0.00459
G1 X84.587 Y98.561 E0.18377
G1 X84.795 Y98.809 E0.01016
G1 X85.125 Y99.000 E0.01194
G1 X85.500 Y99.066 E0.01194
G1 X85.879 Y98.999 E0.01205
G1 X86.214 Y98.800 E0.01224
G1 X86.413 Y98.561 E0.00974
G1 X86.413 Y104.362 E0.18189
G1 F8640
G1 X86.352 Y104.317 E-0.01748
G1 X86.182 Y104.147 E-0.05550
G1 X85.872 Y103.968 E-0.08271
G1 X85.486 Y103.905 E-0.09017
G1 X85.150 Y103.966 E-0.07898
G1 X84.932 Y104.068 E-0.05550
G1 X84.660 Y104.295 E-0.08184
G1 X84.587 Y104.422 E-0.03382
G1 X84.587 Y103.279 E-0.26399
G1 E-0.04000 F2100.00000
G1 Z0.800 F10800.000
G1 X86.790 Y105.353
G1 Z0.200
G1 E0.80000 F2100.00000
G1 F1200
G1 X91.576 Y105.353 E0.15005
G1 X95.443 Y112.052 E0.24255
G1 X91.900 Y118.189 E0.22219
G1 X86.790 Y118.189 E0.16023
G1 X86.790 Y105.413 E0.40059
G1 X86.740 Y104.956 F10800.000
G1 F8640
G1 X90.081 Y105.371 E-0.76000
G1 E-0.04000 F2100.00000
G1 Z0.800 F10800.000
G1 X86.413 Y97.392
G1 Z0.200
G1 E0.80000 F2100.00000
G1 F1200
G1 X86.352 Y97.287 E0.00380
G1 X86.182 Y97.117 E0.00754
G1 X85.872 Y96.938 E0.01123
G1 X85.486 Y96.875 E0.01224
G1 X85.150 Y96.936 E0.01072
G1 X84.932 Y97.037 E0.00754
G1 X84.660 Y97.265 E0.01111
G1 X84.587 Y97.392 E0.00459
G1 X84.587 Y91.531 E0.18377
G1 X84.795 Y91.779 E0.01016
G1 X85.125 Y91.969 E0.01194
G1 X85.500 Y92.036 E0.01194
G1 X85.875 Y91.969 E0.01194
G1 X86.205 Y91.779 E0.01194
G1 X86.413 Y91.531 E0.01016
G1 X86.413 Y97.332 E0.18188
G1 X86.051 Y97.519 F10800.000
G1 F1200
G1 X86.166 Y97.716 E0.00716
G1 X86.213 Y97.968 E0.00805
G1 X86.172 Y98.204 E0.00751
G1 X86.112 Y98.333 E0.00445
G1 X85.966 Y98.509 E0.00716
G1 X85.745 Y98.640 E0.00805
G1 X85.500 Y98.683 E0.00781
G1 X85.256 Y98.640 E0.00777
G1 X85.042 Y98.516 E0.00777
G1 X84.888 Y98.333 E0.00747
G1 X84.828 Y98.204 E0.00447
G1 X84.787 Y97.970 E0.00747
G1 X84.830 Y97.726 E0.00777
G1 X84.954 Y97.511 E0.00777
G1 X85.136 Y97.358 E0.00747
G1 X85.265 Y97.298 E0.00445
G1 X85.490 Y97.257 E0.00716
G1 X85.743 Y97.299 E0.00805
G1 X85.950 Y97.419 E0.00751
G1 X86.008 Y97.477 E0.00257
G1 X86.277 Y97.486 F10800.000
G1 F8640
G1 X86.166 Y97.716 E-0.06621
G1 X86.213 Y97.968 E-0.05926
G1 X86.172 Y98.204 E-0.05534
G1 X86.112 Y98.333 E-0.03278
G1 X85.966 Y98.509 E-0.05272
G1 X85.745 Y98.640 E-0.05926
G1 X85.500 Y98.683 E-0.05751
G1 X85.256 Y98.640 E-0.05720
G1 X85.042 Y98.516 E-0.05720
G1 X84.888 Y98.333 E-0.05503
G1 X84.828 Y98.204 E-0.03289
G1 X84.787 Y97.970 E-0.05503
G1 X84.830 Y97.726 E-0.05720
G1 X84.954 Y97.511 E-0.05720
G1 X84.971 Y97.497 E-0.00520
G1 E-0.04000 F2100.00000
G1 Z0.800 F10800.000
G1 X86.790 Y91.811
G1 Z0.200
G1 E0.80000 F2100.00000
G1 F1200
G1 X91.900 Y91.811 E0.16023
G1 X95.443 Y97.948 E0.22219
G1 X91.576 Y104.648 E0.24255
G1 X86.790 Y104.648 E0.15005
G1 X86.790 Y91.871 E0.40059
G1 X86.743 Y91.414 F10800.000
G1 F8640
G1 X90.081 Y91.833 E-0.76000
G1 E-0.04000 F2100.00000
G1 Z0.800 F10800.000
G1 X86.413 Y90.348
G1 Z0.200
G1 E0.80000 F2100.00000
G1 F1200
G1 X86.205 Y90.100 E0.01016
G1 X85.872 Y89.907 E0.01205
G1 X85.486 Y89.844 E0.01224
G1 X85.150 Y89.905 E0.01072
G1 X84.932 Y90.007 E0.00754
G1 X84.660 Y90.235 E0.01111
G1 X84.587 Y90.362 E0.00459
G1 X84.587 Y84.500 E0.18377
G1 X84.795 Y84.749 E0.01016
G1 X85.125 Y84.939 E0.01194
G1 X85.500 Y85.005 E0.01194
G1 X85.875 Y84.939 E0.01194
G1 X86.205 Y84.749 E0.01194
G1 X86.413 Y84.500 E0.01016
G1 X86.413 Y90.288 E0.18146
G1 X86.112 Y90.576 F10800.000
G1 F1200
G1 X86.172 Y90.705 E0.00447
G1 X86.213 Y90.939 E0.00747
G1 X86.172 Y91.174 E0.00747
G1 X86.112 Y91.303 E0.00447
G1 X85.958 Y91.486 E0.00747
G1 X85.744 Y91.610 E0.00777
G1 X85.500 Y91.653 E0.00777
G1 X85.256 Y91.610 E0.00777
G1 X85.042 Y91.486 E0.00777
G1 X84.888 Y91.303 E0.00747
G1 X84.828 Y91.174 E0.00447
G1 X84.787 Y90.939 E0.00747
G1 X84.830 Y90.695 E0.00777
G1 X84.954 Y90.481 E0.00777
G1 X85.136 Y90.328 E0.00747
G1 X85.265 Y90.268 E0.00445
G1 X85.490 Y90.227 E0.00716
G1 X85.743 Y90.268 E0.00805
G1 X85.958 Y90.393 E0.00781
G1 X86.073 Y90.530 E0.00559
G1 X86.254 Y90.567 F10800.000
G1 F8640
G1 X86.172 Y90.705 E-0.04641
G1 X86.213 Y90.939 E-0.05503
G1 X86.172 Y91.174 E-0.05503
G1 X86.112 Y91.303 E-0.03289
G1 X85.958 Y91.486 E-0.05503
G1 X85.744 Y91.610 E-0.05720
G1 X85.500 Y91.653 E-0.05720
G1 X85.256 Y91.610 E-0.05720
G1 X85.042 Y91.486 E-0.05720
G1 X84.888 Y91.303 E-0.05503
G1 X84.828 Y91.174 E-0.03289
G1 X84.787 Y90.939 E-0.05503
G1 X84.830 Y90.695 E-0.05720
G1 X84.954 Y90.481 E-0.05720
G1 X85.051 Y90.399 E-0.02948
G1 E-0.04000 F2100.00000
