; generated by Slic3r Prusa Edition 1.41.0+win64 on 2018-10-22 at 16:35:14

; 

; external perimeters extrusion width = 0.45mm
; perimeters extrusion width = 0.45mm
; infill extrusion width = 0.45mm
; solid infill extrusion width = 0.45mm
; top infill extrusion width = 0.40mm
; first layer extrusion width = 0.42mm

M201 X1000 Y1000 Z1000 E5000 ; sets maximum accelerations, mm/sec^2
M203 X200 Y200 Z12 E120 ; sets maximum feedrates, mm/sec
M204 P1250 R1250 T1250 ; sets acceleration (P, T) and retract acceleration (R), mm/sec^2
M205 X8.00 Y8.00 Z0.40 E1.50 ; sets the jerk limits, mm/sec
M205 S0 T0 ; sets the minimum extruding and travel feed rate, mm/sec
M107
M115 U3.4.0 ; tell printer latest fw version
M83  ; extruder relative mode
M104 S215 ; set extruder temp
M140 S65 ; set bed temp
M190 S65 ; wait for bed temp
M109 S215 ; wait for extruder temp
G28 W ; home all without mesh bed level
G80 ; mesh bed leveling
G1 Y-3.0 F1000.0 ; go outside print area
G92 E0.0
G1 X60.0 E9.0  F1000.0 ; intro line
M73 Q0 S132
M73 P0 R132
G1 X100.0 E12.5  F1000.0 ; intro line
G92 E0.0
M221 S95
M900 K30; Filament gcode
G21 ; set units to millimeters
G90 ; use absolute coordinates
M83 ; use relative distances for extrusion
;BEFORE_LAYER_CHANGE
G92 E0.0
;0.2


G1 E-0.80000 F2100.00000
G1 Z0.600 F10800.000
;AFTER_LAYER_CHANGE
;0.2
G1 X129.503 Y68.285
G1 Z0.200
G1 E0.80000 F2100.00000
M204 S500
G1 F1200
G1 X132.319 Y68.722 E0.08936
G1 X132.925 Y68.931 E0.02010
G1 X151.847 Y79.592 E0.68097
G1 X152.660 Y80.330 E0.03444
G1 X154.074 Y82.002 E0.06866
G1 X154.384 Y82.546 E0.01964
G1 X162.018 Y102.855 E0.68028
G1 X162.135 Y103.382 E0.01692
G1 X162.175 Y104.518 E0.03564
G1 X162.168 Y106.145 E0.05102
G1 X162.065 Y106.708 E0.01794
G1 X154.858 Y127.176 E0.68039
G1 X154.556 Y127.738 E0.01998
G1 X153.183 Y129.428 E0.06828
G1 X152.760 Y129.905 E0.01997
G1 X152.381 Y130.196 E0.01498
G1 X133.684 Y141.252 E0.68108
G1 X133.239 Y141.436 E0.01510
G1 X132.409 Y141.620 E0.02664
G1 X130.247 Y141.972 E0.06869
G1 X108.428 Y138.390 E0.69328
G1 X107.962 Y138.232 E0.01544
G1 X106.962 Y137.700 E0.03552
G1 X105.560 Y136.881 E0.05091
G1 X105.105 Y136.482 E0.01896
G1 X91.000 Y120.025 E0.67959
G1 X90.710 Y119.570 E0.01692
G1 X90.283 Y118.517 E0.03564
G1 X89.734 Y116.985 E0.05102
G1 X89.638 Y116.421 E0.01794
G1 X89.410 Y94.740 E0.67982
G1 X89.468 Y94.215 E0.01658
G1 X89.739 Y93.352 E0.02836
G1 X90.385 Y91.581 E0.05910
G1 X90.655 Y91.102 E0.01726
G1 X104.450 Y74.303 E0.68154
G1 X104.929 Y73.872 E0.02021
G1 X107.191 Y72.533 E0.08241
G1 X107.759 Y72.317 E0.01908
G1 X129.444 Y68.296 E0.69150
; PURGING FINISHED
G1 F8640
G1 X132.319 Y68.722 E-0.67114
G1 X132.683 Y68.848 E-0.08886
G1 E-0.04000 F2100.00000
G1 Z0.800 F10800.000
G1 X123.029 Y106.992
G1 Z0.200
G1 E0.80000 F2100.00000
G1 F1200
G1 X123.029 Y103.366 E0.11368
G1 X124.036 Y102.848 E0.03551
G1 X124.445 Y102.719 E0.01346
G1 X124.871 Y102.661 E0.01346
G1 X125.300 Y102.677 E0.01346
G1 X125.720 Y102.765 E0.01346
G1 X126.120 Y102.923 E0.01346
G1 X126.486 Y103.146 E0.01346
G1 X126.810 Y103.429 E0.01346
G1 X127.080 Y103.762 E0.01346
G1 X127.291 Y104.137 E0.01346
G1 X127.434 Y104.541 E0.01347
G1 X127.507 Y104.965 E0.01346
G1 X127.507 Y105.394 E0.01346
G1 X127.434 Y105.817 E0.01346
G1 X127.291 Y106.222 E0.01346
G1 X127.080 Y106.596 E0.01346
G1 X126.810 Y106.930 E0.01346
G1 X126.486 Y107.212 E0.01346
G1 X126.120 Y107.436 E0.01346
G1 X125.720 Y107.594 E0.01346
G1 X125.300 Y107.682 E0.01346
G1 X124.871 Y107.697 E0.01346
G1 X124.445 Y107.640 E0.01346
G1 X124.036 Y107.511 E0.01346
G1 X123.082 Y107.020 E0.03363
G1 X123.406 Y106.762 F10800.000
G1 F1200
G1 X123.406 Y103.596 E0.09926
G1 X124.180 Y103.198 E0.02729
G1 X124.528 Y103.088 E0.01144
G1 X124.890 Y103.039 E0.01144
G1 X125.254 Y103.052 E0.01144
G1 X125.612 Y103.127 E0.01144
G1 X125.951 Y103.261 E0.01144
G1 X126.262 Y103.451 E0.01144
G1 X126.537 Y103.692 E0.01144
G1 X126.767 Y103.975 E0.01144
G1 X126.946 Y104.293 E0.01144
G1 X127.068 Y104.637 E0.01144
G1 X127.130 Y104.997 E0.01144
G1 X127.130 Y105.362 E0.01144
G1 X127.068 Y105.721 E0.01144
G1 X126.946 Y106.065 E0.01144
G1 X126.767 Y106.383 E0.01144
G1 X126.537 Y106.667 E0.01144
G1 X126.262 Y106.907 E0.01144
G1 X125.951 Y107.097 E0.01144
G1 X125.612 Y107.231 E0.01144
G1 X125.254 Y107.306 E0.01144
G1 X124.890 Y107.319 E0.01144
G1 X124.528 Y107.270 E0.01144
G1 X124.180 Y107.161 E0.01144
G1 X123.459 Y106.790 E0.02541
G1 X123.783 Y106.532 F10800.000
G1 F1200
G1 X123.783 Y103.826 E0.08484
G1 X124.324 Y103.548 E0.01907
G1 X124.610 Y103.457 E0.00942
G1 X124.908 Y103.417 E0.00942
G1 X125.209 Y103.428 E0.00942
G1 X125.503 Y103.490 E0.00942
G1 X125.782 Y103.600 E0.00942
G1 X126.039 Y103.757 E0.00942
G1 X126.265 Y103.954 E0.00942
G1 X126.454 Y104.188 E0.00942
G1 X126.601 Y104.450 E0.00942
G1 X126.702 Y104.733 E0.00942
G1 X126.753 Y105.029 E0.00942
G1 X126.753 Y105.329 E0.00942
G1 X126.702 Y105.626 E0.00942
G1 X126.601 Y105.909 E0.00942
G1 X126.454 Y106.171 E0.00942
G1 X126.265 Y106.404 E0.00942
G1 X126.039 Y106.602 E0.00942
G1 X125.782 Y106.758 E0.00942
G1 X125.503 Y106.869 E0.00942
G1 X125.209 Y106.930 E0.00942
G1 X124.908 Y106.941 E0.00942
G1 X124.610 Y106.901 E0.00942
G1 X124.324 Y106.811 E0.00942
G1 X123.836 Y106.560 E0.01719
G1 X124.160 Y106.302 F10800.000
G1 F1200
G1 X124.160 Y104.056 E0.07042
G1 X124.468 Y103.898 E0.01085
G1 X124.693 Y103.827 E0.00740
G1 X124.927 Y103.795 E0.00740
G1 X125.163 Y103.804 E0.00740
G1 X125.394 Y103.852 E0.00740
G1 X125.613 Y103.939 E0.00740
G1 X125.815 Y104.062 E0.00740
G1 X125.992 Y104.217 E0.00740
G1 X126.141 Y104.400 E0.00740
G1 X126.257 Y104.606 E0.00740
G1 X126.336 Y104.829 E0.00740
G1 X126.376 Y105.061 E0.00740
G1 X126.376 Y105.297 E0.00740
G1 X126.336 Y105.530 E0.00740
G1 X126.257 Y105.752 E0.00740
G1 X126.141 Y105.958 E0.00740
G1 X125.992 Y106.141 E0.00740
G1 X125.815 Y106.297 E0.00740
G1 X125.613 Y106.419 E0.00740
G1 X125.394 Y106.506 E0.00740
G1 X125.163 Y106.555 E0.00740
G1 X124.927 Y106.563 E0.00740
G1 X124.693 Y106.532 E0.00740
G1 X124.468 Y106.461 E0.00740
G1 X124.213 Y106.330 E0.00897
G1 X123.764 Y106.248 F10800.000
G1 F8640
G1 X124.160 Y104.056 E-0.52511
G1 X124.468 Y103.898 E-0.07993
G1 X124.693 Y103.827 E-0.05451
G1 X124.927 Y103.795 E-0.05449
G1 X125.126 Y103.802 E-0.04596
G1 E-0.04000 F2100.00000
G1 Z0.800 F10800.000
G1 X120.452 Y108.990
G1 Z0.200
G1 E0.80000 F2100.00000
G1 F1200
G1 X119.065 Y105.178 E0.12718
G1 X120.453 Y101.367 E0.12718
G1 X123.966 Y99.339 E0.12718
G1 X127.961 Y100.045 E0.12718
G1 X130.567 Y103.152 E0.12718
G1 X130.567 Y107.208 E0.12718
G1 X127.959 Y110.315 E0.12718
G1 X123.964 Y111.019 E0.12718
G1 X120.504 Y109.020 E0.12530
G1 X120.315 Y109.346 F10800.000
G1 F1200
G1 X120.237 Y109.301 E0.00284
G1 X130.929 Y138.677 E0.98016
G1 X130.855 Y138.690 E0.00235
G1 X118.701 Y105.278 E1.11476
G1 X108.009 Y134.654 E0.98016
G1 X107.944 Y134.617 E0.00235
G1 X120.110 Y101.209 E1.11476
G1 X93.037 Y116.839 E0.98016
G1 X93.011 Y116.769 E0.00235
G1 X123.804 Y98.998 E1.11476
G1 X93.019 Y93.569 E0.98016
G1 X93.044 Y93.498 E0.00235
G1 X128.056 Y99.678 E1.11476
G1 X107.963 Y75.731 E0.98016
G1 X108.027 Y75.693 E0.00235
G1 X130.876 Y102.933 E1.11476
G1 X130.876 Y71.668 E0.98028
G1 X130.950 Y71.681 E0.00235
G1 X130.944 Y107.239 E1.11488
G1 X151.038 Y83.292 E0.98016
G1 X151.087 Y83.349 E0.00235
G1 X128.228 Y110.581 E1.11476
G1 X159.018 Y105.152 E0.98028
G1 X159.018 Y105.227 E0.00235
G1 X124.000 Y111.395 E1.11488
G1 X151.072 Y127.026 E0.98016
G1 X151.024 Y127.083 E0.00235
G1 X120.367 Y109.376 E1.11004
G1 F8640
G1 X120.237 Y109.301 E-0.03474
G1 X121.311 Y112.253 E-0.72526
G1 E-0.04000 F2100.00000
G1 Z0.800 F10800.000
G1 X131.321 Y106.203
G1 Z0.200
G1 E0.80000 F2100.00000
G1 F1200
G1 X151.037 Y82.707 E0.96170
G1 X151.580 Y83.348 E0.02634
G1 X129.183 Y110.029 E1.09223
G1 X159.395 Y104.703 E0.96189
G1 X159.395 Y105.543 E0.02636
G1 X125.086 Y111.587 E1.09230
G1 X151.648 Y126.923 E0.96170
M73 Q0 S131
M73 P0 R131
G1 X151.111 Y127.569 E0.02634
G1 X120.946 Y110.146 E1.09223
G1 X131.436 Y138.968 E0.96170
G1 X130.609 Y139.118 E0.02634
G1 X118.701 Y106.381 E1.09223
G1 X108.210 Y135.203 E0.96170
G1 X107.480 Y134.786 E0.02634
G1 X119.401 Y102.054 E1.09223
G1 X92.838 Y117.390 E0.96170
G1 X92.547 Y116.601 E0.02634
G1 X122.718 Y99.189 E1.09223
G1 X92.512 Y93.863 E0.96170
G1 X92.796 Y93.072 E0.02634
G1 X127.101 Y99.127 E1.09223
G1 X107.386 Y75.631 E0.96170
G1 X108.112 Y75.208 E0.02634
G1 X130.499 Y101.897 E1.09223
G1 X130.499 Y71.219 E0.96189
G1 X131.327 Y71.365 E0.02636
G1 X131.321 Y106.143 E1.09042
G1 F8640
G1 X133.440 Y103.624 E-0.76000
G1 E-0.04000 F2100.00000
G1 Z0.800 F10800.000
G1 X131.698 Y105.166
G1 Z0.200
G1 E0.80000 F2100.00000
G1 F1200
G1 X151.036 Y82.122 E0.94324
G1 X152.073 Y83.347 E0.05034
G1 X130.138 Y109.478 E1.06971
G1 X159.772 Y104.253 E0.94346
G1 X159.772 Y105.860 E0.05037
G1 X126.172 Y111.778 E1.06973
G1 X152.224 Y126.820 E0.94324
G1 X151.198 Y128.054 E0.05034
G1 X121.655 Y110.991 E1.06971
G1 X131.943 Y139.260 E0.94324
G1 X130.363 Y139.545 E0.05034
G1 X118.701 Y107.484 E1.06971
G1 X108.411 Y135.753 E0.94324
G1 X107.017 Y134.956 E0.05034
G1 X118.692 Y102.899 E1.06971
G1 X92.639 Y117.940 E0.94324
G1 X92.083 Y116.434 E0.05034
G1 X121.632 Y99.380 E1.06971
G1 X92.006 Y94.156 E0.94324
G1 X92.549 Y92.645 E0.05034
G1 X126.146 Y98.576 E1.06971
G1 X106.810 Y75.530 E0.94324
G1 X108.197 Y74.722 E0.05034
G1 X130.122 Y100.861 E1.06971
G1 X130.122 Y70.770 E0.94346
G1 X131.704 Y71.049 E0.05037
G1 X131.698 Y105.106 E1.06785
G1 X131.923 Y105.497 F10800.000
G1 F8640
G1 X133.817 Y102.588 E-0.76000
G1 E-0.04000 F2100.00000
G1 Z0.800 F10800.000
G1 X130.454 Y103.484
G1 Z0.200
G1 E0.80000 F2100.00000
G1 F1200
G1 X127.161 Y100.190 E0.14766
G1 X126.506 Y100.075 E0.02108
G1 X130.285 Y103.853 E0.16940
G1 X130.284 Y104.392 E0.01709
G1 X125.851 Y99.959 E0.19875
G1 X125.197 Y99.844 E0.02108
G1 X130.284 Y104.932 E0.22811
G1 X130.284 Y105.471 E0.01709
G1 X124.542 Y99.728 E0.25746
G1 X124.019 Y99.636 E0.01684
G1 X123.950 Y99.675 E0.00251
G1 X130.284 Y106.010 E0.28399
G1 X130.284 Y106.549 E0.01709
G1 X123.608 Y99.873 E0.29931
G1 X123.266 Y100.070 E0.01251
G1 X125.659 Y102.463 E0.10728
G1 X125.334 Y102.395 E0.01051
G1 X125.041 Y102.384 E0.00930
G1 X122.924 Y100.267 E0.09491
G1 X122.582 Y100.465 E0.01251
G1 X124.538 Y102.421 E0.08770
G1 X124.384 Y102.442 E0.00496
G1 X124.107 Y102.529 E0.00918
G1 X122.241 Y100.662 E0.08369
G1 X121.899 Y100.859 E0.01251
G1 X123.728 Y102.688 E0.08200
G1 X123.372 Y102.872 E0.01269
G1 X121.557 Y101.057 E0.08137
G1 X121.215 Y101.254 E0.01251
G1 X123.016 Y103.055 E0.08075
G1 X122.746 Y103.194 E0.00962
G1 X122.746 Y103.324 E0.00414
G1 X120.873 Y101.451 E0.08398
G1 X120.684 Y101.560 E0.00692
G1 X120.620 Y101.737 E0.00596
G1 X122.746 Y103.864 E0.09534
G1 X122.746 Y104.403 E0.01709
G1 X120.476 Y102.132 E0.10179
G1 X120.332 Y102.528 E0.01334
G1 X122.746 Y104.942 E0.10825
G1 X122.746 Y105.481 E0.01709
G1 X120.188 Y102.923 E0.11470
G1 X120.044 Y103.318 E0.01334
G1 X122.746 Y106.020 E0.12115
G1 X122.746 Y106.559 E0.01709
G1 X119.900 Y103.713 E0.12761
G1 X119.756 Y104.109 E0.01334
G1 X126.017 Y110.370 E0.28072
G1 X125.559 Y110.451 E0.01476
G1 X119.612 Y104.504 E0.26662
G1 X119.468 Y104.899 E0.01334
G1 X125.100 Y110.531 E0.25252
G1 X124.642 Y110.612 E0.01476
G1 X119.457 Y105.427 E0.23246
M73 Q1 S130
M73 P1 R130
G1 X119.765 Y106.275 E0.02859
G1 X124.183 Y110.693 E0.19808
G1 X124.017 Y110.722 E0.00537
G1 X123.204 Y110.253 E0.02974
G1 X120.074 Y107.122 E0.14037
G1 X120.382 Y107.970 E0.02859
G1 X122.392 Y109.980 E0.09012
G1 F8640
G1 X120.382 Y107.970 E-0.65638
G1 X120.228 Y107.548 E-0.10362
G1 E-0.04000 F2100.00000
G1 Z0.800 F10800.000
G1 X126.622 Y110.436
G1 Z0.200
G1 E0.80000 F2100.00000
G1 F1200
G1 X123.974 Y107.788 E0.11871
G1 X124.384 Y107.917 E0.01360
G1 X124.683 Y107.957 E0.00958
G1 X126.934 Y110.208 E0.10093
G1 X127.393 Y110.128 E0.01476
G1 X125.232 Y107.967 E0.09686
G1 X125.334 Y107.964 E0.00324
G1 X125.693 Y107.888 E0.01160
G1 X127.831 Y110.027 E0.09589
G1 X128.077 Y109.734 E0.01213
G1 X126.093 Y107.750 E0.08895
G1 X126.246 Y107.690 E0.00521
G1 X126.449 Y107.566 E0.00752
G1 X128.323 Y109.441 E0.08405
G1 X128.570 Y109.148 E0.01213
G1 X126.765 Y107.344 E0.08089
G1 X127.047 Y107.086 E0.01210
G1 X128.816 Y108.855 E0.07930
G1 X129.062 Y108.561 E0.01213
G1 X127.289 Y106.788 E0.07950
G1 X127.488 Y106.448 E0.01249
G1 X129.308 Y108.268 E0.08160
G1 X129.554 Y107.975 E0.01213
G1 X127.646 Y106.067 E0.08555
G1 X127.709 Y105.889 E0.00599
G1 X127.753 Y105.635 E0.00817
G1 X129.800 Y107.682 E0.09179
G1 X130.046 Y107.389 E0.01213
G1 X127.790 Y105.133 E0.10115
G1 X127.790 Y104.940 E0.00611
G1 X127.718 Y104.522 E0.01347
G1 X130.412 Y107.216 E0.12081
M106 S255
;BEFORE_LAYER_CHANGE
G92 E0.0
;0.3


G1 F8640
G1 X128.085 Y104.889 E-0.76000
G1 E-0.04000 F2100.00000
G1 Z0.800 F10800.000
;AFTER_LAYER_CHANGE
;0.3
M104 S210 ; set temperature
M140 S60 ; set bed temperature
G1 X129.503 Y68.285
G1 Z0.300
G1 E0.80000 F2100.00000
G1 F1800
G1 X132.319 Y68.722 E0.04722
G1 X132.925 Y68.931 E0.01062
G1 X151.847 Y79.592 E0.35986
G1 X152.660 Y80.330 E0.01820
G1 X154.074 Y82.002 E0.03628
G1 X154.384 Y82.546 E0.01038
G1 X162.018 Y102.855 E0.35950
G1 X162.135 Y103.382 E0.00894
G1 X162.175 Y104.518 E0.01883
G1 X162.168 Y106.145 E0.02696
G1 X162.065 Y106.708 E0.00948
G1 X154.858 Y127.176 E0.35956
G1 X154.556 Y127.738 E0.01056
G1 X153.183 Y129.428 E0.03608
G1 X152.760 Y129.905 E0.01055
G1 X152.381 Y130.196 E0.00792
G1 X133.684 Y141.252 E0.35992
G1 X133.239 Y141.436 E0.00798
G1 X132.409 Y141.620 E0.01408
G1 X130.247 Y141.972 E0.03630
G1 X108.428 Y138.390 E0.36637
G1 X107.962 Y138.232 E0.00816
G1 X106.962 Y137.700 E0.01877
G1 X105.560 Y136.881 E0.02690
G1 X105.105 Y136.482 E0.01002
G1 X91.000 Y120.025 E0.35913
G1 X90.710 Y119.570 E0.00894
G1 X90.283 Y118.517 E0.01883
G1 X89.734 Y116.985 E0.02696
G1 X89.638 Y116.421 E0.00948
G1 X89.410 Y94.740 E0.35925
G1 X89.468 Y94.215 E0.00876
G1 X89.739 Y93.352 E0.01498
G1 X90.385 Y91.581 E0.03123
G1 X90.655 Y91.102 E0.00912
G1 X104.450 Y74.303 E0.36016
G1 X104.929 Y73.872 E0.01068
G1 X107.191 Y72.533 E0.04355
G1 X107.759 Y72.317 E0.01008
G1 X129.444 Y68.296 E0.36543
; PURGING FINISHED
G1 F8640
G1 X132.319 Y68.722 E-0.67114
G1 X132.683 Y68.848 E-0.08886
G1 E-0.04000 F2100.00000
G1 Z0.900 F10800.000
G1 X122.859 Y107.095
G1 Z0.300
G1 E0.80000 F2100.00000
M204 S300
G1 F1200
G1 X122.859 Y103.263 E0.06828
G1 X123.971 Y102.690 E0.02228
G1 X124.408 Y102.553 E0.00817
G1 X124.847 Y102.493 E0.00788
G1 X125.315 Y102.507 E0.00834
G1 X125.769 Y102.602 E0.00828
G1 X126.195 Y102.771 E0.00817
G1 X126.587 Y103.009 E0.00817
G1 X126.932 Y103.311 E0.00817
G1 X127.221 Y103.667 E0.00817
G1 X127.445 Y104.066 E0.00817
G1 X127.599 Y104.498 E0.00817
G1 X127.676 Y104.950 E0.00817
G1 X127.676 Y105.408 E0.00817
G1 X127.599 Y105.860 E0.00817
G1 X127.445 Y106.292 E0.00817
G1 X127.229 Y106.678 E0.00788
G1 X126.937 Y107.043 E0.00834
G1 X126.587 Y107.349 E0.00828
G1 X126.195 Y107.588 E0.00817
G1 X125.769 Y107.757 E0.00817
G1 X125.321 Y107.851 E0.00817
G1 X124.863 Y107.867 E0.00817
G1 X124.408 Y107.806 E0.00817
G1 X123.971 Y107.668 E0.00817
G1 X122.913 Y107.123 E0.02121
M204 S500
G1 X123.288 Y106.834 F10800.000
M204 S300
G1 F1200
G1 X123.288 Y103.524 E0.05897
G1 X124.135 Y103.088 E0.01697
G1 X124.502 Y102.973 E0.00686
G1 X124.869 Y102.923 E0.00660
G1 X125.264 Y102.934 E0.00704
G1 X125.646 Y103.014 E0.00694
G1 X126.004 Y103.156 E0.00686
G1 X126.332 Y103.356 E0.00686
G1 X126.622 Y103.609 E0.00686
G1 X126.865 Y103.908 E0.00686
G1 X127.054 Y104.244 E0.00686
G1 X127.183 Y104.607 E0.00686
G1 X127.248 Y104.987 E0.00686
G1 X127.248 Y105.372 E0.00686
G1 X127.183 Y105.751 E0.00686
G1 X127.054 Y106.114 E0.00686
G1 X126.872 Y106.437 E0.00660
G1 X126.626 Y106.746 E0.00704
G1 X126.332 Y107.002 E0.00694
G1 X126.004 Y107.203 E0.00686
G1 X125.646 Y107.345 E0.00686
G1 X125.269 Y107.424 E0.00686
G1 X124.884 Y107.437 E0.00686
G1 X124.502 Y107.386 E0.00686
G1 X124.135 Y107.270 E0.00686
G1 X123.341 Y106.861 E0.01590
M204 S500
G1 X123.717 Y106.573 F10800.000
M204 S300
G1 F1200
G1 X123.717 Y103.786 E0.04966
G1 X124.298 Y103.486 E0.01166
