; generated by Slic3r Prusa Edition 1.41.0+win64 on 2018-10-19 at 20:34:10

; 

; external perimeters extrusion width = 0.45mm
; perimeters extrusion width = 0.45mm
; infill extrusion width = 0.45mm
; solid infill extrusion width = 0.45mm
; top infill extrusion width = 0.40mm
; support material extrusion width = 0.35mm
; first layer extrusion width = 0.42mm

M201 X1000 Y1000 Z1000 E5000 ; sets maximum accelerations, mm/sec^2
M203 X200 Y200 Z12 E120 ; sets maximum feedrates, mm/sec
M204 P1250 R1250 T1250 ; sets acceleration (P, T) and retract acceleration (R), mm/sec^2
M205 X8.00 Y8.00 Z0.40 E1.50 ; sets the jerk limits, mm/sec
M205 S0 T0 ; sets the minimum extruding and travel feed rate, mm/sec
M107
M115 U3.4.0 ; tell printer latest fw version
M83  ; extruder relative mode
M104 S215 ; set extruder temp
M140 S65 ; set bed temp
M190 S65 ; wait for bed temp
M109 S215 ; wait for extruder temp
G28 W ; home all without mesh bed level
G80 ; mesh bed leveling
G1 Y-3.0 F1000.0 ; go outside print area
G92 E0.0
G1 X60.0 E9.0  F1000.0 ; intro line
M73 Q0 S116
M73 P0 R115
G1 X100.0 E12.5  F1000.0 ; intro line
G92 E0.0
M221 S95
M900 K30; Filament gcode
G21 ; set units to millimeters
G90 ; use absolute coordinates
M83 ; use relative distances for extrusion
;BEFORE_LAYER_CHANGE
G92 E0.0
;0.2


G1 E-0.80000 F2100.00000
G1 Z0.600 F10800.000
;AFTER_LAYER_CHANGE
;0.2
G1 X102.631 Y80.645
G1 Z0.200
G1 E0.80000 F2100.00000
M204 S1000
G1 F1200
G1 X103.199 Y80.156 E0.02349
G1 X103.720 Y79.931 E0.01783
G1 X104.283 Y79.847 E0.01783
G1 X131.476 Y79.677 E0.85263
G1 X146.685 Y79.850 E0.47690
G1 X147.572 Y80.098 E0.02889
G1 X148.279 Y80.688 E0.02889
G1 X148.653 Y81.413 E0.02556
G1 X153.762 Y98.656 E0.56388
G1 X154.334 Y101.060 E0.07746
G1 X154.650 Y103.700 E0.08336
G1 X154.655 Y106.163 E0.07724
G1 X154.330 Y108.957 E0.08821
G1 X153.755 Y111.368 E0.07770
G1 X152.874 Y113.789 E0.08079
G1 X151.723 Y116.080 E0.08038
G1 X150.375 Y118.140 E0.07720
G1 X148.554 Y120.313 E0.08887
G1 X146.766 Y121.994 E0.07695
G1 X144.703 Y123.531 E0.08067
G1 X130.650 Y131.740 E0.51028
G1 X129.975 Y131.851 E0.02146
G1 X120.148 Y131.851 E0.30812
G1 X119.676 Y131.797 E0.01487
G1 X119.069 Y131.560 E0.02044
G1 X105.281 Y123.521 E0.50043
G1 X103.247 Y122.005 E0.07954
G1 X101.451 Y120.317 E0.07727
G1 X99.733 Y118.290 E0.08333
G1 X98.286 Y116.097 E0.08239
G1 X97.133 Y113.803 E0.08050
G1 X96.246 Y111.370 E0.08119
G1 X95.676 Y108.983 E0.07695
G1 X95.345 Y106.165 E0.08895
G1 X95.350 Y103.698 E0.07735
G1 X95.670 Y101.042 E0.08387
G1 X96.264 Y98.573 E0.07964
G1 X102.262 Y81.293 E0.57351
G1 X102.601 Y80.697 E0.02150
; PURGING FINISHED
G1 F8640
G1 X103.199 Y80.156 E-0.18609
G1 X103.720 Y79.931 E-0.13128
G1 X104.283 Y79.847 E-0.13128
G1 X105.631 Y79.838 E-0.31135
G1 E-0.04000 F2100.00000
G1 Z0.800 F10800.000
G1 X104.321 Y89.649
G1 Z0.200
G1 E0.80000 F2100.00000
G1 F1200
G1 X104.321 Y82.035 E0.23872
G1 X105.075 Y82.035 E0.02365
G1 X105.075 Y88.843 E0.21344
G1 X105.830 Y88.281 E0.02948
G1 X105.830 Y82.035 E0.19584
G1 X106.584 Y82.035 E0.02365
G1 X106.584 Y87.770 E0.17982
G1 X107.338 Y87.335 E0.02730
G1 X107.338 Y82.035 E0.16617
G1 X108.092 Y82.035 E0.02365
G1 X108.092 Y86.899 E0.15251
G1 X108.350 Y86.752 E0.00932
G1 X108.846 Y86.538 E0.01694
G1 X108.846 Y82.035 E0.14118
G1 X109.600 Y82.035 E0.02365
G1 X109.600 Y86.213 E0.13098
G1 X110.355 Y85.887 E0.02575
G1 X110.355 Y82.035 E0.12078
G1 X111.109 Y82.035 E0.02365
G1 X111.109 Y85.640 E0.11302
G1 X111.863 Y85.414 E0.02468
G1 X111.863 Y82.035 E0.10595
G1 X112.617 Y82.035 E0.02365
G1 X112.617 Y85.188 E0.09887
G1 X112.801 Y85.135 E0.00602
G1 X113.371 Y85.034 E0.01815
G1 X113.371 Y82.035 E0.09402
G1 X114.125 Y82.035 E0.02365
G1 X114.125 Y84.901 E0.08985
G1 X114.879 Y84.768 E0.02401
G1 X114.879 Y82.035 E0.08569
G1 X115.634 Y82.035 E0.02365
G1 X115.634 Y84.694 E0.08338
G1 X116.388 Y84.651 E0.02369
G1 X116.388 Y82.035 E0.08201
G1 X117.142 Y82.035 E0.02365
G1 X117.142 Y84.607 E0.08063
G1 X117.896 Y84.586 E0.02365
G1 X117.896 Y82.035 E0.08000
G1 X118.650 Y82.035 E0.02365
G1 X118.650 Y84.756 E0.08532
G1 F8640
G1 X118.650 Y82.035 E-0.62831
G1 X118.080 Y82.035 E-0.13169
G1 E-0.04000 F2100.00000
G1 Z0.800 F10800.000
G1 X116.388 Y89.920
G1 Z0.200
G1 E0.80000 F2100.00000
G1 F1200
G1 X116.388 Y88.384 E0.04814
G1 X115.634 Y88.432 E0.02369
G1 X115.634 Y89.806 E0.04308
G1 X114.879 Y89.937 E0.02400
G1 X114.879 Y88.546 E0.04361
G1 X114.125 Y88.690 E0.02407
G1 X114.125 Y90.069 E0.04323
G1 X113.371 Y90.278 E0.02453
G1 X113.371 Y88.834 E0.04526
G1 X112.617 Y89.077 E0.02484
G1 X112.617 Y90.501 E0.04464
G1 X112.304 Y90.595 E0.01025
G1 X111.863 Y90.783 E0.01503
G1 X111.863 Y89.322 E0.04581
G1 X111.358 Y89.486 E0.01666
G1 X111.109 Y89.603 E0.00863
G1 X111.109 Y91.104 E0.04707
G1 X110.707 Y91.276 E0.01369
G1 X110.355 Y91.475 E0.01269
G1 X110.355 Y89.958 E0.04756
G1 X109.600 Y90.313 E0.02613
G1 X109.600 Y91.905 E0.04990
G1 X108.909 Y92.298 E0.02493
G1 X109.072 Y92.914 E0.01996
G1 X109.600 Y92.914 E0.01655
G1 X109.600 Y99.500 E0.20652
G1 X110.355 Y99.500 E0.02365
G1 X110.355 Y92.914 E0.20652
G1 X111.109 Y92.914 E0.02365
G1 X111.109 Y99.500 E0.20652
G1 X111.863 Y99.500 E0.02365
G1 X111.863 Y92.914 E0.20652
G1 X112.617 Y92.914 E0.02365
G1 X112.617 Y97.193 E0.13419
G1 X113.371 Y97.193 E0.02365
G1 X113.371 Y92.914 E0.13419
G1 X114.125 Y92.914 E0.02365
G1 X114.125 Y97.193 E0.13419
G1 X114.879 Y97.193 E0.02365
G1 X114.879 Y92.914 E0.13419
G1 X115.634 Y92.914 E0.02365
G1 X115.634 Y97.193 E0.13419
G1 X116.388 Y97.193 E0.02365
G1 X116.388 Y92.914 E0.13419
G1 X117.142 Y92.914 E0.02365
G1 X117.142 Y97.193 E0.13419
G1 X117.896 Y97.193 E0.02365
G1 X117.896 Y92.914 E0.13419
G1 X118.650 Y92.914 E0.02365
G1 X118.650 Y97.193 E0.13419
G1 X119.404 Y97.193 E0.02365
G1 X119.404 Y92.914 E0.13419
G1 X120.159 Y92.914 E0.02365
G1 X120.159 Y97.193 E0.13419
G1 X120.913 Y97.193 E0.02365
G1 X120.913 Y92.914 E0.13419
G1 X121.667 Y92.914 E0.02365
G1 X121.667 Y97.193 E0.13419
G1 X122.421 Y97.193 E0.02365
G1 X122.421 Y92.914 E0.13419
G1 X123.175 Y92.914 E0.02365
G1 X123.175 Y97.193 E0.13419
G1 X123.929 Y97.193 E0.02365
G1 X123.929 Y92.914 E0.13419
G1 X124.684 Y92.914 E0.02365
G1 X124.684 Y97.193 E0.13419
G1 X125.438 Y97.193 E0.02365
G1 X125.438 Y92.914 E0.13419
G1 X126.192 Y92.914 E0.02365
G1 X126.192 Y97.193 E0.13419
G1 X126.946 Y97.193 E0.02365
G1 X126.946 Y92.914 E0.13419
G1 X127.700 Y92.914 E0.02365
G1 X127.700 Y97.193 E0.13419
G1 X128.454 Y97.193 E0.02365
G1 X128.454 Y92.914 E0.13419
G1 X129.209 Y92.914 E0.02365
G1 X129.209 Y97.193 E0.13419
G1 X129.963 Y97.193 E0.02365
G1 X129.963 Y92.914 E0.13419
G1 X130.717 Y92.914 E0.02365
G1 X130.717 Y97.193 E0.13419
G1 X131.471 Y97.193 E0.02365
G1 X131.471 Y92.914 E0.13419
G1 X132.225 Y92.914 E0.02365
G1 X132.225 Y97.193 E0.13419
G1 X132.979 Y97.193 E0.02365
G1 X132.979 Y92.914 E0.13419
G1 X133.733 Y92.914 E0.02365
G1 X133.733 Y97.193 E0.13419
G1 X134.488 Y97.193 E0.02365
G1 X134.488 Y92.914 E0.13419
G1 X135.242 Y92.914 E0.02365
G1 X135.242 Y97.193 E0.13419
G1 X135.996 Y97.193 E0.02365
G1 X135.996 Y92.914 E0.13419
G1 X136.750 Y92.914 E0.02365
G1 X136.750 Y97.193 E0.13419
G1 X137.504 Y97.193 E0.02365
G1 X137.504 Y92.914 E0.13419
G1 X138.258 Y92.914 E0.02365
G1 X138.258 Y97.193 E0.13419
G1 X139.013 Y97.193 E0.02365
G1 X139.013 Y92.914 E0.13419
G1 X139.767 Y92.914 E0.02365
G1 X139.767 Y97.193 E0.13419
G1 X140.521 Y97.193 E0.02365
G1 X140.521 Y92.914 E0.13419
G1 X141.275 Y92.914 E0.02365
G1 X141.275 Y97.193 E0.13419
G1 X142.029 Y97.193 E0.02365
G1 X142.029 Y92.914 E0.13419
G1 X142.328 Y92.914 E0.00937
G1 X142.783 Y93.326 E0.01927
G1 X142.783 Y97.193 E0.12125
G1 X143.538 Y97.193 E0.02365
G1 X143.538 Y94.010 E0.09982
G1 X143.663 Y94.123 E0.00530
G1 X144.292 Y94.854 E0.03024
G1 X144.292 Y97.193 E0.07333
G1 X145.046 Y97.193 E0.02365
G1 X145.046 Y95.773 E0.04453
G1 X145.800 Y96.909 E0.04275
G1 X145.800 Y97.363 E0.01423
G1 F8640
G1 X145.800 Y96.909 E-0.10482
G1 X145.046 Y95.773 E-0.31484
G1 X145.046 Y97.193 E-0.32794
G1 X144.992 Y97.193 E-0.01240
G1 E-0.04000 F2100.00000
G1 Z0.800 F10800.000
G1 X146.554 Y90.475
G1 Z0.200
G1 E0.80000 F2100.00000
G1 F1200
G1 X146.554 Y82.035 E0.26461
G1 X145.800 Y82.035 E0.02365
G1 X145.800 Y89.530 E0.23499
G1 X145.612 Y89.355 E0.00805
G1 X145.046 Y88.933 E0.02214
G1 X145.046 Y82.035 E0.21628
G1 X144.292 Y82.035 E0.02365
G1 X144.292 Y88.371 E0.19867
G1 X143.731 Y87.954 E0.02191
G1 X143.538 Y87.840 E0.00705
G1 X143.538 Y82.035 E0.18201
G1 X142.783 Y82.035 E0.02365
G1 X142.783 Y87.405 E0.16836
G1 X142.029 Y86.969 E0.02730
G1 X142.029 Y82.035 E0.15470
G1 X141.275 Y82.035 E0.02365
G1 X141.275 Y86.590 E0.14282
G1 X140.521 Y86.265 E0.02575
G1 X140.521 Y82.035 E0.13262
G1 X139.767 Y82.035 E0.02365
G1 X139.767 Y85.939 E0.12242
G1 X139.475 Y85.815 E0.00995
G1 X139.013 Y85.676 E0.01513
G1 X139.013 Y82.035 E0.11417
G1 X138.258 Y82.035 E0.02365
G1 X138.258 Y85.451 E0.10709
G1 X137.504 Y85.225 E0.02468
G1 X137.504 Y82.035 E0.10001
G1 X136.750 Y82.035 E0.02365
G1 X136.750 Y85.055 E0.09470
G1 X135.996 Y84.922 E0.02401
G1 X135.996 Y82.035 E0.09053
G1 X135.242 Y82.035 E0.02365
G1 X135.242 Y84.789 E0.08636
G1 X134.865 Y84.724 E0.01198
G1 X134.488 Y84.702 E0.01187
G1 X134.488 Y82.035 E0.08360
G1 X133.733 Y82.035 E0.02365
G1 X133.733 Y84.658 E0.08223
G1 X132.979 Y84.614 E0.02369
G1 X132.979 Y82.035 E0.08085
G1 X132.225 Y82.035 E0.02365
G1 X132.225 Y84.586 E0.08000
G1 X131.471 Y84.586 E0.02365
G1 X131.471 Y81.865 E0.08532
G1 F8640
G1 X131.471 Y84.586 E-0.62831
G1 X132.041 Y84.586 E-0.13169
G1 E-0.04000 F2100.00000
G1 Z0.800 F10800.000
G1 X108.846 Y99.670
G1 Z0.200
G1 E0.80000 F2100.00000
G1 F1200
G1 X108.846 Y90.769 E0.27909
G1 X108.092 Y91.247 E0.02801
G1 X108.092 Y99.500 E0.25876
G1 X107.420 Y99.500 E0.02107
G1 X107.420 Y104.114 E0.14467
G1 X107.338 Y104.114 E0.00257
G1 X107.338 Y91.794 E0.38629
G1 X106.584 Y92.418 E0.03069
G1 X106.584 Y104.114 E0.36673
G1 X105.830 Y104.114 E0.02365
G1 X105.830 Y93.101 E0.34532
G1 X105.075 Y93.904 E0.03454
G1 X105.075 Y116.096 E0.69580
G1 X105.830 Y116.899 E0.03454
G1 X105.830 Y105.106 E0.36976
G1 X106.584 Y105.106 E0.02365
G1 X106.584 Y117.582 E0.39117
G1 X107.338 Y118.206 E0.03069
G1 X107.338 Y105.106 E0.41074
G1 X107.420 Y105.106 E0.00257
G1 X107.420 Y109.720 E0.14467
G1 X108.092 Y109.720 E0.02107
G1 X108.092 Y118.753 E0.28321
G1 X108.846 Y119.231 E0.02801
G1 X108.846 Y109.720 E0.29822
G1 X109.600 Y109.720 E0.02365
G1 X109.600 Y119.687 E0.31251
G1 X110.355 Y120.042 E0.02613
G1 X110.355 Y112.027 E0.25130
G1 X111.109 Y112.027 E0.02365
G1 X111.109 Y120.397 E0.26243
G1 X111.358 Y120.514 E0.00863
G1 X111.863 Y120.678 E0.01666
G1 X111.863 Y112.027 E0.27125
G1 X112.034 Y112.027 E0.00537
G1 X112.034 Y114.334 E0.07234
G1 X112.617 Y114.334 E0.01828
G1 X112.617 Y120.923 E0.20659
G1 X113.371 Y121.165 E0.02484
G1 X113.371 Y114.334 E0.21419
G1 X114.125 Y114.334 E0.02365
G1 X114.125 Y121.309 E0.21870
G1 X114.879 Y121.453 E0.02407
G1 X114.879 Y114.334 E0.22321
G1 X115.634 Y114.334 E0.02365
G1 X115.634 Y121.568 E0.22682
G1 X116.388 Y121.616 E0.02369
G1 X116.388 Y114.334 E0.22831
G1 X117.142 Y114.334 E0.02365
G1 X117.142 Y119.773 E0.17054
G1 X117.329 Y119.586 E0.00828
G1 X117.896 Y119.586 E0.01779
G1 X117.896 Y114.334 E0.16468
G1 X118.650 Y114.334 E0.02365
G1 X118.650 Y119.586 E0.16468
G1 X119.404 Y119.586 E0.02365
G1 X119.404 Y116.641 E0.09235
G1 X120.159 Y116.641 E0.02365
G1 X120.159 Y119.586 E0.09235
G1 X120.913 Y119.586 E0.02365
G1 X120.913 Y116.641 E0.09235
G1 X121.667 Y116.641 E0.02365
G1 X121.667 Y121.986 E0.16760
G1 X122.421 Y121.986 E0.02365
G1 X122.421 Y116.641 E0.16760
G1 X123.175 Y116.641 E0.02365
G1 X123.175 Y121.986 E0.16760
G1 X123.929 Y121.986 E0.02365
G1 X123.929 Y116.641 E0.16760
G1 X124.684 Y116.641 E0.02365
G1 X124.684 Y121.986 E0.16760
G1 X125.438 Y121.986 E0.02365
G1 X125.438 Y116.641 E0.16760
G1 X126.192 Y116.641 E0.02365
G1 X126.192 Y121.986 E0.16760
G1 X126.946 Y121.986 E0.02365
G1 X126.946 Y116.641 E0.16760
G1 X127.700 Y116.641 E0.02365
G1 X127.700 Y121.986 E0.16760
G1 X128.454 Y121.986 E0.02365
G1 X128.454 Y116.641 E0.16760
G1 X129.209 Y116.641 E0.02365
G1 X129.209 Y119.586 E0.09235
G1 X129.963 Y119.586 E0.02365
G1 X129.963 Y116.641 E0.09235
G1 X130.717 Y116.641 E0.02365
G1 X130.717 Y119.586 E0.09235
G1 X131.471 Y119.586 E0.02365
G1 X131.471 Y116.641 E0.09235
G1 X132.225 Y116.641 E0.02365
G1 X132.225 Y119.756 E0.09767
G1 F8640
G1 X132.225 Y116.641 E-0.71924
G1 X132.049 Y116.641 E-0.04076
G1 E-0.04000 F2100.00000
G1 Z0.800 F10800.000
G1 X129.963 Y129.662
G1 Z0.200
G1 E0.80000 F2100.00000
G1 F1200
G1 X129.963 Y125.414 E0.13321
G1 X129.209 Y125.414 E0.02365
G1 X129.209 Y129.492 E0.12789
G1 X128.454 Y129.492 E0.02365
G1 X128.454 Y125.414 E0.12789
G1 X127.700 Y125.414 E0.02365
G1 X127.700 Y129.492 E0.12789
G1 X126.946 Y129.492 E0.02365
G1 X126.946 Y125.414 E0.12789
G1 X126.192 Y125.414 E0.02365
G1 X126.192 Y129.492 E0.12789
G1 X125.438 Y129.492 E0.02365
G1 X125.438 Y125.414 E0.12789
M73 Q0 S115
G1 X124.684 Y125.414 E0.02365
G1 X124.684 Y129.492 E0.12789
G1 X123.929 Y129.492 E0.02365
M73 P0 R114
G1 X123.929 Y125.414 E0.12789
G1 X123.175 Y125.414 E0.02365
G1 X123.175 Y129.492 E0.12789
G1 X122.421 Y129.492 E0.02365
G1 X122.421 Y125.414 E0.12789
G1 X121.667 Y125.414 E0.02365
G1 X121.667 Y129.492 E0.12789
G1 X120.913 Y129.492 E0.02365
G1 X120.913 Y125.414 E0.12789
G1 X120.159 Y125.414 E0.02365
G1 X120.159 Y129.662 E0.13321
G1 F8640
G1 X120.159 Y126.371 E-0.76000
G1 E-0.04000 F2100.00000
G1 Z0.800 F10800.000
G1 X104.321 Y115.481
G1 Z0.200
G1 E0.80000 F2100.00000
G1 F1200
G1 X104.321 Y94.808 E0.64820
G1 X103.567 Y95.846 E0.04023
G1 X103.567 Y114.154 E0.57405
G1 X103.412 Y113.941 E0.00828
G1 X102.813 Y112.851 E0.03898
G1 X102.813 Y97.149 E0.49234
G1 X102.402 Y97.896 E0.02672
G1 X102.059 Y98.763 E0.02926
G1 X102.059 Y111.237 E0.39109
G1 X101.631 Y110.156 E0.03644
G1 X101.305 Y108.885 E0.04115
G1 X101.305 Y100.433 E0.26502
G1 F8640
G1 X101.305 Y103.724 E-0.76000
G1 E-0.04000 F2100.00000
G1 Z0.800 F10800.000
G1 X117.710 Y87.676
G1 Z0.200
G1 E0.80000 F2100.00000
G1 F1200
G1 X117.710 Y90.298 E0.08221
G1 X115.813 Y90.408 E0.05957
G1 X114.148 Y90.698 E0.05298
G1 X112.559 Y91.168 E0.05197
G1 X110.973 Y91.840 E0.05399
G1 X110.183 Y92.290 E0.02850
G1 X142.568 Y92.290 E1.01541
G1 X144.110 Y93.687 E0.06524
G1 X145.423 Y95.213 E0.06311
G1 X146.536 Y96.890 E0.06311
G1 X147.433 Y98.692 E0.06311
G1 X148.099 Y100.591 E0.06311
G1 X148.525 Y102.558 E0.06311
G1 X148.704 Y104.562 E0.06311
G1 X148.634 Y106.566 E0.06285
G1 X148.314 Y108.561 E0.06335
G1 X147.751 Y110.493 E0.06311
G1 X146.953 Y112.341 E0.06311
G1 X145.932 Y114.075 E0.06311
G1 X144.704 Y115.670 E0.06311
G1 X143.288 Y117.100 E0.06311
G1 X141.705 Y118.343 E0.06311
G1 X139.988 Y119.377 E0.06285
G1 X138.112 Y120.210 E0.06434
G1 X129.310 Y120.210 E0.27599
G1 X129.310 Y122.610 E0.07525
G1 X120.690 Y122.610 E0.27027
G1 X120.690 Y120.210 E0.07525
G1 X117.710 Y120.210 E0.09344
G1 X117.710 Y122.324 E0.06627
G1 X115.330 Y122.174 E0.07476
G1 X113.195 Y121.767 E0.06816
G1 X111.128 Y121.095 E0.06816
G1 X109.161 Y120.169 E0.06816
G1 X107.325 Y119.004 E0.06816
G1 X105.650 Y117.619 E0.06816
G1 X104.162 Y116.034 E0.06816
G1 X102.884 Y114.275 E0.06816
G1 X101.837 Y112.370 E0.06816
G1 X101.037 Y110.349 E0.06816
G1 X100.496 Y108.244 E0.06816
G1 X100.224 Y106.087 E0.06816
G1 X100.224 Y103.913 E0.06816
G1 X100.496 Y101.756 E0.06816
G1 X101.037 Y99.651 E0.06816
G1 X101.837 Y97.630 E0.06816
G1 X102.884 Y95.725 E0.06816
G1 X104.162 Y93.966 E0.06816
G1 X105.650 Y92.381 E0.06816
G1 X107.325 Y90.996 E0.06816
G1 X109.161 Y89.831 E0.06816
G1 X111.128 Y88.905 E0.06816
G1 X113.204 Y88.231 E0.06845
G1 X115.330 Y87.826 E0.06787
G1 X117.650 Y87.680 E0.07288
G1 X118.110 Y87.660 F10800.000
G1 F8640
G1 X117.710 Y90.298 E-0.60469
G1 X117.038 Y90.337 E-0.15531
G1 E-0.04000 F2100.00000
G1 Z0.800 F10800.000
G1 X118.464 Y91.010
G1 Z0.200
G1 E0.80000 F2100.00000
G1 F1200
G1 X118.464 Y86.873 E0.12971
G1 X115.236 Y87.076 E0.10142
G1 X113.016 Y87.499 E0.07084
G1 X110.850 Y88.203 E0.07143
G1 X108.797 Y89.169 E0.07114
G1 X106.881 Y90.384 E0.07114
G1 X105.133 Y91.830 E0.07114
G1 X103.580 Y93.484 E0.07114
