; generated by Slic3r Prusa Edition 1.41.0+win64 on 2018-10-19 at 17:50:43

; 

; external perimeters extrusion width = 0.45mm
; perimeters extrusion width = 0.45mm
; infill extrusion width = 0.45mm
; solid infill extrusion width = 0.45mm
; top infill extrusion width = 0.40mm
; support material extrusion width = 0.35mm
; first layer extrusion width = 0.42mm

M201 X1000 Y1000 Z1000 E5000 ; sets maximum accelerations, mm/sec^2
M203 X200 Y200 Z12 E120 ; sets maximum feedrates, mm/sec
M204 P1250 R1250 T1250 ; sets acceleration (P, T) and retract acceleration (R), mm/sec^2
M205 X8.00 Y8.00 Z0.40 E1.50 ; sets the jerk limits, mm/sec
M205 S0 T0 ; sets the minimum extruding and travel feed rate, mm/sec
M107
M115 U3.4.0 ; tell printer latest fw version
M83  ; extruder relative mode
M104 S215 ; set extruder temp
M140 S65 ; set bed temp
M190 S65 ; wait for bed temp
M109 S215 ; wait for extruder temp
G28 W ; home all without mesh bed level
G80 ; mesh bed leveling
G1 Y-3.0 F1000.0 ; go outside print area
G92 E0.0
G1 X60.0 E9.0  F1000.0 ; intro line
M73 Q0 S146
M73 P0 R145
G1 X100.0 E12.5  F1000.0 ; intro line
G92 E0.0
M221 S95
M900 K30; Filament gcode
G21 ; set units to millimeters
G90 ; use absolute coordinates
M83 ; use relative distances for extrusion
;BEFORE_LAYER_CHANGE
G92 E0.0
;0.2


G1 E-0.80000 F2100.00000
G1 Z0.600 F10800.000
;AFTER_LAYER_CHANGE
;0.2
G1 X92.687 Y93.696
G1 Z0.200
G1 E0.80000 F2100.00000
M204 S1000
G1 F1200
G1 X92.897 Y93.203 E0.01680
G1 X93.220 Y92.775 E0.01680
G1 X113.596 Y71.997 E0.91247
G1 X114.112 Y71.610 E0.02021
G1 X114.600 Y71.418 E0.01646
G1 X115.124 Y71.347 E0.01658
G1 X134.008 Y71.347 E0.59209
G1 X134.497 Y71.402 E0.01544
G1 X134.965 Y71.567 E0.01555
G1 X135.380 Y71.831 E0.01544
G1 X135.729 Y72.183 E0.01555
G1 X150.129 Y90.968 E0.74213
G1 X151.680 Y93.113 E0.08298
G1 X153.002 Y95.511 E0.08587
G1 X154.089 Y98.287 E0.09345
G1 X154.741 Y100.848 E0.08287
G1 X155.089 Y103.598 E0.08692
G1 X155.076 Y106.538 E0.09220
G1 X154.740 Y109.158 E0.08282
G1 X154.077 Y111.757 E0.08410
G1 X153.021 Y114.448 E0.09063
G1 X151.622 Y116.976 E0.09059
G1 X135.768 Y138.612 E0.84101
G1 X135.262 Y139.105 E0.02213
G1 X134.682 Y139.394 E0.02032
G1 X134.039 Y139.500 E0.02044
G1 X115.143 Y139.500 E0.59249
G1 X114.551 Y139.416 E0.01873
G1 X114.039 Y139.195 E0.01749
G1 X113.599 Y138.852 E0.01749
G1 X93.224 Y118.075 E0.91243
G1 X92.817 Y117.493 E0.02225
G1 X92.659 Y117.039 E0.01510
G1 X92.603 Y116.560 E0.01510
G1 X92.603 Y94.291 E0.69823
G1 X92.679 Y93.756 E0.01697
; PURGING FINISHED
G1 F8640
G1 X92.897 Y93.203 E-0.13718
G1 X93.220 Y92.775 E-0.12374
G1 X94.733 Y91.232 E-0.49908
G1 E-0.04000 F2100.00000
G1 Z0.800 F10800.000
G1 X100.070 Y95.520
G1 Z0.200
G1 E0.80000 F2100.00000
G1 F1200
G1 X100.070 Y94.299 E0.03829
G1 X99.316 Y94.299 E0.02365
G1 X99.316 Y96.742 E0.07660
G1 X98.809 Y97.890 E0.03937
G1 X98.562 Y98.697 E0.02644
G1 X98.562 Y94.299 E0.13789
G1 X97.808 Y94.299 E0.02365
G1 X97.808 Y101.854 E0.23690
G1 X97.655 Y102.754 E0.02862
G1 X97.535 Y104.790 E0.06393
G1 X97.537 Y105.223 E0.01360
G1 X97.641 Y107.069 E0.05796
G1 X97.661 Y107.300 E0.00727
G1 X97.808 Y108.139 E0.02670
G1 X97.808 Y116.378 E0.25834
G1 X98.562 Y116.378 E0.02365
G1 X98.562 Y111.303 E0.15912
G1 X98.809 Y112.108 E0.02637
G1 X99.316 Y113.257 E0.03941
G1 X99.316 Y116.378 E0.09785
G1 X100.070 Y116.378 E0.02365
G1 X100.070 Y114.810 E0.04916
G1 X100.825 Y116.075 E0.04618
G1 X100.825 Y116.548 E0.01482
G1 X97.054 Y116.548 F10800.000
G1 F1200
G1 X97.054 Y94.299 E0.69760
G1 X96.300 Y94.299 E0.02365
G1 X96.300 Y116.378 E0.69228
G1 X95.545 Y116.378 E0.02365
G1 X95.545 Y94.299 E0.69228
G1 X94.791 Y94.299 E0.02365
G1 X94.791 Y116.548 E0.69760
G1 F8640
G1 X94.791 Y113.256 E-0.76000
G1 E-0.04000 F2100.00000
G1 Z0.800 F10800.000
G1 X109.120 Y119.333
G1 Z0.200
G1 E0.80000 F2100.00000
G1 F1200
G1 X109.120 Y90.863 E0.89266
G1 X108.718 Y91.097 E0.01460
G1 X108.366 Y91.362 E0.01380
G1 X108.366 Y118.638 E0.85523
G1 X107.612 Y118.071 E0.02958
G1 X107.612 Y91.929 E0.81968
G1 X107.156 Y92.272 E0.01789
G1 X106.858 Y92.556 E0.01291
G1 X106.858 Y117.444 E0.78036
G1 X106.104 Y116.725 E0.03268
G1 X106.104 Y116.607 E0.00369
G1 X106.646 Y116.102 E0.02325
G1 X106.666 Y115.772 E0.01037
G1 X106.104 Y115.106 E0.02731
G1 X106.104 Y94.915 E0.63308
G1 X105.350 Y95.842 E0.03748
G1 X105.350 Y114.143 E0.57380
G1 X104.595 Y112.996 E0.04303
G1 X104.595 Y97.031 E0.50057
G1 X104.074 Y97.891 E0.03152
G1 X103.841 Y98.438 E0.01866
G1 X103.841 Y111.544 E0.41091
G1 X103.415 Y110.640 E0.03133
G1 X103.087 Y109.581 E0.03475
G1 X103.087 Y99.771 E0.30759
G1 F8640
G1 X103.087 Y103.063 E-0.76000
G1 E-0.04000 F2100.00000
G1 Z0.800 F10800.000
G1 X106.104 Y93.625
G1 Z0.200
G1 E0.80000 F2100.00000
G1 F1200
G1 X106.104 Y93.041 E0.01831
G1 X109.874 Y92.200 F10800.000
G1 F1200
G1 X109.874 Y90.424 E0.05569
G1 X110.407 Y90.114 E0.01931
G1 X110.629 Y90.018 E0.00759
G1 X110.629 Y91.591 E0.04933
G1 X111.383 Y91.175 E0.02700
G1 X111.383 Y89.690 E0.04659
G1 X112.137 Y89.362 E0.02578
G1 X112.137 Y90.865 E0.04712
G1 X112.891 Y90.581 E0.02526
G1 X112.891 Y89.126 E0.04562
G1 X113.645 Y88.898 E0.02470
G1 X113.645 Y90.479 E0.04957
G1 F8640
G1 X113.645 Y88.898 E-0.36501
G1 X112.891 Y89.126 E-0.18189
G1 X112.891 Y90.049 E-0.21310
G1 E-0.04000 F2100.00000
G1 Z0.800 F10800.000
G1 X115.154 Y90.148
G1 Z0.200
G1 E0.80000 F2100.00000
G1 F1200
G1 X115.154 Y89.744 E0.01266
G1 F8640
G1 X115.154 Y90.148 E-0.09326
G1 E-0.70674 F2100.00000
G1 Z0.800 F10800.000
G1 X113.645 Y92.744
G1 Z0.200
G1 E0.80000 F2100.00000
G1 F1200
G1 X113.645 Y95.614 E0.09001
G1 X112.891 Y95.614 E0.02365
G1 X112.891 Y92.914 E0.08469
G1 X112.137 Y92.914 E0.02365
G1 X112.137 Y95.614 E0.08469
G1 X111.554 Y95.614 E0.01828
G1 X111.554 Y96.606 E0.03108
G1 X112.137 Y96.606 E0.01828
G1 X112.137 Y111.764 E0.47527
G1 X112.891 Y111.764 E0.02365
G1 X112.891 Y96.606 E0.47527
G1 X113.645 Y96.606 E0.02365
G1 X113.645 Y111.764 E0.47527
G1 X114.399 Y111.764 E0.02365
G1 X114.399 Y96.606 E0.47527
G1 X114.853 Y96.606 E0.01421
G1 X114.853 Y92.914 E0.11577
G1 X115.154 Y92.914 E0.00944
G1 X115.154 Y121.422 E0.89386
G1 X115.908 Y121.556 E0.02402
G1 X115.908 Y92.914 E0.89806
G1 X116.662 Y92.914 E0.02365
G1 X116.662 Y121.611 E0.89977
G1 X117.416 Y121.655 E0.02369
G1 X117.416 Y92.914 E0.90116
G1 X118.170 Y92.914 E0.02365
G1 X118.170 Y119.586 E0.83631
G1 X118.924 Y119.586 E0.02365
G1 X118.924 Y92.914 E0.83631
G1 X119.679 Y92.914 E0.02365
G1 X119.679 Y119.586 E0.83631
G1 X120.433 Y119.586 E0.02365
G1 X120.433 Y92.914 E0.83631
G1 X121.187 Y92.914 E0.02365
G1 X121.187 Y119.586 E0.83631
G1 X121.516 Y119.586 E0.01032
G1 X121.758 Y119.829 E0.01074
G1 X121.758 Y121.986 E0.06765
G1 X121.941 Y121.986 E0.00573
G1 X121.941 Y92.914 E0.91156
G1 X122.695 Y92.914 E0.02365
G1 X122.695 Y121.986 E0.91156
G1 X123.449 Y121.986 E0.02365
G1 X123.449 Y92.914 E0.91156
G1 X124.203 Y92.914 E0.02365
G1 X124.203 Y122.156 E0.91688
G1 F8640
G1 X124.203 Y118.865 E-0.76000
G1 E-0.04000 F2100.00000
G1 Z0.800 F10800.000
G1 X114.399 Y121.460
G1 Z0.200
G1 E0.80000 F2100.00000
G1 F1200
G1 X114.399 Y115.062 E0.20060
G1 X113.861 Y115.062 E0.01688
G1 X113.861 Y112.755 E0.07234
G1 X113.645 Y112.755 E0.00677
G1 X113.645 Y121.102 E0.26169
G1 X112.891 Y120.874 E0.02470
G1 X112.891 Y112.755 E0.25455
G1 X112.137 Y112.755 E0.02365
G1 X112.137 Y120.638 E0.24716
G1 X111.383 Y120.310 E0.02578
G1 X111.383 Y112.755 E0.23688
M73 Q0 S145
G1 X110.629 Y112.755 E0.02365
G1 X110.629 Y119.982 E0.22660
M73 P0 R144
G1 X110.407 Y119.886 E0.00759
G1 X109.874 Y119.576 E0.01931
G1 X109.874 Y112.755 E0.21386
G1 X109.247 Y112.755 E0.01967
G1 X109.247 Y111.764 E0.03108
G1 X109.874 Y111.764 E0.01967
G1 X109.874 Y92.914 E0.59104
G1 X110.629 Y92.914 E0.02365
G1 X110.629 Y111.764 E0.59104
G1 X111.383 Y111.764 E0.02365
G1 X111.383 Y92.744 E0.59636
G1 F8640
G1 X111.383 Y96.035 E-0.76000
G1 E-0.04000 F2100.00000
G1 Z0.800 F10800.000
G1 X115.154 Y84.967
G1 Z0.200
G1 E0.80000 F2100.00000
G1 F1200
G1 X115.154 Y73.535 E0.35844
G1 X115.908 Y73.535 E0.02365
G1 X115.908 Y84.710 E0.35037
G1 X116.662 Y84.664 E0.02369
G1 X116.662 Y73.535 E0.34893
G1 X117.416 Y73.535 E0.02365
G1 X117.416 Y84.618 E0.34749
G1 X118.170 Y84.586 E0.02367
G1 X118.170 Y73.535 E0.34651
G1 X118.924 Y73.535 E0.02365
G1 X118.924 Y84.586 E0.34651
G1 X119.679 Y84.586 E0.02365
G1 X119.679 Y73.535 E0.34651
G1 X120.433 Y73.535 E0.02365
G1 X120.433 Y84.586 E0.34651
G1 X121.187 Y84.586 E0.02365
G1 X121.187 Y73.535 E0.34651
G1 X121.941 Y73.535 E0.02365
G1 X121.941 Y84.586 E0.34651
G1 X122.695 Y84.586 E0.02365
G1 X122.695 Y73.535 E0.34651
G1 X123.449 Y73.535 E0.02365
G1 X123.449 Y84.586 E0.34651
G1 X124.203 Y84.586 E0.02365
G1 X124.203 Y73.535 E0.34651
G1 X124.958 Y73.535 E0.02365
G1 X124.958 Y84.586 E0.34651
G1 X125.712 Y84.586 E0.02365
G1 X125.712 Y73.535 E0.34651
G1 X126.466 Y73.535 E0.02365
G1 X126.466 Y84.586 E0.34651
G1 X127.220 Y84.586 E0.02365
G1 X127.220 Y73.535 E0.34651
G1 X127.974 Y73.535 E0.02365
G1 X127.974 Y84.586 E0.34651
G1 X128.728 Y84.586 E0.02365
G1 X128.728 Y73.535 E0.34651
G1 X129.483 Y73.535 E0.02365
G1 X129.483 Y84.586 E0.34651
G1 X130.237 Y84.586 E0.02365
G1 X130.237 Y73.535 E0.34651
G1 X130.991 Y73.535 E0.02365
G1 X130.991 Y84.586 E0.34651
G1 X131.745 Y84.586 E0.02365
G1 X131.745 Y73.535 E0.34651
G1 X132.499 Y73.535 E0.02365
G1 X132.499 Y84.586 E0.34651
G1 X133.253 Y84.605 E0.02365
G1 X133.253 Y73.535 E0.34709
G1 X134.008 Y73.535 E0.02365
G1 X134.008 Y84.823 E0.35391
G1 F8640
G1 X134.008 Y81.531 E-0.76000
G1 E-0.04000 F2100.00000
G1 Z0.800 F10800.000
G1 X128.728 Y89.706
G1 Z0.200
G1 E0.80000 F2100.00000
G1 F1200
G1 X128.728 Y87.964 E0.05464
G1 X127.974 Y87.964 E0.02365
G1 X127.974 Y89.536 E0.04932
G1 X127.220 Y89.536 E0.02365
G1 X127.220 Y87.964 E0.04932
G1 X126.466 Y87.964 E0.02365
G1 X126.466 Y89.536 E0.04932
G1 X125.712 Y89.536 E0.02365
G1 X125.712 Y87.964 E0.04932
G1 X124.958 Y87.964 E0.02365
G1 X124.958 Y89.536 E0.04932
G1 X124.203 Y89.536 E0.02365
G1 X124.203 Y87.964 E0.04932
G1 X123.449 Y87.964 E0.02365
G1 X123.449 Y89.536 E0.04932
G1 X122.695 Y89.536 E0.02365
G1 X122.695 Y87.964 E0.04932
G1 X121.941 Y87.964 E0.02365
G1 X121.941 Y89.706 E0.05464
G1 F8640
G1 X121.941 Y87.964 E-0.40237
G1 X122.695 Y87.964 E-0.17414
G1 X122.695 Y88.758 E-0.18349
G1 E-0.04000 F2100.00000
G1 Z0.800 F10800.000
G1 X126.466 Y92.744
G1 Z0.200
G1 E0.80000 F2100.00000
G1 F1200
G1 X126.466 Y114.071 E0.66870
G1 X125.712 Y114.071 E0.02365
G1 X125.712 Y92.914 E0.66338
G1 X124.958 Y92.914 E0.02365
G1 X124.958 Y121.986 E0.91156
G1 X125.712 Y121.986 E0.02365
G1 X125.712 Y115.062 E0.21710
G1 X126.466 Y115.062 E0.02365
G1 X126.466 Y121.986 E0.21710
G1 X127.220 Y121.986 E0.02365
G1 X127.220 Y115.062 E0.21710
G1 X127.974 Y115.062 E0.02365
G1 X127.974 Y121.986 E0.21710
G1 X128.728 Y121.986 E0.02365
G1 X128.728 Y115.062 E0.21710
G1 X129.483 Y115.062 E0.02365
G1 X129.483 Y119.586 E0.14185
G1 X130.237 Y119.586 E0.02365
G1 X130.237 Y115.062 E0.14185
G1 X130.991 Y115.062 E0.02365
G1 X130.991 Y119.586 E0.14185
G1 X131.745 Y119.586 E0.02365
G1 X131.745 Y115.062 E0.14185
G1 X132.499 Y115.062 E0.02365
G1 X132.499 Y119.586 E0.14185
G1 X133.253 Y119.586 E0.02365
G1 X133.253 Y115.062 E0.14185
G1 X134.008 Y115.062 E0.02365
G1 X134.008 Y119.756 E0.14717
G1 F8640
G1 X134.008 Y116.465 E-0.76000
G1 E-0.04000 F2100.00000
G1 Z0.800 F10800.000
G1 X134.008 Y137.312
G1 Z0.200
G1 E0.80000 F2100.00000
G1 F1200
G1 X134.008 Y125.348 E0.37512
G1 X133.253 Y125.395 E0.02369
G1 X133.253 Y137.142 E0.36831
G1 X132.499 Y137.142 E0.02365
G1 X132.499 Y125.414 E0.36773
G1 X131.745 Y125.414 E0.02365
G1 X131.745 Y137.142 E0.36773
G1 X130.991 Y137.142 E0.02365
G1 X130.991 Y125.414 E0.36773
G1 X130.237 Y125.414 E0.02365
G1 X130.237 Y137.142 E0.36773
G1 X129.483 Y137.142 E0.02365
G1 X129.483 Y125.414 E0.36773
G1 X128.728 Y125.414 E0.02365
G1 X128.728 Y137.142 E0.36773
G1 X127.974 Y137.142 E0.02365
G1 X127.974 Y125.414 E0.36773
G1 X127.220 Y125.414 E0.02365
G1 X127.220 Y137.142 E0.36773
G1 X126.466 Y137.142 E0.02365
G1 X126.466 Y125.414 E0.36773
G1 X125.712 Y125.414 E0.02365
G1 X125.712 Y137.142 E0.36773
G1 X124.958 Y137.142 E0.02365
G1 X124.958 Y125.414 E0.36773
G1 X124.203 Y125.414 E0.02365
G1 X124.203 Y137.142 E0.36773
G1 X123.449 Y137.142 E0.02365
G1 X123.449 Y125.414 E0.36773
G1 X122.695 Y125.414 E0.02365
G1 X122.695 Y137.142 E0.36773
G1 X121.941 Y137.142 E0.02365
G1 X121.941 Y125.414 E0.36773
G1 X121.187 Y125.414 E0.02365
G1 X121.187 Y137.142 E0.36773
G1 X120.433 Y137.142 E0.02365
G1 X120.433 Y125.414 E0.36773
G1 X119.679 Y125.414 E0.02365
G1 X119.679 Y137.142 E0.36773
G1 X118.924 Y137.142 E0.02365
G1 X118.924 Y125.414 E0.36773
G1 X118.170 Y125.414 E0.02365
G1 X118.170 Y137.142 E0.36773
G1 X117.416 Y137.142 E0.02365
G1 X117.416 Y125.382 E0.36872
G1 X116.662 Y125.336 E0.02369
G1 X116.662 Y137.142 E0.37016
G1 X115.908 Y137.142 E0.02365
G1 X115.908 Y125.290 E0.37160
G1 X115.482 Y125.264 E0.01337
G1 X115.154 Y125.205 E0.01046
G1 X115.154 Y137.312 E0.37958
G1 F8640
G1 X115.154 Y134.020 E-0.76000
G1 E-0.04000 F2100.00000
G1 Z0.800 F10800.000
G1 X129.483 Y95.784
G1 Z0.200
G1 E0.80000 F2100.00000
G1 F1200
G1 X129.483 Y92.914 E0.09001
G1 X128.728 Y92.914 E0.02365
G1 X128.728 Y95.614 E0.08469
G1 X127.974 Y95.614 E0.02365
G1 X127.974 Y92.914 E0.08469
G1 X127.220 Y92.914 E0.02365
G1 X127.220 Y114.071 E0.66338
G1 X127.974 Y114.071 E0.02365
G1 X127.974 Y96.606 E0.54761
G1 X128.728 Y96.606 E0.02365
G1 X128.728 Y114.071 E0.54761
G1 X129.483 Y114.071 E0.02365
G1 X129.483 Y96.606 E0.54761
G1 X130.237 Y96.606 E0.02365
G1 X130.237 Y114.071 E0.54761
G1 X130.991 Y114.071 E0.02365
G1 X130.991 Y96.606 E0.54761
G1 X131.745 Y96.606 E0.02365
G1 X131.745 Y114.071 E0.54761
G1 X132.499 Y114.071 E0.02365
G1 X132.499 Y96.606 E0.54761
G1 X133.253 Y96.606 E0.02365
G1 X133.253 Y114.071 E0.54761
G1 X134.008 Y114.071 E0.02365
G1 X134.008 Y96.606 E0.54761
G1 X134.762 Y96.606 E0.02365
G1 X134.762 Y114.071 E0.54761
G1 X135.516 Y114.071 E0.02365
G1 X135.516 Y96.606 E0.54761
G1 X136.270 Y96.606 E0.02365
G1 X136.270 Y114.071 E0.54761
M73 Q1 S144
M73 P1 R143
G1 X137.024 Y114.071 E0.02365
G1 X137.024 Y96.606 E0.54761
G1 X137.778 Y96.606 E0.02365
G1 X137.778 Y114.071 E0.54761
G1 X138.533 Y114.071 E0.02365
G1 X138.533 Y96.606 E0.54761
G1 X139.239 Y96.606 E0.02215
G1 X139.239 Y98.913 E0.07234
G1 X139.287 Y98.913 E0.00149
G1 X139.287 Y111.764 E0.40294
G1 X140.041 Y111.764 E0.02365
G1 X140.041 Y98.913 E0.40294
G1 X140.795 Y98.913 E0.02365
G1 X140.795 Y111.764 E0.40294
G1 X141.549 Y111.764 E0.02365
G1 X141.549 Y98.913 E0.40294
G1 X142.303 Y98.913 E0.02365
G1 X142.303 Y111.764 E0.40294
G1 X143.057 Y111.764 E0.02365
G1 X143.057 Y98.913 E0.40294
G1 X143.812 Y98.913 E0.02365
G1 X143.812 Y111.764 E0.40294
G1 X144.566 Y111.764 E0.02365
G1 X144.566 Y98.913 E0.40294
G1 X145.320 Y98.913 E0.02365
G1 X145.320 Y111.764 E0.40294
G1 X146.074 Y111.764 E0.02365
G1 X146.074 Y98.913 E0.40294
G1 X146.828 Y98.913 E0.02365
G1 X146.828 Y111.764 E0.40294
G1 X146.944 Y111.764 E0.00362
G1 X147.472 Y110.644 E0.03883
G1 X147.582 Y110.288 E0.01167
G1 X147.582 Y99.689 E0.33232
G1 X147.672 Y99.899 E0.00713
G1 X148.243 Y102.020 E0.06889
G1 X148.337 Y102.780 E0.02401
G1 X148.337 Y108.275 E0.17228
G1 F8640
G1 X148.337 Y104.984 E-0.76000
G1 E-0.04000 F2100.00000
G1 Z0.800 F10800.000
G1 X118.155 Y87.677
G1 Z0.200
G1 E0.80000 F2100.00000
G1 F1200
G1 X118.155 Y90.295 E0.08209
G1 X115.839 Y90.462 E0.07281
G1 X113.776 Y90.914 E0.06621
G1 X111.800 Y91.658 E0.06621
G1 X110.652 Y92.290 E0.04108
G1 X143.014 Y92.290 E1.01471
G1 X144.741 Y93.881 E0.07361
G1 X146.187 Y95.650 E0.07164
G1 X147.366 Y97.597 E0.07137
G1 X148.261 Y99.690 E0.07137
G1 X148.855 Y101.896 E0.07164
G1 X149.133 Y104.160 E0.07151
G1 X149.091 Y106.440 E0.07151
G1 X148.735 Y108.659 E0.07045
G1 X148.056 Y110.869 E0.07249
G1 X147.083 Y112.931 E0.07151
G1 X145.830 Y114.837 E0.07151
G1 X144.322 Y116.548 E0.07151
G1 X142.588 Y118.030 E0.07151
G1 X140.664 Y119.255 E0.07151
G1 X138.558 Y120.210 E0.07252
G1 X129.755 Y120.210 E0.27602
G1 X129.755 Y122.610 E0.07525
G1 X121.135 Y122.610 E0.27027
G1 X121.135 Y120.210 E0.07525
G1 X118.155 Y120.210 E0.09344
