; generated by Slic3r Prusa Edition 1.41.0+win64 on 2019-02-26 at 20:02:25

; 

; external perimeters extrusion width = 0.45mm
; perimeters extrusion width = 0.45mm
; infill extrusion width = 0.45mm
; solid infill extrusion width = 0.45mm
; top infill extrusion width = 0.40mm
; first layer extrusion width = 0.42mm

M201 X1000 Y1000 Z1000 E5000 ; sets maximum accelerations, mm/sec^2
M203 X200 Y200 Z12 E120 ; sets maximum feedrates, mm/sec
M204 P1250 R1250 T1250 ; sets acceleration (P, T) and retract acceleration (R), mm/sec^2
M205 X8.00 Y8.00 Z0.40 E1.50 ; sets the jerk limits, mm/sec
M205 S0 T0 ; sets the minimum extruding and travel feed rate, mm/sec
M107
M115 U3.4.1 ; tell printer latest fw version
M83  ; extruder relative mode
M104 S215 ; set extruder temp
M140 S60 ; set bed temp
M190 S60 ; wait for bed temp
M109 S215 ; wait for extruder temp
G28 W ; home all without mesh bed level
G80 ; mesh bed leveling
G1 Y-3.0 F1000.0 ; go outside print area
G92 E0.0
G1 X60.0 E9.0  F1000.0 ; intro line
M73 Q0 S46
M73 P0 R46
G1 X100.0 E12.5  F1000.0 ; intro line
G92 E0.0
M221 S95
M900 K30; Filament gcode
G21 ; set units to millimeters
G90 ; use absolute coordinates
M83 ; use relative distances for extrusion
;BEFORE_LAYER_CHANGE
G92 E0.0
;0.2


G1 E-0.80000 F2100.00000
G1 Z0.600 F10800.000
;AFTER_LAYER_CHANGE
;0.2
G1 X89.279 Y79.191
G1 Z0.200
G1 E0.80000 F2100.00000
M204 S1000
G1 F1200
G1 X91.241 Y77.231 E0.08694
G1 X103.759 Y66.744 E0.51202
G1 X106.825 Y64.769 E0.11437
G1 X108.363 Y63.998 E0.05394
G1 X109.767 Y63.414 E0.04767
G1 X111.361 Y62.896 E0.05254
G1 X113.147 Y62.469 E0.05758
G1 X114.612 Y62.213 E0.04663
G1 X116.091 Y62.065 E0.04663
G1 X132.177 Y62.009 E0.50436
G1 X133.895 Y62.083 E0.05393
G1 X135.942 Y62.332 E0.06466
G1 X137.373 Y62.589 E0.04558
G1 X138.847 Y62.963 E0.04767
G1 X140.250 Y63.421 E0.04628
G1 X141.626 Y63.985 E0.04663
G1 X143.317 Y64.833 E0.05931
G1 X144.555 Y65.553 E0.04489
G1 X146.597 Y67.026 E0.07896
G1 X158.436 Y76.941 E0.48420
G1 X159.994 Y78.459 E0.06818
G1 X161.995 Y80.803 E0.09663
G1 X163.236 Y82.656 E0.06993
G1 X164.243 Y84.571 E0.06784
G1 X165.193 Y86.921 E0.07948
G1 X165.819 Y89.131 E0.07201
G1 X168.712 Y105.428 E0.51898
G1 X168.929 Y108.736 E0.10394
G1 X168.797 Y111.395 E0.08348
G1 X168.427 Y113.639 E0.07131
G1 X167.789 Y115.909 E0.07392
G1 X167.071 Y117.820 E0.06401
G1 X166.164 Y119.649 E0.06401
G1 X157.987 Y133.771 E0.51166
G1 X155.704 Y136.743 E0.11749
G1 X154.472 Y138.022 E0.05567
G1 X153.262 Y139.099 E0.05080
G1 X152.015 Y140.045 E0.04906
G1 X150.503 Y141.026 E0.05653
G1 X149.246 Y141.734 E0.04524
G1 X147.931 Y142.355 E0.04558
G1 X132.402 Y148.050 E0.51863
G1 X129.525 Y148.794 E0.09315
G1 X127.501 Y149.136 E0.06436
G1 X125.110 Y149.290 E0.07514
G1 X122.783 Y149.175 E0.07305
G1 X120.342 Y148.808 E0.07739
G1 X118.122 Y148.221 E0.07201
G1 X102.649 Y142.594 E0.51620
G1 X100.150 Y141.370 E0.08725
G1 X98.464 Y140.364 E0.06158
G1 X96.633 Y139.014 E0.07133
G1 X95.000 Y137.511 E0.06957
G1 X93.280 Y135.575 E0.08122
G1 X91.903 Y133.613 E0.07513
G1 X84.132 Y120.204 E0.48593
G1 X83.220 Y118.403 E0.06332
G1 X82.071 Y115.459 E0.09908
G1 X81.649 Y113.952 E0.04907
G1 X81.357 Y112.550 E0.04489
G1 X81.152 Y110.988 E0.04941
G1 X81.052 Y109.232 E0.05513
G1 X81.158 Y106.406 E0.08868
G1 X83.959 Y90.172 E0.51653
G1 X84.338 Y88.562 E0.05184
G1 X84.984 Y86.499 E0.06779
G1 X86.082 Y83.904 E0.08835
G1 X87.418 Y81.614 E0.08312
G1 X89.243 Y79.238 E0.09394
; PURGING FINISHED
G1 F8640
G1 X91.241 Y77.231 E-0.65402
G1 X91.593 Y76.936 E-0.10598
G1 E-0.04000 F2100.00000
G1 Z0.800 F10800.000
G1 X110.108 Y116.117
G1 Z0.200
G1 E0.80000 F2100.00000
G1 F1200
G1 X113.883 Y116.117 E0.11836
G1 X113.883 Y119.892 E0.11836
G1 X110.108 Y119.892 E0.11836
G1 X110.108 Y116.177 E0.11648
G1 X110.486 Y116.494 F10800.000
G1 F1200
G1 X113.506 Y116.494 E0.09471
G1 X113.506 Y119.515 E0.09471
G1 X110.485 Y119.515 E0.09471
G1 X110.485 Y116.554 E0.09284
G1 X110.382 Y116.108 F10800.000
G1 F8640
G1 X113.506 Y116.494 E-0.69762
G1 X113.506 Y116.764 E-0.06238
G1 E-0.04000 F2100.00000
G1 Z0.800 F10800.000
G1 X115.310 Y116.117
G1 Z0.200
G1 E0.80000 F2100.00000
G1 F1200
G1 X119.084 Y116.117 E0.11835
G1 X119.084 Y119.892 E0.11836
G1 X115.310 Y119.892 E0.11835
G1 X115.310 Y116.177 E0.11648
G1 X115.687 Y116.494 F10800.000
G1 F1200
G1 X118.707 Y116.494 E0.09471
G1 X118.707 Y119.515 E0.09471
G1 X115.687 Y119.515 E0.09471
G1 X115.687 Y116.554 E0.09283
G1 X115.583 Y116.108 F10800.000
G1 F8640
G1 X118.707 Y116.494 E-0.69758
G1 X118.707 Y116.765 E-0.06242
G1 E-0.04000 F2100.00000
G1 Z0.800 F10800.000
G1 X120.511 Y116.117
G1 Z0.200
G1 E0.80000 F2100.00000
G1 F1200
G1 X124.285 Y116.117 E0.11835
G1 X124.285 Y119.892 E0.11836
G1 X120.511 Y119.892 E0.11835
G1 X120.511 Y116.177 E0.11648
G1 X120.888 Y116.494 F10800.000
G1 F1200
G1 X123.908 Y116.494 E0.09471
G1 X123.908 Y119.515 E0.09471
G1 X120.888 Y119.515 E0.09471
G1 X120.888 Y116.554 E0.09283
G1 X120.784 Y116.108 F10800.000
G1 F8640
G1 X123.908 Y116.494 E-0.69758
G1 X123.908 Y116.765 E-0.06242
G1 E-0.04000 F2100.00000
G1 Z0.800 F10800.000
G1 X125.712 Y116.117
G1 Z0.200
G1 E0.80000 F2100.00000
G1 F1200
G1 X129.486 Y116.117 E0.11835
G1 X129.486 Y119.892 E0.11836
G1 X125.712 Y119.892 E0.11835
G1 X125.712 Y116.177 E0.11648
G1 X126.089 Y116.494 F10800.000
G1 F1200
G1 X129.109 Y116.494 E0.09471
G1 X129.109 Y119.515 E0.09471
G1 X126.089 Y119.515 E0.09471
G1 X126.089 Y116.554 E0.09283
G1 X125.985 Y116.108 F10800.000
G1 F8640
G1 X129.109 Y116.494 E-0.69758
G1 X129.109 Y116.765 E-0.06242
G1 E-0.04000 F2100.00000
G1 Z0.800 F10800.000
G1 X130.913 Y116.117
G1 Z0.200
G1 E0.80000 F2100.00000
G1 F1200
G1 X134.687 Y116.117 E0.11835
G1 X134.687 Y119.892 E0.11836
G1 X130.913 Y119.892 E0.11835
G1 X130.913 Y116.177 E0.11648
G1 X131.290 Y116.494 F10800.000
G1 F1200
G1 X134.310 Y116.494 E0.09471
G1 X134.310 Y119.515 E0.09471
G1 X131.290 Y119.515 E0.09471
G1 X131.290 Y116.554 E0.09283
G1 X131.186 Y116.108 F10800.000
G1 F8640
G1 X134.310 Y116.494 E-0.69758
G1 X134.310 Y116.765 E-0.06242
G1 E-0.04000 F2100.00000
G1 Z0.800 F10800.000
G1 X130.913 Y110.916
G1 Z0.200
G1 E0.80000 F2100.00000
G1 F1200
G1 X134.687 Y110.916 E0.11835
G1 X134.687 Y114.691 E0.11835
G1 X130.913 Y114.691 E0.11835
G1 X130.913 Y110.976 E0.11647
G1 X131.290 Y111.293 F10800.000
G1 F1200
G1 X134.310 Y111.293 E0.09471
G1 X134.310 Y114.314 E0.09471
G1 X131.290 Y114.314 E0.09471
G1 X131.290 Y111.353 E0.09283
G1 X131.186 Y110.907 F10800.000
G1 F8640
G1 X134.310 Y111.293 E-0.69758
G1 X134.310 Y111.563 E-0.06242
G1 E-0.04000 F2100.00000
G1 Z0.800 F10800.000
G1 X125.712 Y110.916
G1 Z0.200
G1 E0.80000 F2100.00000
G1 F1200
G1 X129.486 Y110.916 E0.11835
G1 X129.486 Y114.691 E0.11835
G1 X125.712 Y114.691 E0.11835
G1 X125.712 Y110.976 E0.11647
G1 X126.089 Y111.293 F10800.000
G1 F1200
G1 X129.109 Y111.293 E0.09471
G1 X129.109 Y114.314 E0.09471
G1 X126.089 Y114.314 E0.09471
G1 X126.089 Y111.353 E0.09283
G1 X125.985 Y110.907 F10800.000
G1 F8640
G1 X129.109 Y111.293 E-0.69758
G1 X129.109 Y111.563 E-0.06242
G1 E-0.04000 F2100.00000
G1 Z0.800 F10800.000
G1 X120.511 Y110.916
G1 Z0.200
G1 E0.80000 F2100.00000
G1 F1200
G1 X124.285 Y110.916 E0.11835
G1 X124.285 Y114.691 E0.11835
G1 X120.511 Y114.691 E0.11835
G1 X120.511 Y110.976 E0.11647
G1 X120.888 Y111.293 F10800.000
G1 F1200
G1 X123.908 Y111.293 E0.09471
G1 X123.908 Y114.314 E0.09471
G1 X120.888 Y114.314 E0.09471
G1 X120.888 Y111.353 E0.09283
G1 X120.784 Y110.907 F10800.000
G1 F8640
G1 X123.908 Y111.293 E-0.69758
G1 X123.908 Y111.563 E-0.06242
G1 E-0.04000 F2100.00000
G1 Z0.800 F10800.000
G1 X115.310 Y110.916
G1 Z0.200
G1 E0.80000 F2100.00000
G1 F1200
G1 X119.084 Y110.916 E0.11835
G1 X119.084 Y114.691 E0.11835
G1 X115.310 Y114.691 E0.11835
G1 X115.310 Y110.976 E0.11647
G1 X115.687 Y111.293 F10800.000
G1 F1200
G1 X118.707 Y111.293 E0.09471
G1 X118.707 Y114.314 E0.09471
G1 X115.687 Y114.314 E0.09471
G1 X115.687 Y111.353 E0.09283
G1 X115.583 Y110.907 F10800.000
G1 F8640
G1 X118.707 Y111.293 E-0.69758
G1 X118.707 Y111.563 E-0.06242
G1 E-0.04000 F2100.00000
G1 Z0.800 F10800.000
G1 X113.883 Y110.916
G1 Z0.200
G1 E0.80000 F2100.00000
G1 F1200
G1 X113.883 Y114.691 E0.11835
G1 X110.108 Y114.691 E0.11836
G1 X110.108 Y110.916 E0.11835
G1 X113.823 Y110.916 E0.11647
G1 X113.506 Y111.293 F10800.000
G1 F1200
G1 X113.506 Y114.314 E0.09471
G1 X110.486 Y114.314 E0.09471
G1 X110.486 Y111.293 E0.09471
G1 X113.446 Y111.293 E0.09283
G1 X113.893 Y111.189 F10800.000
G1 F8640
G1 X113.506 Y114.314 E-0.69760
G1 X113.236 Y114.314 E-0.06240
G1 E-0.04000 F2100.00000
G1 Z0.800 F10800.000
G1 X113.883 Y105.715
G1 Z0.200
G1 E0.80000 F2100.00000
G1 F1200
G1 X113.883 Y109.490 E0.11835
G1 X110.108 Y109.490 E0.11836
G1 X110.108 Y105.715 E0.11835
G1 X113.823 Y105.715 E0.11647
G1 X113.506 Y106.092 F10800.000
G1 F1200
G1 X113.506 Y109.112 E0.09471
G1 X110.486 Y109.112 E0.09471
G1 X110.486 Y106.092 E0.09471
G1 X113.446 Y106.092 E0.09283
G1 X113.893 Y105.988 F10800.000
G1 F8640
G1 X113.506 Y109.112 E-0.69760
G1 X113.236 Y109.112 E-0.06240
G1 E-0.04000 F2100.00000
G1 Z0.800 F10800.000
G1 X115.310 Y105.715
G1 Z0.200
G1 E0.80000 F2100.00000
G1 F1200
G1 X119.084 Y105.715 E0.11835
G1 X119.084 Y109.490 E0.11835
G1 X115.310 Y109.490 E0.11835
G1 X115.310 Y105.775 E0.11647
G1 X115.687 Y106.092 F10800.000
G1 F1200
G1 X118.707 Y106.092 E0.09471
G1 X118.707 Y109.112 E0.09471
G1 X115.687 Y109.112 E0.09471
G1 X115.687 Y106.152 E0.09283
G1 X115.583 Y105.706 F10800.000
G1 F8640
G1 X118.707 Y106.092 E-0.69758
G1 X118.707 Y106.362 E-0.06242
G1 E-0.04000 F2100.00000
G1 Z0.800 F10800.000
G1 X120.511 Y105.715
G1 Z0.200
G1 E0.80000 F2100.00000
G1 F1200
G1 X124.285 Y105.715 E0.11835
G1 X124.285 Y109.490 E0.11835
G1 X120.511 Y109.490 E0.11835
G1 X120.511 Y105.775 E0.11647
G1 X120.888 Y106.092 F10800.000
G1 F1200
G1 X123.908 Y106.092 E0.09471
G1 X123.908 Y109.112 E0.09471
G1 X120.888 Y109.112 E0.09471
G1 X120.888 Y106.152 E0.09283
G1 X120.784 Y105.706 F10800.000
G1 F8640
G1 X123.908 Y106.092 E-0.69758
G1 X123.908 Y106.362 E-0.06242
G1 E-0.04000 F2100.00000
G1 Z0.800 F10800.000
G1 X125.712 Y105.715
G1 Z0.200
G1 E0.80000 F2100.00000
G1 F1200
G1 X129.486 Y105.715 E0.11835
G1 X129.486 Y109.490 E0.11835
G1 X125.712 Y109.490 E0.11835
G1 X125.712 Y105.775 E0.11647
G1 X126.089 Y106.092 F10800.000
G1 F1200
G1 X129.109 Y106.092 E0.09471
G1 X129.109 Y109.112 E0.09471
G1 X126.089 Y109.112 E0.09471
G1 X126.089 Y106.152 E0.09283
G1 X125.985 Y105.706 F10800.000
G1 F8640
G1 X129.109 Y106.092 E-0.69758
G1 X129.109 Y106.362 E-0.06242
G1 E-0.04000 F2100.00000
G1 Z0.800 F10800.000
G1 X130.913 Y105.715
G1 Z0.200
G1 E0.80000 F2100.00000
G1 F1200
G1 X134.687 Y105.715 E0.11835
G1 X134.687 Y109.490 E0.11835
G1 X130.913 Y109.490 E0.11835
G1 X130.913 Y105.775 E0.11647
G1 X131.290 Y106.092 F10800.000
G1 F1200
G1 X134.310 Y106.092 E0.09471
G1 X134.310 Y109.112 E0.09471
G1 X131.290 Y109.112 E0.09471
G1 X131.290 Y106.152 E0.09283
G1 X131.186 Y105.706 F10800.000
G1 F8640
G1 X134.310 Y106.092 E-0.69758
G1 X134.310 Y106.362 E-0.06242
G1 E-0.04000 F2100.00000
G1 Z0.800 F10800.000
G1 X136.114 Y105.715
G1 Z0.200
G1 E0.80000 F2100.00000
G1 F1200
G1 X139.888 Y105.715 E0.11836
G1 X139.888 Y109.490 E0.11835
G1 X136.114 Y109.490 E0.11836
G1 X136.114 Y105.775 E0.11647
G1 X136.491 Y106.092 F10800.000
G1 F1200
G1 X139.511 Y106.092 E0.09471
G1 X139.511 Y109.112 E0.09471
G1 X136.491 Y109.112 E0.09471
G1 X136.491 Y106.152 E0.09283
G1 X136.387 Y105.706 F10800.000
G1 F8640
G1 X139.511 Y106.092 E-0.69760
G1 X139.511 Y106.362 E-0.06240
G1 E-0.04000 F2100.00000
G1 Z0.800 F10800.000
G1 X139.888 Y100.514
G1 Z0.200
G1 E0.80000 F2100.00000
G1 F1200
G1 X139.888 Y104.288 E0.11835
G1 X136.114 Y104.288 E0.11836
G1 X136.114 Y100.514 E0.11835
G1 X139.828 Y100.514 E0.11647
G1 X139.511 Y100.891 F10800.000
G1 F1200
G1 X139.511 Y103.911 E0.09471
G1 X136.491 Y103.911 E0.09471
G1 X136.491 Y100.891 E0.09471
G1 X139.451 Y100.891 E0.09283
G1 X139.898 Y100.787 F10800.000
G1 F8640
G1 X139.511 Y103.911 E-0.69760
G1 X139.241 Y103.911 E-0.06240
G1 E-0.04000 F2100.00000
G1 Z0.800 F10800.000
G1 X139.888 Y95.312
G1 Z0.200
G1 E0.80000 F2100.00000
G1 F1200
G1 X139.888 Y99.087 E0.11836
G1 X136.114 Y99.087 E0.11836
G1 X136.114 Y95.313 E0.11835
G1 X139.828 Y95.312 E0.11647
G1 X139.511 Y95.690 F10800.000
G1 F1200
G1 X139.511 Y98.710 E0.09471
G1 X136.491 Y98.710 E0.09471
G1 X136.491 Y95.690 E0.09471
G1 X139.451 Y95.690 E0.09283
G1 X139.898 Y95.586 F10800.000
G1 F8640
G1 X139.511 Y98.710 E-0.69760
G1 X139.241 Y98.710 E-0.06240
G1 E-0.04000 F2100.00000
G1 Z0.800 F10800.000
G1 X139.889 Y90.111
G1 Z0.200
G1 E0.80000 F2100.00000
G1 F1200
G1 X139.888 Y93.886 E0.11837
G1 X136.114 Y93.886 E0.11836
G1 X136.114 Y90.111 E0.11836
G1 X139.829 Y90.111 E0.11648
G1 X139.511 Y90.488 F10800.000
G1 F1200
G1 X139.511 Y93.509 E0.09472
G1 X136.491 Y93.509 E0.09471
G1 X136.491 Y90.488 E0.09471
G1 X139.451 Y90.488 E0.09283
G1 X139.898 Y90.385 F10800.000
G1 F8640
G1 X139.511 Y93.509 E-0.69767
G1 X139.241 Y93.509 E-0.06233
G1 E-0.04000 F2100.00000
G1 Z0.800 F10800.000
G1 X134.687 Y90.111
G1 Z0.200
G1 E0.80000 F2100.00000
G1 F1200
G1 X134.687 Y93.886 E0.11836
G1 X130.913 Y93.886 E0.11835
G1 X130.913 Y90.111 E0.11836
G1 X134.627 Y90.111 E0.11647
G1 X134.310 Y90.488 F10800.000
G1 F1200
G1 X134.310 Y93.509 E0.09471
G1 X131.290 Y93.509 E0.09471
G1 X131.290 Y90.488 E0.09471
G1 X134.250 Y90.488 E0.09282
G1 X134.697 Y90.385 F10800.000
G1 F8640
G1 X134.310 Y93.509 E-0.69763
G1 X134.040 Y93.509 E-0.06237
G1 E-0.04000 F2100.00000
G1 Z0.800 F10800.000
G1 X129.486 Y90.111
G1 Z0.200
G1 E0.80000 F2100.00000
G1 F1200
G1 X129.486 Y93.886 E0.11836
G1 X125.712 Y93.886 E0.11835
G1 X125.712 Y90.111 E0.11836
G1 X129.426 Y90.111 E0.11647
G1 X129.109 Y90.488 F10800.000
G1 F1200
G1 X129.109 Y93.509 E0.09471
G1 X126.089 Y93.509 E0.09471
G1 X126.089 Y90.488 E0.09471
G1 X129.049 Y90.488 E0.09282
G1 X129.496 Y90.385 F10800.000
G1 F8640
G1 X129.109 Y93.509 E-0.69762
G1 X128.839 Y93.509 E-0.06238
G1 E-0.04000 F2100.00000
G1 Z0.800 F10800.000
G1 X130.913 Y95.313
G1 Z0.200
G1 E0.80000 F2100.00000
G1 F1200
G1 X134.687 Y95.313 E0.11835
G1 X134.687 Y99.087 E0.11835
G1 X130.913 Y99.087 E0.11835
G1 X130.913 Y95.373 E0.11647
G1 X131.290 Y95.690 F10800.000
G1 F1200
G1 X134.310 Y95.690 E0.09471
G1 X134.310 Y98.710 E0.09471
G1 X131.290 Y98.710 E0.09471
G1 X131.290 Y95.750 E0.09283
G1 X131.186 Y95.303 F10800.000
G1 F8640
G1 X134.310 Y95.690 E-0.69758
G1 X134.310 Y95.960 E-0.06242
G1 E-0.04000 F2100.00000
G1 Z0.800 F10800.000
G1 X125.712 Y95.313
G1 Z0.200
G1 E0.80000 F2100.00000
G1 F1200
G1 X129.486 Y95.313 E0.11835
M73 Q2 S45
G1 X129.486 Y99.087 E0.11835
G1 X125.712 Y99.087 E0.11835
M73 P2 R45
G1 X125.712 Y95.373 E0.11647
G1 X126.089 Y95.690 F10800.000
G1 F1200
G1 X129.109 Y95.690 E0.09471
G1 X129.109 Y98.710 E0.09471
G1 X126.089 Y98.710 E0.09471
G1 X126.089 Y95.750 E0.09283
G1 X125.985 Y95.303 F10800.000
G1 F8640
G1 X129.109 Y95.690 E-0.69758
G1 X129.109 Y95.960 E-0.06242
G1 E-0.04000 F2100.00000
G1 Z0.800 F10800.000
G1 X120.511 Y95.313
G1 Z0.200
G1 E0.80000 F2100.00000
G1 F1200
G1 X124.285 Y95.313 E0.11835
G1 X124.285 Y99.087 E0.11835
G1 X120.511 Y99.087 E0.11835
G1 X120.511 Y95.373 E0.11647
G1 X120.888 Y95.690 F10800.000
G1 F1200
G1 X123.908 Y95.690 E0.09471
G1 X123.908 Y98.710 E0.09471
G1 X120.888 Y98.710 E0.09471
G1 X120.888 Y95.750 E0.09283
G1 X120.784 Y95.303 F10800.000
G1 F8640
G1 X123.908 Y95.690 E-0.69758
G1 X123.908 Y95.960 E-0.06242
G1 E-0.04000 F2100.00000
G1 Z0.800 F10800.000
G1 X120.511 Y93.886
G1 Z0.200
G1 E0.80000 F2100.00000
G1 F1200
G1 X120.511 Y90.111 E0.11836
G1 X124.285 Y90.111 E0.11835
G1 X124.285 Y93.886 E0.11836
G1 X120.571 Y93.886 E0.11647
G1 X120.888 Y93.509 F10800.000
G1 F1200
G1 X120.888 Y90.488 E0.09471
G1 X123.908 Y90.488 E0.09471
G1 X123.908 Y93.509 E0.09471
G1 X120.948 Y93.509 E0.09282
G1 X120.501 Y93.613 F10800.000
G1 F8640
G1 X120.888 Y90.488 E-0.69762
G1 X121.158 Y90.488 E-0.06238
G1 E-0.04000 F2100.00000
G1 Z0.800 F10800.000
G1 X115.310 Y93.886
G1 Z0.200
G1 E0.80000 F2100.00000
G1 F1200
G1 X115.310 Y90.111 E0.11836
G1 X119.084 Y90.111 E0.11835
G1 X119.084 Y93.886 E0.11836
G1 X115.370 Y93.886 E0.11647
